;FLAVOR:Marlin
;TIME:3376
;Filament used: 1.94439m
;Layer height: 0.2
;MINX:36.005
;MINY:77.298
;MINZ:0.2
;MAXX:198.983
;MAXY:157.702
;MAXZ:1
;Generated with Cura_SteamEngine 4.13.0
M140 S60
M105
M190 S60
M104 S200
M105
M109 S200
M82 ;absolute extrusion mode
; Ender 3 Custom Start G-code
G92 E0 ; Reset Extruder
G28 ; Home all axes
G1 Z2.0 F3000 ; Move Z Axis up little to prevent scratching of Heat Bed
G1 X0.1 Y20 Z0.3 F5000.0 ; Move to start position
G1 X0.1 Y200.0 Z0.3 F1500.0 E15 ; Draw the first line
G1 X0.4 Y200.0 Z0.3 F5000.0 ; Move to side a little
G1 X0.4 Y20 Z0.3 F1500.0 E30 ; Draw the second line
G92 E0 ; Reset Extruder
G1 Z2.0 F3000 ; Move Z Axis up little to prevent scratching of Heat Bed
G1 X5 Y20 Z0.3 F5000.0 ; Move over to prevent blob squish
G92 E0
G92 E0
G1 F1500 E-6.5
;LAYER_COUNT:5
;LAYER:0
M107
G0 F6000 X45.679 Y89.783 Z0.2
;TYPE:SKIRT
G1 F1500 E0
G1 F1200 X46.112 Y89.563 E0.01615
G1 X46.567 Y89.348 E0.03289
G1 X46.817 Y89.237 E0.04199
G1 X47.235 Y89.062 E0.05706
G1 X47.503 Y88.956 E0.06665
G1 X47.855 Y88.823 E0.07916
G1 X48.246 Y88.685 E0.09295
G1 X48.452 Y88.617 E0.10017
G1 X48.846 Y88.495 E0.11389
G1 X49.199 Y88.393 E0.12611
G1 X49.686 Y88.265 E0.14286
G1 X50.081 Y88.173 E0.15635
G1 X50.331 Y88.119 E0.16485
G1 X50.669 Y88.051 E0.17632
G1 X50.909 Y88.007 E0.18443
G1 X51.401 Y87.929 E0.201
G1 X51.737 Y87.883 E0.21228
G1 X52.196 Y87.83 E0.22765
G1 X52.616 Y87.793 E0.24167
G1 X52.872 Y87.775 E0.25021
G1 X53.323 Y87.752 E0.26523
G1 X53.654 Y87.742 E0.27624
G1 X54.682 Y87.729 E0.31044
G1 X111.83 Y87.729 E2.21119
G1 X114.438 Y87.692 E2.29794
G1 X116.96 Y87.585 E2.3819
G1 X119.455 Y87.408 E2.46509
G1 X121.953 Y87.16 E2.54858
G1 X124.442 Y86.842 E2.63204
G1 X126.951 Y86.448 E2.71651
G1 X129.417 Y85.989 E2.79994
G1 X131.868 Y85.462 E2.88332
G1 X134.328 Y84.859 E2.96757
G1 X136.762 Y84.189 E3.05153
G1 X139.141 Y83.461 E3.13428
G1 X141.544 Y82.65 E3.21863
G1 X143.914 Y81.776 E3.30265
G1 X146.247 Y80.84 E3.38626
G1 X148.583 Y79.823 E3.471
G1 X150.332 Y79.01 E3.53515
G1 X150.785 Y78.793 E3.55185
G1 X151.648 Y78.424 E3.58307
G1 X152.538 Y78.13 E3.61424
G1 X153.451 Y77.913 E3.64546
G1 X154.728 Y77.743 E3.6883
G1 X155.419 Y77.692 E3.71135
G1 X158.408 Y77.418 E3.81118
G1 X158.654 Y77.398 E3.81939
G1 X159.334 Y77.364 E3.84203
G1 X160.429 Y77.343 E3.87846
G1 X160.64 Y77.341 E3.88548
G1 X161.359 Y77.341 E3.90939
G1 X164.02 Y77.302 E3.99791
G1 X164.436 Y77.298 E4.01175
G1 X165.848 Y77.298 E4.05871
G1 X166.707 Y77.309 E4.08728
G1 X167.644 Y77.362 E4.1185
G1 X168.572 Y77.495 E4.14968
G1 X169.486 Y77.707 E4.18088
G1 X170.378 Y77.995 E4.21206
G1 X171.243 Y78.359 E4.24327
G1 X172.314 Y78.939 E4.28378
G1 X173.307 Y79.55 E4.32256
G1 X175.621 Y80.929 E4.41216
G1 X177.786 Y82.138 E4.49463
G1 X180.037 Y83.312 E4.57907
G1 X182.306 Y84.416 E4.663
G1 X184.604 Y85.454 E4.74686
G1 X186.917 Y86.423 E4.83027
G1 X189.281 Y87.331 E4.9145
G1 X191.538 Y88.128 E4.99411
G1 X192.408 Y88.477 E5.02529
G1 X193.551 Y89.077 E5.06822
G1 X193.654 Y89.139 E5.07222
G1 X194.436 Y89.656 E5.1034
G1 X195.171 Y90.238 E5.13458
G1 X195.854 Y90.881 E5.16578
G1 X196.48 Y91.58 E5.19699
G1 X197.044 Y92.329 E5.22818
G1 X197.542 Y93.124 E5.25938
G1 X197.971 Y93.958 E5.29057
G1 X198.327 Y94.826 E5.32178
G1 X198.607 Y95.721 E5.35297
G1 X198.811 Y96.636 E5.38415
G1 X198.936 Y97.566 E5.41536
G1 X198.981 Y98.502 E5.44653
G1 X198.946 Y99.44 E5.47774
G1 X198.824 Y100.415 E5.51043
G1 X198.681 Y101.244 E5.53841
G1 X198.457 Y102.455 E5.57937
G1 X198.073 Y104.92 E5.66234
G1 X197.754 Y107.438 E5.74676
G1 X197.506 Y109.971 E5.83141
G1 X197.333 Y112.439 E5.9137
G1 X197.229 Y114.982 E5.99835
G1 X197.196 Y117.478 E6.08138
G1 X197.235 Y120.029 E6.16623
G1 X197.343 Y122.489 E6.24813
G1 X197.526 Y125.039 E6.33316
G1 X197.776 Y127.523 E6.4162
G1 X198.105 Y130.067 E6.50152
G1 X198.483 Y132.468 E6.58236
G1 X198.546 Y132.798 E6.59353
G1 X198.57 Y132.961 E6.59901
G1 X198.815 Y134.35 E6.64592
G1 X198.939 Y135.28 E6.67713
G1 X198.983 Y136.217 E6.70833
G1 X198.947 Y137.154 E6.73951
G1 X198.831 Y138.084 E6.77069
G1 X198.637 Y139.002 E6.80189
G1 X198.365 Y139.899 E6.83307
G1 X198.017 Y140.771 E6.8643
G1 X197.597 Y141.609 E6.89547
G1 X197.106 Y142.408 E6.92666
G1 X196.55 Y143.163 E6.95785
G1 X195.931 Y143.868 E6.98905
G1 X195.254 Y144.517 E7.02025
G1 X194.524 Y145.107 E7.05147
G1 X193.747 Y145.632 E7.08266
G1 X192.928 Y146.089 E7.11385
G1 X191.887 Y146.547 E7.15168
G1 X191.608 Y146.651 E7.16158
G1 X189.344 Y147.468 E7.24163
G1 X186.972 Y148.401 E7.32641
G1 X184.672 Y149.382 E7.40958
G1 X182.398 Y150.427 E7.49281
G1 X180.126 Y151.551 E7.57712
G1 X177.893 Y152.735 E7.66119
G1 X175.718 Y153.97 E7.74438
G1 X173.534 Y155.291 E7.82927
G1 X172.551 Y155.917 E7.86803
G1 X172.334 Y156.051 E7.87651
G1 X171.515 Y156.51 E7.90774
G1 X170.661 Y156.897 E7.93892
G1 X169.777 Y157.209 E7.9701
G1 X168.869 Y157.446 E8.00132
G1 X167.945 Y157.604 E8.03249
G1 X166.721 Y157.691 E8.07331
G1 X165.895 Y157.702 E8.10078
G1 X164.596 Y157.701 E8.14399
G1 X163.867 Y157.69 E8.16824
G1 X163.258 Y157.664 E8.18851
G1 X162.69 Y157.624 E8.20745
G1 X160.122 Y157.478 E8.293
G1 X159.244 Y157.441 E8.32223
G1 X158.476 Y157.382 E8.34785
G1 X155.336 Y157.028 E8.45295
G1 X154.491 Y156.945 E8.48119
G1 X153.562 Y156.814 E8.51239
G1 X152.648 Y156.604 E8.54358
G1 X151.755 Y156.317 E8.57478
G1 X151.223 Y156.105 E8.59383
G1 X150.84 Y155.939 E8.60771
G1 X148.856 Y155.047 E8.68006
G1 X146.471 Y154.057 E8.76595
G1 X144.169 Y153.175 E8.84794
G1 X141.81 Y152.347 E8.93109
G1 X139.389 Y151.574 E9.01562
G1 X136.987 Y150.881 E9.09877
G1 X134.512 Y150.242 E9.18379
G1 X132.084 Y149.687 E9.26663
G1 X129.62 Y149.199 E9.35017
G1 X127.123 Y148.777 E9.4344
G1 X124.648 Y148.43 E9.51753
G1 X122.14 Y148.149 E9.60146
G1 X119.641 Y147.941 E9.68487
G1 X117.15 Y147.805 E9.76784
G1 X113.392 Y147.729 E9.89286
G1 X54.532 Y147.728 E11.85055
G1 X53.655 Y147.716 E11.87972
G1 X53.315 Y147.706 E11.89104
G1 X53.113 Y147.697 E11.89776
G1 X52.669 Y147.669 E11.91256
G1 X52.384 Y147.645 E11.92207
G1 X52.168 Y147.624 E11.92929
G1 X51.821 Y147.585 E11.9409
G1 X51.62 Y147.559 E11.94764
G1 X51.347 Y147.52 E11.95682
G1 X51.134 Y147.487 E11.96399
G1 X50.824 Y147.435 E11.97444
G1 X50.397 Y147.353 E11.9889
G1 X50.176 Y147.307 E11.99641
G1 X49.71 Y147.2 E12.01231
G1 X49.39 Y147.116 E12.02332
G1 X49.145 Y147.049 E12.03176
G1 X48.736 Y146.93 E12.04593
G1 X48.42 Y146.829 E12.05697
G1 X48.166 Y146.744 E12.06587
G1 X47.854 Y146.635 E12.07687
G1 X47.476 Y146.492 E12.09031
G1 X47.285 Y146.416 E12.09715
G1 X47.001 Y146.298 E12.10737
G1 X46.792 Y146.208 E12.11494
G1 X46.51 Y146.082 E12.12522
G1 X46.271 Y145.971 E12.13398
G1 X45.857 Y145.768 E12.14932
G1 X45.628 Y145.649 E12.1579
G1 X45.408 Y145.531 E12.1662
G1 X45.149 Y145.388 E12.17604
G1 X45.009 Y145.308 E12.18141
G1 X44.583 Y145.053 E12.19792
G1 X44.341 Y144.902 E12.20741
G1 X44.145 Y144.776 E12.21516
G1 X43.652 Y144.44 E12.235
G1 X43.335 Y144.211 E12.24801
G1 X42.978 Y143.942 E12.26287
G1 X42.749 Y143.762 E12.27256
G1 X42.339 Y143.424 E12.29024
G1 X42.158 Y143.267 E12.2982
G1 X41.795 Y142.94 E12.31445
G1 X41.479 Y142.64 E12.32895
G1 X41.244 Y142.408 E12.33993
G1 X40.884 Y142.036 E12.35715
G1 X40.707 Y141.844 E12.36583
G1 X40.484 Y141.594 E12.37698
G1 X40.347 Y141.436 E12.38393
G1 X40.057 Y141.088 E12.399
G1 X39.813 Y140.782 E12.41201
G1 X39.52 Y140.397 E12.42811
G1 X39.381 Y140.206 E12.43596
G1 X39.131 Y139.848 E12.45049
G1 X38.988 Y139.634 E12.45905
G1 X38.844 Y139.412 E12.46785
G1 X38.597 Y139.012 E12.48348
G1 X38.429 Y138.727 E12.49449
G1 X38.202 Y138.324 E12.50987
G1 X38.069 Y138.075 E12.51926
G1 X37.87 Y137.685 E12.53382
G1 X37.706 Y137.342 E12.54647
G1 X37.62 Y137.154 E12.55334
G1 X37.507 Y136.898 E12.56265
G1 X37.384 Y136.61 E12.57307
G1 X37.167 Y136.061 E12.5927
G1 X37.063 Y135.776 E12.60279
G1 X36.96 Y135.484 E12.61309
G1 X36.914 Y135.346 E12.61793
G1 X36.763 Y134.86 E12.63486
G1 X36.666 Y134.523 E12.64652
G1 X36.541 Y134.045 E12.66295
G1 X36.449 Y133.652 E12.67638
G1 X36.395 Y133.402 E12.68488
G1 X36.327 Y133.064 E12.69635
G1 X36.283 Y132.824 E12.70447
G1 X36.224 Y132.468 E12.71647
G1 X36.175 Y132.122 E12.72809
G1 X36.148 Y131.913 E12.7351
G1 X36.106 Y131.537 E12.74768
G1 X36.068 Y131.106 E12.76208
G1 X36.051 Y130.861 E12.77024
G1 X36.035 Y130.575 E12.77977
G1 X36.027 Y130.39 E12.78593
G1 X36.018 Y130.069 E12.79661
G1 X36.005 Y129.058 E12.83024
G1 X36.006 Y106.248 E13.5889
G1 X36.019 Y105.342 E13.61904
G1 X36.037 Y104.862 E13.63502
G1 X36.057 Y104.518 E13.64648
G1 X36.092 Y104.067 E13.66152
G1 X36.113 Y103.856 E13.66857
G1 X36.152 Y103.517 E13.67992
G1 X36.177 Y103.326 E13.68633
G1 X36.214 Y103.069 E13.69497
G1 X36.256 Y102.798 E13.70409
G1 X36.347 Y102.287 E13.72135
G1 X36.402 Y102.017 E13.73052
G1 X36.482 Y101.657 E13.74278
G1 X36.541 Y101.41 E13.75123
G1 X36.633 Y101.051 E13.76355
G1 X36.669 Y100.92 E13.76807
G1 X36.758 Y100.614 E13.77867
G1 X36.841 Y100.343 E13.7881
G1 X36.945 Y100.022 E13.79932
G1 X37.029 Y99.775 E13.808
G1 X37.222 Y99.25 E13.8266
G1 X37.337 Y98.961 E13.83695
G1 X37.505 Y98.564 E13.85129
G1 X37.632 Y98.278 E13.86169
G1 X37.854 Y97.807 E13.87901
G1 X37.98 Y97.556 E13.88835
G1 X38.181 Y97.175 E13.90268
G1 X38.356 Y96.858 E13.91472
G1 X38.651 Y96.355 E13.93412
G1 X38.848 Y96.039 E13.9465
G1 X39.143 Y95.59 E13.96437
G1 X39.29 Y95.378 E13.97295
G1 X39.56 Y95.005 E13.98827
G1 X39.846 Y94.632 E14.0039
G1 X40.112 Y94.299 E14.01808
G1 X40.414 Y93.941 E14.03366
G1 X40.646 Y93.68 E14.04527
G1 X40.79 Y93.522 E14.05238
G1 X41.076 Y93.22 E14.06621
G1 X41.309 Y92.983 E14.07727
G1 X41.72 Y92.586 E14.09627
G1 X41.912 Y92.41 E14.10494
G1 X42.139 Y92.208 E14.11504
G1 X42.297 Y92.071 E14.122
G1 X42.649 Y91.779 E14.13721
G1 X42.954 Y91.536 E14.15018
G1 X43.311 Y91.263 E14.16513
G1 X43.464 Y91.151 E14.17144
G1 X43.774 Y90.932 E14.18406
G1 X44.136 Y90.688 E14.19858
G1 X44.319 Y90.569 E14.20584
G1 X44.717 Y90.322 E14.22142
G1 X45.123 Y90.085 E14.23706
G1 X45.44 Y89.91 E14.2491
G1 X45.679 Y89.783 E14.2581
G0 F6000 X45.867 Y90.136
G1 F1200 X46.291 Y89.921 E14.27391
G1 X46.73 Y89.714 E14.29006
G1 X46.98 Y89.603 E14.29915
G1 X47.382 Y89.434 E14.31366
G1 X47.85 Y89.251 E14.33037
G1 X47.995 Y89.197 E14.33552
G1 X48.371 Y89.065 E14.34877
G1 X48.577 Y88.997 E14.35599
G1 X48.957 Y88.88 E14.36921
G1 X49.31 Y88.778 E14.38143
G1 X49.779 Y88.654 E14.39757
G1 X50.165 Y88.564 E14.41075
G1 X50.415 Y88.51 E14.41926
G1 X50.742 Y88.445 E14.43034
G1 X50.982 Y88.401 E14.43846
G1 X51.455 Y88.325 E14.45439
G1 X51.791 Y88.279 E14.46567
G1 X52.233 Y88.228 E14.48047
G1 X52.645 Y88.192 E14.49423
G1 X52.901 Y88.174 E14.50276
G1 X53.341 Y88.151 E14.51742
G1 X53.659 Y88.142 E14.528
G1 X54.682 Y88.129 E14.56203
G1 X111.836 Y88.129 E16.46298
G1 X114.461 Y88.092 E16.55029
G1 X116.969 Y87.985 E16.63379
G1 X119.486 Y87.807 E16.71771
G1 X122.01 Y87.557 E16.80207
G1 X124.518 Y87.236 E16.88617
G1 X126.98 Y86.849 E16.96906
G1 X129.502 Y86.38 E17.05438
G1 X131.976 Y85.848 E17.13854
G1 X134.424 Y85.248 E17.22238
G1 X136.847 Y84.581 E17.30596
G1 X139.281 Y83.836 E17.39063
G1 X141.706 Y83.018 E17.47575
G1 X144.023 Y82.163 E17.55789
G1 X146.42 Y81.201 E17.64379
G1 X148.701 Y80.209 E17.72653
G1 X150.612 Y79.32 E17.79663
G1 X150.958 Y79.154 E17.80939
G1 X151.805 Y78.792 E17.84003
G1 X152.68 Y78.506 E17.87064
G1 X153.576 Y78.296 E17.90125
G1 X154.757 Y78.142 E17.94087
G1 X155.434 Y78.092 E17.96344
G1 X158.44 Y77.817 E18.06384
G1 X158.686 Y77.797 E18.07205
G1 X159.342 Y77.764 E18.0939
G1 X160.437 Y77.743 E18.13032
G1 X160.64 Y77.741 E18.13708
G1 X161.365 Y77.741 E18.16119
G1 X164.333 Y77.698 E18.25992
G1 X165.848 Y77.698 E18.3103
G1 X166.702 Y77.709 E18.33871
G1 X167.621 Y77.762 E18.36933
G1 X168.532 Y77.895 E18.39995
G1 X169.428 Y78.106 E18.43057
G1 X170.302 Y78.394 E18.46117
G1 X171.149 Y78.757 E18.49182
G1 X172.105 Y79.279 E18.52805
G1 X173.192 Y79.948 E18.5705
G1 X175.4 Y81.263 E18.65598
G1 X177.612 Y82.499 E18.74026
G1 X179.855 Y83.669 E18.8244
G1 X182.145 Y84.782 E18.90908
G1 X184.42 Y85.811 E18.99213
G1 X186.797 Y86.806 E19.07784
G1 X189.109 Y87.695 E19.16022
G1 X191.405 Y88.505 E19.2412
G1 X192.259 Y88.849 E19.27182
G1 X193.345 Y89.419 E19.31262
G1 X193.448 Y89.481 E19.31661
G1 X194.215 Y89.99 E19.34723
G1 X194.935 Y90.563 E19.37784
G1 X195.603 Y91.197 E19.40847
G1 X196.214 Y91.886 E19.4391
G1 X196.762 Y92.626 E19.46972
G1 X197.244 Y93.41 E19.50033
G1 X197.656 Y94.233 E19.53095
G1 X197.996 Y95.089 E19.56158
G1 X198.259 Y95.971 E19.59219
G1 X198.445 Y96.873 E19.62282
G1 X198.553 Y97.787 E19.65343
G1 X198.58 Y98.707 E19.68405
G1 X198.528 Y99.627 E19.7147
G1 X198.43 Y100.348 E19.7389
G1 X198.288 Y101.171 E19.76667
G1 X198.063 Y102.386 E19.80777
G1 X197.675 Y104.88 E19.89172
G1 X197.353 Y107.42 E19.97688
G1 X197.109 Y109.905 E20.05993
G1 X196.933 Y112.429 E20.14408
G1 X196.829 Y114.96 E20.22833
G1 X196.796 Y117.479 E20.31212
G1 X196.835 Y120.017 E20.39654
G1 X196.945 Y122.537 E20.48044
G1 X197.128 Y125.072 E20.56497
G1 X197.38 Y127.578 E20.64874
G1 X197.706 Y130.109 E20.73362
G1 X198.092 Y132.551 E20.81585
G1 X198.153 Y132.873 E20.82675
G1 X198.177 Y133.037 E20.83226
G1 X198.421 Y134.42 E20.87897
G1 X198.542 Y135.332 E20.90957
G1 X198.583 Y136.252 E20.9402
G1 X198.544 Y137.172 E20.97083
G1 X198.425 Y138.085 E21.00145
G1 X198.228 Y138.984 E21.03206
G1 X197.953 Y139.863 E21.0627
G1 X197.603 Y140.714 E21.0933
G1 X197.181 Y141.532 E21.12391
G1 X196.689 Y142.311 E21.15456
G1 X196.131 Y143.043 E21.18517
G1 X195.512 Y143.725 E21.21581
G1 X194.836 Y144.35 E21.24643
G1 X194.109 Y144.914 E21.27703
G1 X193.335 Y145.413 E21.30766
G1 X192.521 Y145.843 E21.33828
G1 X191.745 Y146.173 E21.36633
G1 X191.473 Y146.275 E21.37599
G1 X189.187 Y147.1 E21.45682
G1 X186.817 Y148.032 E21.54152
G1 X184.527 Y149.008 E21.62432
G1 X182.204 Y150.076 E21.70935
G1 X179.94 Y151.196 E21.79337
G1 X177.714 Y152.377 E21.87718
G1 X175.52 Y153.622 E21.96108
G1 X173.324 Y154.951 E22.04645
G1 X172.34 Y155.577 E22.08524
G1 X172.123 Y155.711 E22.09373
G1 X171.32 Y156.16 E22.12433
G1 X170.48 Y156.538 E22.15496
G1 X169.611 Y156.842 E22.18558
G1 X168.719 Y157.069 E22.2162
G1 X167.81 Y157.217 E22.24683
G1 X166.715 Y157.291 E22.28333
G1 X165.895 Y157.302 E22.31061
G1 X164.602 Y157.301 E22.35361
G1 X163.873 Y157.29 E22.37786
G1 X163.287 Y157.265 E22.39737
G1 X162.748 Y157.227 E22.41534
G1 X160.159 Y157.08 E22.50159
G1 X159.261 Y157.042 E22.53149
G1 X158.52 Y156.984 E22.55621
G1 X155.412 Y156.633 E22.66024
G1 X154.53 Y156.547 E22.68971
G1 X153.618 Y156.417 E22.72035
G1 X152.721 Y156.209 E22.75098
G1 X151.846 Y155.924 E22.78158
G1 X151.381 Y155.738 E22.79824
G1 X151.004 Y155.574 E22.81192
G1 X149.008 Y154.677 E22.8847
G1 X146.65 Y153.698 E22.96962
G1 X144.308 Y152.8 E23.05304
G1 X141.916 Y151.961 E23.13735
G1 X139.517 Y151.195 E23.22111
G1 X137.059 Y150.486 E23.3062
G1 X134.63 Y149.858 E23.38964
G1 X132.147 Y149.291 E23.47435
G1 X129.693 Y148.805 E23.55756
G1 X127.208 Y148.385 E23.64138
G1 X124.681 Y148.03 E23.72626
G1 X122.181 Y147.751 E23.80992
G1 X119.66 Y147.541 E23.89406
G1 X117.181 Y147.406 E23.97664
G1 X113.4 Y147.329 E24.10242
G1 X54.537 Y147.328 E26.06021
G1 X53.66 Y147.316 E26.08938
G1 X53.333 Y147.306 E26.10026
G1 X53.131 Y147.297 E26.10699
G1 X52.698 Y147.27 E26.12142
G1 X52.422 Y147.247 E26.13063
G1 X52.206 Y147.226 E26.13785
G1 X51.872 Y147.188 E26.14903
G1 X51.408 Y147.125 E26.1646
G1 X51.195 Y147.092 E26.17177
G1 X50.896 Y147.041 E26.18186
G1 X50.479 Y146.962 E26.19598
G1 X50.258 Y146.916 E26.20349
G1 X49.809 Y146.812 E26.21881
G1 X49.496 Y146.731 E26.22957
G1 X49.251 Y146.664 E26.23802
G1 X48.851 Y146.547 E26.25188
G1 X48.547 Y146.45 E26.26249
G1 X48.293 Y146.365 E26.2714
G1 X47.879 Y146.217 E26.28602
G1 X47.624 Y146.12 E26.2951
G1 X47.433 Y146.044 E26.30193
G1 X47.16 Y145.931 E26.31176
G1 X46.951 Y145.841 E26.31933
G1 X46.678 Y145.719 E26.32927
G1 X46.439 Y145.608 E26.33804
G1 X46.037 Y145.411 E26.35293
G1 X45.597 Y145.178 E26.36949
G1 X45.208 Y144.96 E26.38432
G1 X44.968 Y144.819 E26.39358
G1 X44.79 Y144.711 E26.4005
G1 X44.557 Y144.565 E26.40965
G1 X44.361 Y144.439 E26.4174
G1 X43.886 Y144.115 E26.43652
G1 X43.569 Y143.886 E26.44953
G1 X43.225 Y143.628 E26.46383
