;FLAVOR:Marlin
;TIME:3374
;Filament used: 1.94878m
;Layer height: 0.2
;MINX:49.999
;MINY:101.833
;MINZ:0.2
;MAXX:184.76
;MAXY:133.169
;MAXZ:11
;Generated with Cura_SteamEngine 4.13.0
M140 S60
M105
M190 S60
M104 S200
M105
M109 S200
M82 ;absolute extrusion mode
; Ender 3 Custom Start G-code
G92 E0 ; Reset Extruder
G28 ; Home all axes
G1 Z2.0 F3000 ; Move Z Axis up little to prevent scratching of Heat Bed
G1 X0.1 Y20 Z0.3 F5000.0 ; Move to start position
G1 X0.1 Y200.0 Z0.3 F1500.0 E15 ; Draw the first line
G1 X0.4 Y200.0 Z0.3 F5000.0 ; Move to side a little
G1 X0.4 Y20 Z0.3 F1500.0 E30 ; Draw the second line
G92 E0 ; Reset Extruder
G1 Z2.0 F3000 ; Move Z Axis up little to prevent scratching of Heat Bed
G1 X5 Y20 Z0.3 F5000.0 ; Move over to prevent blob squish
G92 E0
G92 E0
G1 F1500 E-6.5
;LAYER_COUNT:55
;LAYER:0
M107
G0 F6000 X55.566 Y104.034 Z0.2
;TYPE:SKIRT
G1 F1500 E0
G1 F1200 X56.394 Y103.595 E0.03117
G1 X57.258 Y103.228 E0.06239
G1 X58.149 Y102.936 E0.09358
G1 X59.062 Y102.722 E0.12477
G1 X59.99 Y102.585 E0.15597
G1 X60.751 Y102.533 E0.18134
G1 X61.136 Y102.523 E0.19415
G1 X61.679 Y102.517 E0.21221
G1 X114.161 Y102.517 E1.95777
G1 X116.769 Y102.48 E2.04452
G1 X119.291 Y102.373 E2.12848
G1 X121.786 Y102.196 E2.21167
G1 X124.391 Y101.938 E2.29873
G1 X124.826 Y101.892 E2.31328
G1 X125.719 Y101.834 E2.34305
G1 X125.761 Y101.833 E2.34444
G1 X127.102 Y101.883 E2.38908
G1 X128.044 Y101.977 E2.42056
G1 X129.03 Y102.088 E2.45357
G1 X131.566 Y102.3 E2.53821
G1 X134.02 Y102.437 E2.61996
G1 X137.88 Y102.517 E2.74837
G1 X144.16 Y102.517 E2.95724
G1 X146.768 Y102.48 E3.04399
G1 X149.29 Y102.373 E3.12795
G1 X151.784 Y102.196 E3.21111
G1 X153.598 Y102.024 E3.27171
G1 X154.864 Y101.893 E3.31405
G1 X155.801 Y101.836 E3.34527
G1 X156.738 Y101.859 E3.37644
G1 X157.3 Y101.911 E3.39521
G1 X158.226 Y102.061 E3.42641
G1 X158.895 Y102.22 E3.44928
G1 X159.27 Y102.322 E3.46221
G1 X161.826 Y102.973 E3.54994
G1 X164.29 Y103.528 E3.63394
G1 X166.739 Y104.004 E3.71692
G1 X167.856 Y104.187 E3.75457
G1 X168.591 Y104.318 E3.7794
G1 X169.92 Y104.536 E3.82419
G1 X171.147 Y104.728 E3.8655
G1 X172.183 Y104.9 E3.90043
G1 X172.968 Y105.018 E3.92683
G1 X174.352 Y105.241 E3.97346
G1 X175.255 Y105.426 E4.00412
G1 X175.424 Y105.468 E4.00991
G1 X175.9 Y105.597 E4.02631
G1 X176.355 Y105.732 E4.0421
G1 X176.815 Y105.88 E4.05817
G1 X177.012 Y105.948 E4.0651
G1 X177.885 Y106.292 E4.09631
G1 X178.725 Y106.708 E4.12749
G1 X179.527 Y107.195 E4.15869
G1 X180.56 Y107.976 E4.20177
G1 X180.655 Y108.057 E4.20592
G1 X181.342 Y108.695 E4.2371
G1 X181.972 Y109.389 E4.26828
G1 X182.541 Y110.135 E4.29948
G1 X183.044 Y110.927 E4.33069
G1 X183.478 Y111.758 E4.36187
G1 X183.731 Y112.342 E4.38304
G1 X183.821 Y112.567 E4.3911
G1 X183.99 Y113.016 E4.40705
G1 X184.142 Y113.45 E4.42235
G1 X184.414 Y114.348 E4.45356
G1 X184.608 Y115.265 E4.48473
G1 X184.724 Y116.196 E4.51594
G1 X184.76 Y117.133 E4.54712
G1 X184.747 Y117.62 E4.56333
G1 X184.719 Y118.196 E4.58251
G1 X184.684 Y118.735 E4.60047
G1 X184.58 Y119.667 E4.63166
G1 X184.325 Y120.869 E4.67253
G1 X184.294 Y120.983 E4.67646
G1 X184.14 Y121.498 E4.69434
G1 X184.048 Y121.781 E4.70424
G1 X183.791 Y122.489 E4.72929
G1 X183.702 Y122.71 E4.73721
G1 X183.315 Y123.564 E4.7684
G1 X182.856 Y124.383 E4.79962
G1 X182.33 Y125.159 E4.8308
G1 X181.739 Y125.887 E4.86199
G1 X181.088 Y126.563 E4.89321
G1 X180.562 Y127.033 E4.91667
G1 X180.525 Y127.064 E4.91827
G1 X179.781 Y127.635 E4.94947
G1 X178.992 Y128.141 E4.98064
G1 X178.162 Y128.577 E5.01182
G1 X176.989 Y129.051 E5.0539
G1 X176.549 Y129.2 E5.06935
G1 X175.983 Y129.375 E5.08906
G1 X175.561 Y129.493 E5.10363
G1 X174.356 Y129.758 E5.14467
G1 X173.212 Y129.942 E5.18321
G1 X172.665 Y130.023 E5.2016
G1 X172.346 Y130.078 E5.21237
G1 X171.929 Y130.143 E5.2264
G1 X170.408 Y130.392 E5.27766
G1 X169.639 Y130.509 E5.30354
G1 X166.882 Y130.971 E5.39651
G1 X166.667 Y131.01 E5.40378
G1 X164.167 Y131.503 E5.48853
G1 X161.701 Y132.062 E5.57263
G1 X160.098 Y132.473 E5.62767
G1 X159.976 Y132.499 E5.63182
G1 X158.755 Y132.816 E5.67378
G1 X157.838 Y133.012 E5.70497
G1 X156.908 Y133.131 E5.73615
G1 X155.97 Y133.169 E5.76737
G1 X154.743 Y133.098 E5.80825
G1 X154.399 Y133.059 E5.81977
G1 X151.791 Y132.801 E5.90693
G1 X149.257 Y132.622 E5.99143
G1 X146.782 Y132.519 E6.07382
G1 X144.207 Y132.483 E6.15947
G1 X137.765 Y132.483 E6.37373
G1 X135.157 Y132.52 E6.46048
G1 X132.635 Y132.627 E6.54444
G1 X130.16 Y132.802 E6.62696
G1 X127.479 Y133.07 E6.71658
G1 X127.258 Y133.095 E6.72398
G1 X126.323 Y133.162 E6.75515
G1 X125.385 Y133.15 E6.78635
G1 X124.762 Y133.097 E6.80715
G1 X124.376 Y133.053 E6.82007
G1 X121.785 Y132.798 E6.90666
G1 X119.288 Y132.623 E6.98992
G1 X116.743 Y132.518 E7.07464
G1 X114.234 Y132.483 E7.1581
G1 X61.667 Y132.482 E8.90648
G1 X60.965 Y132.472 E8.92983
G1 X60.029 Y132.419 E8.96101
G1 X59.101 Y132.286 E8.99219
G1 X58.187 Y132.074 E9.0234
G1 X57.294 Y131.786 E9.05461
G1 X56.43 Y131.422 E9.08579
G1 X55.599 Y130.986 E9.117
G1 X54.809 Y130.481 E9.14819
G1 X54.065 Y129.911 E9.17936
G1 X53.379 Y129.286 E9.21023
G1 X53.267 Y129.175 E9.21547
G1 X52.629 Y128.487 E9.24668
G1 X52.053 Y127.747 E9.27787
G1 X51.542 Y126.961 E9.30905
G1 X51.099 Y126.134 E9.34026
G1 X50.729 Y125.272 E9.37146
G1 X50.433 Y124.382 E9.40265
G1 X50.214 Y123.47 E9.43385
G1 X50.074 Y122.543 E9.46503
G1 X50.016 Y121.726 E9.49227
G1 X50.007 Y121.454 E9.50132
G1 X50.001 Y121.103 E9.513
G1 X49.999 Y119.378 E9.57037
G1 X50.001 Y114.16 E9.74392
G1 X50.011 Y113.478 E9.76661
G1 X50.065 Y112.541 E9.79783
G1 X50.198 Y111.613 E9.82901
G1 X50.41 Y110.699 E9.86021
G1 X50.699 Y109.807 E9.8914
G1 X51.063 Y108.943 E9.92258
G1 X51.499 Y108.113 E9.95377
G1 X52.004 Y107.322 E9.98498
G1 X52.575 Y106.578 E10.01617
G1 X53.232 Y105.861 E10.04852
G1 X53.344 Y105.749 E10.05379
G1 X54.035 Y105.115 E10.08498
G1 X54.777 Y104.541 E10.11618
G1 X55.566 Y104.034 E10.14737
G0 F6000 X55.811 Y104.353
G1 F1200 X56.627 Y103.927 E10.17799
G1 X57.477 Y103.573 E10.20861
G1 X58.355 Y103.295 E10.23924
G1 X59.253 Y103.093 E10.26986
G1 X60.166 Y102.97 E10.3005
G1 X60.764 Y102.933 E10.32043
G1 X61.14 Y102.923 E10.33294
G1 X61.679 Y102.917 E10.35086
G1 X114.167 Y102.917 E12.09662
G1 X116.792 Y102.88 E12.18394
G1 X119.3 Y102.773 E12.26743
G1 X121.821 Y102.595 E12.35149
G1 X124.463 Y102.333 E12.43979
G1 X124.868 Y102.29 E12.45334
G1 X125.729 Y102.234 E12.48204
G1 X125.771 Y102.233 E12.48343
G1 X127.063 Y102.281 E12.52644
G1 X128 Y102.375 E12.55776
G1 X128.991 Y102.487 E12.59093
G1 X131.51 Y102.697 E12.675
G1 X134.018 Y102.837 E12.75855
G1 X137.871 Y102.917 E12.88673
G1 X144.166 Y102.917 E13.0961
G1 X146.79 Y102.88 E13.18338
G1 X149.299 Y102.773 E13.26691
G1 X151.81 Y102.595 E13.35063
G1 X153.587 Y102.427 E13.41
G1 X154.906 Y102.29 E13.45411
G1 X155.825 Y102.235 E13.48473
G1 X156.745 Y102.26 E13.51534
G1 X157.254 Y102.309 E13.53234
G1 X158.162 Y102.456 E13.56294
G1 X158.79 Y102.606 E13.58441
G1 X159.193 Y102.715 E13.5983
G1 X161.71 Y103.356 E13.68469
G1 X164.223 Y103.923 E13.77037
G1 X166.637 Y104.392 E13.85216
G1 X167.786 Y104.581 E13.89089
G1 X168.534 Y104.714 E13.91616
G1 X169.811 Y104.924 E13.9592
G1 X171.081 Y105.122 E14.00195
G1 X172.114 Y105.294 E14.03678
G1 X172.904 Y105.413 E14.06336
G1 X174.288 Y105.636 E14.10998
G1 X175.159 Y105.814 E14.13955
G1 X175.328 Y105.856 E14.14534
G1 X175.786 Y105.981 E14.16113
G1 X176.241 Y106.116 E14.17692
G1 X176.685 Y106.258 E14.19242
G1 X176.882 Y106.326 E14.19935
G1 X177.738 Y106.664 E14.22996
G1 X178.562 Y107.075 E14.26059
G1 X179.347 Y107.556 E14.29121
G1 X180.3 Y108.28 E14.33102
G1 X180.395 Y108.361 E14.33517
G1 X181.069 Y108.988 E14.36579
G1 X181.686 Y109.671 E14.3964
G1 X182.242 Y110.406 E14.42705
G1 X182.731 Y111.185 E14.45765
G1 X183.151 Y112.005 E14.48829
G1 X183.36 Y112.49 E14.50585
G1 X183.45 Y112.715 E14.51391
G1 X183.612 Y113.148 E14.52929
G1 X183.764 Y113.582 E14.54458
G1 X184.03 Y114.464 E14.57522
G1 X184.219 Y115.365 E14.60584
G1 X184.329 Y116.279 E14.63646
G1 X184.347 Y117.601 E14.68044
G1 X184.307 Y118.387 E14.70661
G1 X184.285 Y118.708 E14.71732
G1 X184.182 Y119.623 E14.74794
G1 X183.939 Y120.764 E14.78674
G1 X183.908 Y120.878 E14.79067
G1 X183.76 Y121.374 E14.80789
G1 X183.668 Y121.657 E14.81778
G1 X183.42 Y122.34 E14.84195
G1 X183.331 Y122.561 E14.84988
G1 X182.95 Y123.399 E14.88049
G1 X182.498 Y124.201 E14.91111
G1 X181.978 Y124.961 E14.94174
G1 X181.394 Y125.673 E14.97237
G1 X180.751 Y126.331 E15.00297
G1 X180.269 Y126.757 E15.02436
G1 X179.538 Y127.317 E15.05499
G1 X178.761 Y127.812 E15.08563
G1 X177.945 Y128.237 E15.11623
G1 X176.861 Y128.672 E15.15508
G1 X176.421 Y128.821 E15.17053
G1 X175.875 Y128.989 E15.18953
G1 X175.453 Y129.107 E15.20411
G1 X174.292 Y129.363 E15.24365
G1 X173.153 Y129.546 E15.28202
G1 X172.625 Y129.624 E15.29977
G1 X172.278 Y129.684 E15.31148
G1 X171.898 Y129.743 E15.32427
G1 X170.347 Y129.996 E15.37654
G1 X169.655 Y130.101 E15.39982
G1 X166.665 Y130.603 E15.50066
G1 X164.066 Y131.115 E15.58877
G1 X161.592 Y131.677 E15.67315
G1 X159.999 Y132.085 E15.72784
G1 X159.868 Y132.113 E15.7323
G1 X158.654 Y132.428 E15.77401
G1 X157.754 Y132.621 E15.80463
G1 X156.84 Y132.735 E15.83526
G1 X155.92 Y132.769 E15.86588
G1 X154.788 Y132.701 E15.9036
G1 X154.417 Y132.659 E15.91602
G1 X151.822 Y132.402 E16.00275
G1 X149.301 Y132.225 E16.08681
G1 X146.769 Y132.119 E16.1711
G1 X144.212 Y132.083 E16.25615
G1 X137.759 Y132.083 E16.47078
G1 X135.134 Y132.12 E16.55809
G1 X132.626 Y132.227 E16.64159
G1 X130.129 Y132.404 E16.72485
G1 X127.395 Y132.676 E16.81623
G1 X127.213 Y132.697 E16.82232
G1 X126.294 Y132.763 E16.85297
G1 X125.374 Y132.749 E16.88357
G1 X124.807 Y132.7 E16.9025
G1 X124.387 Y132.652 E16.91656
G1 X121.82 Y132.4 E17.00235
G1 X119.297 Y132.223 E17.08647
G1 X116.766 Y132.118 E17.17072
G1 X114.239 Y132.083 E17.25478
G1 X61.673 Y132.082 E19.00313
G1 X60.971 Y132.072 E19.02648
G1 X60.052 Y132.019 E19.0571
G1 X59.141 Y131.886 E19.08772
G1 X58.245 Y131.675 E19.11834
G1 X57.37 Y131.387 E19.14897
G1 X56.524 Y131.024 E19.17959
G1 X55.713 Y130.589 E19.2102
G1 X54.942 Y130.085 E19.24084
G1 X54.218 Y129.517 E19.27145
G1 X53.66 Y129.002 E19.2967
G1 X53.548 Y128.891 E19.30195
G1 X52.923 Y128.215 E19.33257
G1 X52.359 Y127.487 E19.3632
G1 X51.86 Y126.714 E19.3938
G1 X51.43 Y125.9 E19.42442
G1 X51.073 Y125.051 E19.45505
G1 X50.79 Y124.175 E19.48567
G1 X50.585 Y123.278 E19.51627
G1 X50.458 Y122.366 E19.5469
G1 X50.416 Y121.713 E19.56866
G1 X50.407 Y121.441 E19.57771
G1 X50.401 Y121.102 E19.58899
G1 X50.399 Y119.378 E19.64633
G1 X50.401 Y114.166 E19.81968
G1 X50.411 Y113.484 E19.84237
G1 X50.465 Y112.564 E19.87302
G1 X50.598 Y111.654 E19.90361
G1 X50.809 Y110.757 E19.93426
G1 X51.098 Y109.883 E19.96488
G1 X51.461 Y109.037 E19.99549
G1 X51.896 Y108.226 E20.0261
G1 X52.4 Y107.456 E20.05671
G1 X52.969 Y106.732 E20.08734
G1 X53.515 Y106.144 E20.11403
G1 X53.627 Y106.032 E20.1193
G1 X54.305 Y105.41 E20.1499
G1 X55.035 Y104.849 E20.18052
G1 X55.811 Y104.353 E20.21115
G0 F6000 X56.057 Y104.674
G1 F1200 X56.86 Y104.26 E20.2412
G1 X57.696 Y103.92 E20.27122
G1 X58.559 Y103.654 E20.30125
G1 X59.442 Y103.466 E20.33128
G1 X60.778 Y103.333 E20.37593
G1 X61.145 Y103.323 E20.38815
G1 X61.679 Y103.317 E20.40591
G1 X114.173 Y103.317 E22.15187
G1 X116.779 Y103.28 E22.23855
G1 X119.347 Y103.171 E22.32404
G1 X121.849 Y102.994 E22.40746
G1 X124.465 Y102.734 E22.4949
G1 X124.91 Y102.687 E22.50978
G1 X125.738 Y102.634 E22.53738
G1 X125.78 Y102.633 E22.53878
G1 X127.024 Y102.679 E22.58018
G1 X127.955 Y102.772 E22.6113
G1 X128.981 Y102.887 E22.64564
G1 X131.491 Y103.098 E22.72942
G1 X133.987 Y103.236 E22.81256
G1 X137.863 Y103.317 E22.9415
G1 X144.172 Y103.317 E23.15134
G1 X146.777 Y103.28 E23.23799
G1 X149.343 Y103.171 E23.32342
G1 X151.873 Y102.992 E23.40778
G1 X153.586 Y102.829 E23.46501
G1 X154.947 Y102.688 E23.51052
G1 X155.848 Y102.635 E23.54054
G1 X157.207 Y102.706 E23.5858
G1 X158.098 Y102.851 E23.61582
G1 X158.685 Y102.992 E23.6359
G1 X159.046 Y103.09 E23.64834
G1 X161.629 Y103.748 E23.737
G1 X164.131 Y104.311 E23.8223
G1 X166.594 Y104.79 E23.90575
G1 X167.716 Y104.975 E23.94357
G1 X168.465 Y105.108 E23.96887
G1 X169.713 Y105.313 E24.01094
G1 X171.015 Y105.517 E24.05477
G1 X172.045 Y105.688 E24.0895
G1 X172.841 Y105.808 E24.11627
G1 X174.225 Y106.031 E24.1629
G1 X175.062 Y106.202 E24.19131
G1 X175.231 Y106.244 E24.1971
G1 X175.672 Y106.364 E24.2123
G1 X176.127 Y106.499 E24.22809
G1 X176.554 Y106.636 E24.24301
G1 X176.751 Y106.704 E24.24994
G1 X177.591 Y107.036 E24.27998
G1 X178.398 Y107.442 E24.31002
G1 X179.166 Y107.917 E24.34006
G1 X180.041 Y108.584 E24.37665
G1 X180.136 Y108.665 E24.38081
G1 X180.796 Y109.281 E24.41083
G1 X181.4 Y109.953 E24.44089
G1 X181.942 Y110.675 E24.47091
G1 X182.417 Y111.443 E24.50095
G1 X182.988 Y112.639 E24.54503
G1 X183.078 Y112.864 E24.55309
G1 X183.235 Y113.28 E24.56788
G1 X183.387 Y113.714 E24.58317
G1 X183.647 Y114.579 E24.61321
G1 X183.83 Y115.464 E24.64327
G1 X183.934 Y116.361 E24.6733
G1 X183.948 Y117.581 E24.71388
G1 X183.92 Y118.157 E24.73306
G1 X183.886 Y118.68 E24.7505
G1 X183.785 Y119.578 E24.78055
G1 X183.553 Y120.659 E24.81733
G1 X183.522 Y120.773 E24.82125
G1 X183.379 Y121.25 E24.83782
G1 X183.287 Y121.533 E24.84772
G1 X183.049 Y122.19 E24.87096
G1 X182.96 Y122.411 E24.87888
G1 X182.585 Y123.233 E24.90893
G1 X182.14 Y124.019 E24.93897
G1 X181.627 Y124.762 E24.969
G1 X181.05 Y125.457 E24.99905
G1 X180.414 Y126.098 E25.02908
G1 X180.012 Y126.451 E25.04687
G1 X179.294 Y126.999 E25.07692
G1 X178.531 Y127.482 E25.10695
G1 X177.729 Y127.896 E25.13697
G1 X176.733 Y128.293 E25.17263
G1 X176.293 Y128.442 E25.18808
G1 X175.768 Y128.604 E25.20636
G1 X175.346 Y128.722 E25.22093
G1 X174.229 Y128.968 E25.25897
G1 X173.094 Y129.151 E25.29721
G1 X172.501 Y129.239 E25.31715
G1 X172.012 Y129.321 E25.33364
G1 X171.853 Y129.345 E25.33899
G1 X170.287 Y129.601 E25.39177
G1 X169.528 Y129.717 E25.4173
G1 X166.738 Y130.184 E25.51139
G1 X166.525 Y130.222 E25.51859
G1 X164.006 Y130.719 E25.60398
G1 X161.511 Y131.285 E25.68908
G1 X159.9 Y131.698 E25.74439
G1 X159.768 Y131.726 E25.74888
G1 X158.554 Y132.041 E25.79059
G1 X157.671 Y132.229 E25.82062
G1 X156.774 Y132.339 E25.85068
G1 X155.871 Y132.368 E25.88073
G1 X154.833 Y132.303 E25.91532
G1 X154.494 Y132.264 E25.92667
G1 X151.857 Y132.004 E26.0148
G1 X149.311 Y131.824 E26.09969
G1 X146.79 Y131.719 E26.18361
G1 X144.218 Y131.683 E26.26917
G1 X137.753 Y131.683 E26.48419
G1 X135.147 Y131.72 E26.57088
G1 X132.579 Y131.829 E26.65637
G1 X130.096 Y132.005 E26.73916
G1 X127.375 Y132.276 E26.83011
G1 X127.167 Y132.3 E26.83707
G1 X126.266 Y132.364 E26.86712
G1 X125.363 Y132.347 E26.89716
G1 X124.852 Y132.302 E26.91422
G1 X124.472 Y132.259 E26.92694
G1 X121.851 Y132.001 E27.01453
G1 X119.308 Y131.823 E27.09932
G1 X116.787 Y131.718 E27.18324
G1 X114.245 Y131.683 E27.2678
G1 X61.679 Y131.682 E29.01615
G1 X60.977 Y131.672 E29.0395
G1 X60.075 Y131.619 E29.06955
G1 X59.182 Y131.487 E29.09958
G1 X58.304 Y131.276 E29.12961
G1 X57.448 Y130.988 E29.15965
G1 X56.62 Y130.626 E29.18971
G1 X55.828 Y130.192 E29.21974
G1 X55.078 Y129.689 E29.24978
G1 X54.375 Y129.123 E29.2798
G1 X53.942 Y128.718 E29.29952
G1 X53.83 Y128.607 E29.30476
G1 X53.217 Y127.943 E29.33482
G1 X52.666 Y127.228 E29.36484
G1 X52.179 Y126.467 E29.39489
G1 X51.763 Y125.666 E29.42491
G1 X51.418 Y124.831 E29.45496
G1 X51.149 Y123.969 E29.485
G1 X50.957 Y123.087 E29.51502
G1 X50.844 Y122.191 E29.54505
G1 X50.816 Y121.699 E29.56145
G1 X50.807 Y121.427 E29.5705
G1 X50.801 Y121.102 E29.58131
G1 X50.799 Y119.379 E29.63862
G1 X50.801 Y114.171 E29.81183
G1 X50.811 Y113.489 E29.83452
G1 X50.864 Y112.588 E29.86454
G1 X50.997 Y111.695 E29.89457
G1 X51.208 Y110.817 E29.9246
G1 X51.496 Y109.961 E29.95464
G1 X51.859 Y109.134 E29.98468
G1 X52.293 Y108.342 E30.01472
G1 X52.796 Y107.592 E30.04475
G1 X53.363 Y106.889 E30.07479
G1 X53.798 Y106.427 E30.0959
G1 X53.91 Y106.315 E30.10117
G1 X54.576 Y105.705 E30.13121
G1 X55.293 Y105.156 E30.16124
G1 X56.057 Y104.674 E30.19129
G1 F1500 E23.69129
G0 F6000 X156.297 Y113.175
G0 X157.793 Y113.737
G0 X159.471 Y114.505
G0 X160.159 Y114.92
G0 X164.028 Y117.469
G1 F1500 E30.19129
