;FLAVOR:Marlin
;TIME:3699
;Filament used: 2.5935m
;Layer height: 0.2
;MINX:46.5
;MINY:101
;MINZ:0.2
;MAXX:188.5
;MAXY:134
;MAXZ:11
;Generated with Cura_SteamEngine 4.13.0
M140 S60
M105
M190 S60
M104 S200
M105
M109 S200
M82 ;absolute extrusion mode
; Ender 3 Custom Start G-code
G92 E0 ; Reset Extruder
G28 ; Home all axes
G1 Z2.0 F3000 ; Move Z Axis up little to prevent scratching of Heat Bed
G1 X0.1 Y20 Z0.3 F5000.0 ; Move to start position
G1 X0.1 Y200.0 Z0.3 F1500.0 E15 ; Draw the first line
G1 X0.4 Y200.0 Z0.3 F5000.0 ; Move to side a little
G1 X0.4 Y20 Z0.3 F1500.0 E30 ; Draw the second line
G92 E0 ; Reset Extruder
G1 Z2.0 F3000 ; Move Z Axis up little to prevent scratching of Heat Bed
G1 X5 Y20 Z0.3 F5000.0 ; Move over to prevent blob squish
G92 E0
G92 E0
G1 F1500 E-6.5
;LAYER_COUNT:55
;LAYER:0
M107
G0 F6000 X52.75 Y102.092 Z0.2
;TYPE:SKIRT
G1 F1500 E0
G1 F1200 X53.612 Y101.723 E0.03119
G1 X54.502 Y101.428 E0.06237
G1 X55.414 Y101.21 E0.09356
G1 X56.342 Y101.071 E0.12477
G1 X57.201 Y101.013 E0.1534
G1 X57.521 Y101.004 E0.16405
G1 X57.83 Y101 E0.17433
G1 X151.793 Y101 E3.29955
G1 X152.679 Y101.012 E3.32902
G1 X153.92 Y101.102 E3.37041
G1 X154.332 Y101.158 E3.38424
G1 X154.805 Y101.232 E3.40016
G1 X178.764 Y105.186 E4.20782
G1 X179.433 Y105.306 E4.23043
G1 X180.348 Y105.511 E4.26161
G1 X181.243 Y105.793 E4.29282
G1 X182.11 Y106.15 E4.32401
G1 X182.944 Y106.58 E4.35522
G1 X183.738 Y107.079 E4.38641
G1 X184.486 Y107.644 E4.41759
G1 X185.184 Y108.27 E4.44877
G1 X185.826 Y108.954 E4.47997
G1 X186.407 Y109.69 E4.51116
G1 X186.923 Y110.473 E4.54235
G1 X187.371 Y111.297 E4.57354
G1 X187.747 Y112.157 E4.60476
G1 X188.049 Y113.045 E4.63596
G1 X188.273 Y113.955 E4.66713
G1 X188.42 Y114.882 E4.69835
G1 X188.485 Y115.778 E4.72823
G1 X188.495 Y116.153 E4.7407
G1 X188.5 Y116.613 E4.756
G1 X188.499 Y118.29 E4.81178
G1 X188.489 Y119.017 E4.83596
G1 X188.436 Y119.954 E4.86718
G1 X188.304 Y120.882 E4.89835
G1 X188.093 Y121.796 E4.92955
G1 X187.804 Y122.688 E4.96074
G1 X187.441 Y123.553 E4.99194
G1 X187.006 Y124.384 E5.02314
G1 X186.501 Y125.174 E5.05432
G1 X185.931 Y125.919 E5.08552
G1 X185.3 Y126.613 E5.11672
G1 X184.611 Y127.25 E5.14793
G1 X183.871 Y127.826 E5.17912
G1 X183.085 Y128.337 E5.2103
G1 X182.258 Y128.779 E5.24149
G1 X181.396 Y129.149 E5.27269
G1 X180.506 Y129.444 E5.30387
G1 X179.672 Y129.647 E5.33242
G1 X179.257 Y129.729 E5.34649
G1 X178.765 Y129.815 E5.3631
G1 X154.818 Y133.765 E6.17035
G1 X154.133 Y133.868 E6.19339
G1 X152.892 Y133.983 E6.23484
G1 X152.725 Y133.989 E6.2404
G1 X152.451 Y133.995 E6.24951
G1 X151.967 Y134 E6.26561
G1 X58.049 Y133.999 E9.38934
G1 X57.351 Y133.989 E9.41255
G1 X56.415 Y133.935 E9.44374
G1 X55.487 Y133.803 E9.47491
G1 X54.573 Y133.591 E9.50612
G1 X53.681 Y133.302 E9.53731
G1 X52.816 Y132.939 E9.56851
G1 X51.986 Y132.503 E9.59969
G1 X51.195 Y131.998 E9.6309
G1 X50.451 Y131.427 E9.6621
G1 X49.758 Y130.795 E9.69329
G1 X49.121 Y130.107 E9.72448
G1 X48.546 Y129.366 E9.75567
G1 X48.035 Y128.58 E9.78685
G1 X47.593 Y127.752 E9.81807
G1 X47.224 Y126.89 E9.84926
G1 X46.929 Y126 E9.88044
G1 X46.711 Y125.088 E9.91163
G1 X46.571 Y124.16 E9.94285
G1 X46.513 Y123.288 E9.97191
G1 X46.504 Y122.956 E9.98296
G1 X46.5 Y122.658 E9.99287
G1 X46.501 Y112.538 E10.32946
G1 X46.511 Y111.849 E10.35238
G1 X46.565 Y110.913 E10.38357
G1 X46.698 Y109.985 E10.41475
G1 X46.91 Y109.071 E10.44595
G1 X47.198 Y108.179 E10.47713
G1 X47.562 Y107.314 E10.50834
G1 X47.998 Y106.484 E10.53953
G1 X48.503 Y105.694 E10.57071
G1 X49.074 Y104.95 E10.6019
G1 X49.706 Y104.257 E10.6331
G1 X50.395 Y103.62 E10.66431
G1 X51.135 Y103.044 E10.6955
G1 X51.922 Y102.534 E10.72669
G1 X52.75 Y102.092 E10.75791
G0 F6000 X53.122 Y102.36
G1 F1200 X53.976 Y102.016 E10.78853
G1 X54.856 Y101.747 E10.81914
G1 X55.757 Y101.555 E10.84978
G1 X56.67 Y101.442 E10.88037
G1 X57.212 Y101.413 E10.89843
G1 X57.532 Y101.404 E10.90907
G1 X57.83 Y101.4 E10.91899
G1 X151.793 Y101.4 E14.04421
G1 X152.673 Y101.412 E14.07348
G1 X153.869 Y101.498 E14.11336
G1 X154.016 Y101.517 E14.11829
G1 X154.74 Y101.626 E14.14264
G1 X178.548 Y105.554 E14.94521
G1 X179.362 Y105.7 E14.97271
G1 X180.261 Y105.901 E15.00335
G1 X181.138 Y106.18 E15.03396
G1 X181.988 Y106.534 E15.06459
G1 X182.804 Y106.961 E15.09522
G1 X183.58 Y107.456 E15.12583
G1 X184.31 Y108.017 E15.15645
G1 X184.988 Y108.64 E15.18708
G1 X185.61 Y109.318 E15.21768
G1 X186.171 Y110.049 E15.24833
G1 X186.666 Y110.825 E15.27894
G1 X187.092 Y111.641 E15.30956
G1 X187.446 Y112.491 E15.34018
G1 X187.724 Y113.368 E15.37078
G1 X187.925 Y114.267 E15.40142
G1 X188.048 Y115.179 E15.43203
G1 X188.085 Y115.791 E15.45242
G1 X188.095 Y116.158 E15.46463
G1 X188.1 Y116.613 E15.47977
G1 X188.099 Y118.285 E15.53538
G1 X188.089 Y119.012 E15.55956
G1 X188.036 Y119.931 E15.59018
G1 X187.904 Y120.842 E15.62079
G1 X187.693 Y121.738 E15.65141
G1 X187.406 Y122.613 E15.68204
G1 X187.043 Y123.459 E15.71266
G1 X186.609 Y124.271 E15.74328
G1 X186.105 Y125.042 E15.77392
G1 X185.537 Y125.766 E15.80452
G1 X184.908 Y126.438 E15.83514
G1 X184.223 Y127.053 E15.86575
G1 X183.487 Y127.606 E15.89637
G1 X182.706 Y128.094 E15.927
G1 X181.886 Y128.512 E15.95762
G1 X181.032 Y128.857 E15.98825
G1 X180.152 Y129.126 E16.01886
G1 X179.593 Y129.255 E16.03794
G1 X179.186 Y129.335 E16.05173
G1 X178.7 Y129.421 E16.06815
G1 X154.907 Y133.346 E16.8702
G1 X154.073 Y133.472 E16.89826
G1 X152.878 Y133.583 E16.93817
G1 X152.447 Y133.595 E16.95251
G1 X151.967 Y133.6 E16.96848
G1 X58.055 Y133.599 E20.09201
G1 X57.357 Y133.589 E20.11522
G1 X56.438 Y133.536 E20.14584
G1 X55.527 Y133.403 E20.17646
G1 X54.631 Y133.192 E20.20708
G1 X53.757 Y132.904 E20.23768
G1 X52.91 Y132.541 E20.26833
G1 X52.099 Y132.106 E20.29894
G1 X51.329 Y131.602 E20.32955
G1 X50.605 Y131.033 E20.36018
G1 X49.933 Y130.403 E20.39082
G1 X49.318 Y129.718 E20.42143
G1 X48.765 Y128.982 E20.45205
G1 X48.278 Y128.201 E20.48267
G1 X47.861 Y127.38 E20.51329
G1 X47.516 Y126.526 E20.54393
G1 X47.247 Y125.646 E20.57453
G1 X47.055 Y124.745 E20.60517
G1 X46.942 Y123.832 E20.63577
G1 X46.913 Y123.277 E20.65426
G1 X46.904 Y122.945 E20.6653
G1 X46.9 Y122.658 E20.67485
G1 X46.901 Y112.544 E21.01124
G1 X46.911 Y111.855 E21.03416
G1 X46.964 Y110.936 E21.06478
G1 X47.097 Y110.025 E21.0954
G1 X47.309 Y109.129 E21.12602
G1 X47.597 Y108.255 E21.15663
G1 X47.96 Y107.409 E21.18725
G1 X48.395 Y106.597 E21.21789
G1 X48.899 Y105.827 E21.2485
G1 X49.468 Y105.103 E21.27912
G1 X50.098 Y104.431 E21.30976
G1 X50.783 Y103.817 E21.34036
G1 X51.52 Y103.264 E21.371
G1 X52.301 Y102.777 E21.40161
G1 X53.122 Y102.36 E21.43224
G0 F6000 X53.492 Y102.634
G1 F1200 X54.337 Y102.315 E21.46228
G1 X55.207 Y102.072 E21.49233
G1 X56.095 Y101.908 E21.52236
G1 X57.223 Y101.813 E21.56001
G1 X57.543 Y101.804 E21.57066
G1 X57.83 Y101.8 E21.58021
G1 X151.793 Y101.8 E24.70543
G1 X152.666 Y101.812 E24.73447
G1 X153.817 Y101.895 E24.77285
G1 X154.21 Y101.949 E24.78604
G1 X154.674 Y102.021 E24.80166
G1 X178.623 Y105.973 E25.60898
G1 X179.292 Y106.093 E25.63158
G1 X180.173 Y106.292 E25.66163
G1 X181.033 Y106.568 E25.69167
G1 X181.865 Y106.918 E25.72169
G1 X182.663 Y107.341 E25.75173
G1 X183.42 Y107.833 E25.78176
G1 X184.131 Y108.39 E25.8118
G1 X184.79 Y109.008 E25.84184
G1 X185.392 Y109.682 E25.8719
G1 X185.931 Y110.406 E25.90192
G1 X186.405 Y111.175 E25.93197
G1 X186.808 Y111.983 E25.962
G1 X187.139 Y112.823 E25.99203
G1 X187.394 Y113.689 E26.02205
G1 X187.571 Y114.575 E26.05211
G1 X187.686 Y115.804 E26.09316
G1 X187.695 Y116.162 E26.10507
G1 X187.7 Y116.613 E26.12007
G1 X187.699 Y118.279 E26.17548
G1 X187.689 Y119.006 E26.19967
G1 X187.637 Y119.908 E26.22972
G1 X187.505 Y120.801 E26.25974
G1 X187.294 Y121.68 E26.28981
G1 X187.007 Y122.536 E26.31984
G1 X186.645 Y123.363 E26.34986
G1 X186.211 Y124.155 E26.3799
G1 X185.709 Y124.906 E26.40994
G1 X185.143 Y125.609 E26.43996
G1 X184.516 Y126.26 E26.47002
G1 X183.835 Y126.852 E26.50004
G1 X183.104 Y127.382 E26.53007
G1 X182.328 Y127.845 E26.56012
G1 X181.515 Y128.238 E26.59016
G1 X180.67 Y128.558 E26.62021
G1 X179.513 Y128.863 E26.66001
G1 X179.116 Y128.941 E26.67346
G1 X178.635 Y129.026 E26.68971
G1 X154.699 Y132.974 E27.49658
G1 X154.014 Y133.077 E27.51962
G1 X152.863 Y133.183 E27.55806
G1 X152.442 Y133.195 E27.57207
G1 X151.967 Y133.2 E27.58787
G1 X58.061 Y133.199 E30.7112
G1 X57.363 Y133.189 E30.73442
G1 X56.461 Y133.136 E30.76447
G1 X55.568 Y133.004 E30.79449
G1 X54.69 Y132.793 E30.82453
G1 X53.834 Y132.505 E30.85456
G1 X53.007 Y132.143 E30.88459
G1 X52.215 Y131.708 E30.91464
G1 X51.464 Y131.206 E30.94469
G1 X50.761 Y130.639 E30.97473
G1 X50.111 Y130.012 E31.00477
G1 X49.519 Y129.33 E31.0348
G1 X48.989 Y128.599 E31.06483
G1 X48.527 Y127.823 E31.09487
G1 X48.134 Y127.01 E31.12491
G1 X47.816 Y126.165 E31.15494
G1 X47.573 Y125.295 E31.18498
G1 X47.408 Y124.407 E31.21502
G1 X47.313 Y123.266 E31.2531
G1 X47.304 Y122.934 E31.26415
G1 X47.3 Y122.658 E31.27333
G1 X47.301 Y112.55 E31.60952
G1 X47.311 Y111.861 E31.63244
G1 X47.364 Y110.959 E31.66249
G1 X47.497 Y110.066 E31.69252
G1 X47.708 Y109.188 E31.72256
G1 X47.996 Y108.332 E31.75259
G1 X48.358 Y107.505 E31.78262
G1 X48.793 Y106.713 E31.81267
G1 X49.295 Y105.963 E31.84269
G1 X49.862 Y105.26 E31.87273
G1 X50.489 Y104.61 E31.90277
G1 X51.171 Y104.018 E31.93281
G1 X51.903 Y103.488 E31.96286
G1 X52.679 Y103.026 E31.9929
G1 X53.492 Y102.634 E32.02292
G1 F1500 E25.52292
;MESH:kt1.stl
G0 F6000 X135.325 Y118.894
G0 X134.097 Y119.681
G0 X135.56 Y120.629
G0 X137.018 Y121.321
;TYPE:WALL-INNER
G1 F1500 E32.02292
G1 F1200 X137.5 Y121.351 E32.03898
G1 X137.982 Y121.321 E32.05505
G1 X138.458 Y121.23 E32.07116
G1 X138.917 Y121.081 E32.08722
G1 X139.356 Y120.875 E32.10334
G1 X139.764 Y120.615 E32.11944
G1 X140.136 Y120.307 E32.1355
G1 X140.469 Y119.954 E32.15164
G1 X140.76 Y119.548 E32.16825
G1 X140.985 Y119.14 E32.18375
G1 X141.163 Y118.69 E32.19985
G1 X141.283 Y118.222 E32.21591
G1 X141.344 Y117.742 E32.23201
G1 X141.344 Y117.258 E32.24811
G1 X141.283 Y116.778 E32.2642
G1 X141.163 Y116.31 E32.28027
G1 X140.984 Y115.858 E32.29644
G1 X140.742 Y115.422 E32.31302
G1 X140.467 Y115.044 E32.32857
G1 X140.136 Y114.693 E32.34462
G1 X139.764 Y114.385 E32.36068
G1 X139.356 Y114.125 E32.37677
G1 X138.917 Y113.919 E32.3929
G1 X138.458 Y113.77 E32.40895
G1 X137.982 Y113.679 E32.42507
G1 X137.5 Y113.649 E32.44113
G1 X137.018 Y113.679 E32.45719
G1 X136.542 Y113.77 E32.47331
G1 X136.083 Y113.919 E32.48936
G1 X135.644 Y114.125 E32.50549
G1 X135.236 Y114.385 E32.52158
G1 X134.864 Y114.693 E32.53765
G1 X134.531 Y115.046 E32.55379
G1 X134.24 Y115.452 E32.5704
G1 X134.015 Y115.86 E32.5859
G1 X133.837 Y116.31 E32.60199
G1 X133.717 Y116.778 E32.61806
G1 X133.656 Y117.258 E32.63416
G1 X133.656 Y117.742 E32.65025
G1 X133.717 Y118.222 E32.66635
G1 X133.837 Y118.69 E32.68242
G1 X134.016 Y119.142 E32.69859
G1 X134.258 Y119.578 E32.71517
G1 X134.533 Y119.956 E32.73072
G1 X134.864 Y120.307 E32.74677
G1 X135.236 Y120.615 E32.76283
G1 X135.646 Y120.876 E32.77899
G1 X136.099 Y121.086 E32.7956
G1 X136.542 Y121.23 E32.81109
G1 X137.018 Y121.321 E32.82721
G0 F6000 X137.068 Y120.923
;TYPE:WALL-OUTER
G1 F1200 X137.5 Y120.95 E32.84161
G1 X137.932 Y120.923 E32.85601
G1 X138.358 Y120.842 E32.87043
G1 X138.77 Y120.708 E32.88484
G1 X139.163 Y120.524 E32.89927
G1 X139.528 Y120.291 E32.91367
G1 X139.862 Y120.015 E32.92808
G1 X140.159 Y119.699 E32.94251
G1 X140.421 Y119.334 E32.95745
G1 X140.622 Y118.969 E32.97131
G1 X140.782 Y118.566 E32.98573
G1 X140.889 Y118.147 E33.00012
G1 X140.944 Y117.717 E33.01453
G1 X140.944 Y117.283 E33.02897
G1 X140.889 Y116.853 E33.04339
G1 X140.782 Y116.434 E33.05777
G1 X140.622 Y116.03 E33.07222
G1 X140.404 Y115.638 E33.08714
G1 X140.158 Y115.3 E33.10105
G1 X139.862 Y114.985 E33.11542
G1 X139.528 Y114.709 E33.12983
G1 X139.163 Y114.476 E33.14424
G1 X138.77 Y114.292 E33.15867
G1 X138.358 Y114.158 E33.17308
G1 X137.932 Y114.077 E33.1875
G1 X137.5 Y114.05 E33.2019
G1 X137.068 Y114.077 E33.21629
G1 X136.642 Y114.158 E33.23072
G1 X136.23 Y114.292 E33.24513
G1 X135.837 Y114.476 E33.25956
G1 X135.472 Y114.709 E33.27396
G1 X135.138 Y114.985 E33.28837
G1 X134.841 Y115.301 E33.3028
G1 X134.579 Y115.666 E33.31774
G1 X134.378 Y116.031 E33.3316
G1 X134.218 Y116.434 E33.34602
G1 X134.111 Y116.853 E33.3604
G1 X134.056 Y117.283 E33.37482
G1 X134.056 Y117.717 E33.38926
G1 X134.111 Y118.147 E33.40368
G1 X134.218 Y118.566 E33.41806
G1 X134.378 Y118.97 E33.43251
G1 X134.596 Y119.362 E33.44743
G1 X134.842 Y119.7 E33.46133
G1 X135.138 Y120.015 E33.47571
G1 X135.472 Y120.291 E33.49012
G1 X135.838 Y120.524 E33.50455
G1 X136.246 Y120.713 E33.51951
G1 X136.642 Y120.842 E33.53336
G1 X137.068 Y120.923 E33.54778
G0 F6000 X137.014 Y121.359
G1 F1500 E27.04778
G0 F6000 X139.877 Y120.769
G0 X139.877 Y122.19
G0 X152.45 Y122.4
;TYPE:WALL-INNER
G1 F1500 E33.54778
G1 F1200 X58.1 Y122.4 E36.68588
G1 X58.1 Y112.6 E37.01183
G1 X152.45 Y112.6 E40.14992
G1 X176.9 Y116.634 E40.97412
G1 X176.9 Y118.366 E41.03173
G1 X152.45 Y122.4 E41.85594
G0 F6000 X152.485 Y122.8
;TYPE:WALL-OUTER
G1 F1200 X57.7 Y122.8 E45.0085
G1 X57.7 Y112.2 E45.36106
G1 X152.485 Y112.2 E48.51362
G1 X177.3 Y116.294 E49.35012
G1 X177.3 Y118.706 E49.43035
G1 X152.485 Y122.8 E50.26686
G0 F6000 X152.45 Y122.362
G0 X152.422 Y122.01
;TYPE:SKIN
G1 F1200 X58.49 Y122.01 E53.39105
G1 X58.49 Y112.99 E53.69105
G1 X152.422 Y112.99 E56.81524
G1 X176.51 Y116.964 E57.62724
G1 X176.51 Y118.036 E57.6629
G1 X152.422 Y122.01 E58.4749
G1 F1500 E51.9749
G0 F6000 X152.422 Y122.29
G0 X141.268 Y122.19
G0 X140.616 Y120.076
G0 X141.268 Y118.725
G1 F1500 E58.4749
G0 F6000 X141.535 Y118.811
G1 F1200 X141.667 Y118.296 E58.49258
G1 X141.734 Y117.767 E58.51032
G1 X141.734 Y117.233 E58.52808
G1 X141.667 Y116.704 E58.54581
G1 X141.535 Y116.189 E58.5635
G1 X141.337 Y115.691 E58.58132
G1 X141.071 Y115.212 E58.59954
G1 X140.767 Y114.794 E58.61673
G1 X140.403 Y114.408 E58.63438
G1 X139.994 Y114.069 E58.65205
G1 X139.545 Y113.782 E58.66977
G1 X139.061 Y113.556 E58.68754
G1 X138.555 Y113.392 E58.70523
G1 X138.031 Y113.291 E58.72298
G1 X137.5 Y113.259 E58.74067
G1 X136.969 Y113.291 E58.75837
G1 X136.445 Y113.392 E58.77612
G1 X135.939 Y113.556 E58.79381
G1 X135.455 Y113.782 E58.81157
G1 X135.006 Y114.069 E58.8293
G1 X134.597 Y114.408 E58.84697
G1 X134.229 Y114.798 E58.8648
G1 X133.91 Y115.243 E58.88301
G1 X133.662 Y115.694 E58.90013
G1 X133.465 Y116.189 E58.91785
G1 X133.333 Y116.704 E58.93553
G1 X133.266 Y117.233 E58.95327
G1 X133.266 Y117.767 E58.97103
G1 X133.333 Y118.296 E58.98876
G1 X133.465 Y118.811 E59.00645
G1 X133.663 Y119.309 E59.02427
G1 X133.929 Y119.788 E59.04249
G1 X134.233 Y120.206 E59.05968
G1 X134.597 Y120.592 E59.07733
G1 X135.006 Y120.931 E59.095
G1 X135.459 Y121.219 E59.11285
G1 X135.956 Y121.449 E59.13107
G1 X136.444 Y121.608 E59.14814
G1 X136.969 Y121.709 E59.16592
G1 X137.5 Y121.741 E59.18361
G1 X138.031 Y121.709 E59.20131
G1 X138.555 Y121.608 E59.21906
G1 X139.061 Y121.444 E59.23675
G1 X139.545 Y121.218 E59.25451
G1 X139.994 Y120.931 E59.27224
G1 X140.403 Y120.592 E59.28991
G1 X140.771 Y120.202 E59.30774
G1 X141.09 Y119.757 E59.32595
G1 X141.338 Y119.306 E59.34307
G1 X141.535 Y118.811 E59.36079
G1 F1500 E52.86079
G0 F6000 X141.268 Y118.725
G0 X141.471 Y118.258
G0 X140.038 Y117.985
G0 X152.434 Y111.335
G0 X152.434 Y112.81
G0 X176.72 Y116.787
G0 X176.79 Y117.517
G1 F1500 E59.36079
G0 F6000 X176.348 Y117.517
G1 F1200 X175.848 Y117.016 E59.38433
G0 F6000 X175.17 Y116.904
G1 F1200 X176.191 Y117.926 E59.43238
G0 F6000 X175.706 Y118.006
G1 F1200 X174.492 Y116.792 E59.48948
G0 F6000 X173.815 Y116.681
G1 F1200 X175.221 Y118.086 E59.55559
G0 F6000 X174.735 Y118.166
G1 F1200 X173.137 Y116.569 E59.63074
G0 F6000 X172.46 Y116.457
G1 F1200 X174.249 Y118.246 E59.71488
G0 F6000 X173.763 Y118.326
G1 F1200 X171.783 Y116.345 E59.80804
G0 F6000 X171.105 Y116.234
G1 F1200 X173.278 Y118.407 E59.91025
G0 F6000 X172.792 Y118.487
G1 F1200 X170.428 Y116.122 E60.02147
G0 F6000 X169.75 Y116.01
G1 F1200 X172.307 Y118.566 E60.14172
G0 F6000 X171.821 Y118.647
G1 F1200 X169.073 Y115.899 E60.27098
G0 F6000 X168.396 Y115.787
G1 F1200 X171.336 Y118.727 E60.40927
G0 F6000 X170.85 Y118.807
