;FLAVOR:Marlin
;TIME:3055
;Filament used: 1.79263m
;Layer height: 0.2
;MINX:50
;MINY:101.782
;MINZ:0.2
;MAXX:184.621
;MAXY:132.988
;MAXZ:11
;Generated with Cura_SteamEngine 4.13.0
M140 S60
M105
M190 S60
M104 S200
M105
M109 S200
M82 ;absolute extrusion mode
; Ender 3 Custom Start G-code
G92 E0 ; Reset Extruder
G28 ; Home all axes
G1 Z2.0 F3000 ; Move Z Axis up little to prevent scratching of Heat Bed
G1 X0.1 Y20 Z0.3 F5000.0 ; Move to start position
G1 X0.1 Y200.0 Z0.3 F1500.0 E15 ; Draw the first line
G1 X0.4 Y200.0 Z0.3 F5000.0 ; Move to side a little
G1 X0.4 Y20 Z0.3 F1500.0 E30 ; Draw the second line
G92 E0 ; Reset Extruder
G1 Z2.0 F3000 ; Move Z Axis up little to prevent scratching of Heat Bed
G1 X5 Y20 Z0.3 F5000.0 ; Move over to prevent blob squish
G92 E0
G92 E0
G1 F1500 E-6.5
;LAYER_COUNT:55
;LAYER:0
M107
G0 F6000 X55.651 Y104.193 Z0.2
;TYPE:SKIRT
G1 F1500 E0
G1 F1200 X56.484 Y103.762 E0.03119
G1 X57.351 Y103.403 E0.06241
G1 X58.245 Y103.119 E0.0936
G1 X59.159 Y102.913 E0.12477
G1 X60.088 Y102.785 E0.15596
G1 X60.748 Y102.742 E0.17796
G1 X61.135 Y102.732 E0.19083
G1 X61.679 Y102.726 E0.20893
G1 X125.23 Y102.727 E2.32264
G1 X127.839 Y102.69 E2.40943
G1 X130.36 Y102.583 E2.49335
G1 X132.852 Y102.406 E2.57644
G1 X135.34 Y102.16 E2.6596
G1 X136.207 Y102.044 E2.68869
G1 X136.596 Y102.009 E2.70168
G1 X137.736 Y101.868 E2.73989
G1 X138.774 Y101.789 E2.77451
G1 X138.917 Y101.785 E2.77927
G1 X139.37 Y101.782 E2.79434
G1 X139.674 Y101.786 E2.80445
G1 X139.988 Y101.795 E2.8149
G1 X141.508 Y101.859 E2.8655
G1 X142.377 Y101.904 E2.89444
G1 X142.633 Y101.913 E2.90296
G1 X143.413 Y101.969 E2.92897
G1 X146.098 Y102.258 E3.01879
G1 X148.624 Y102.458 E3.10306
G1 X151.13 Y102.584 E3.18652
G1 X153.65 Y102.64 E3.27036
G1 X155.644 Y102.634 E3.33668
G1 X156.106 Y102.628 E3.35204
G1 X157.043 Y102.656 E3.38322
G1 X157.898 Y102.751 E3.41184
G1 X159.136 Y102.938 E3.45348
G1 X159.865 Y103.044 E3.47798
G1 X161.304 Y103.26 E3.52638
G1 X162.003 Y103.36 E3.54986
G1 X162.872 Y103.498 E3.57913
G1 X164.931 Y103.806 E3.64837
G1 X165.183 Y103.847 E3.65686
G1 X165.65 Y103.918 E3.67258
G1 X167.047 Y104.122 E3.71953
G1 X168.782 Y104.385 E3.7779
G1 X170.14 Y104.585 E3.82355
G1 X170.83 Y104.696 E3.8468
G1 X171.368 Y104.77 E3.86486
G1 X171.599 Y104.812 E3.87267
G1 X172.759 Y104.988 E3.91169
G1 X173.287 Y105.063 E3.92943
G1 X174.127 Y105.194 E3.95771
G1 X175.395 Y105.47 E4.00087
G1 X175.992 Y105.637 E4.02149
G1 X176.285 Y105.723 E4.03164
G1 X176.698 Y105.851 E4.04602
G1 X177.582 Y106.167 E4.07725
G1 X178.435 Y106.556 E4.10843
G1 X179.251 Y107.017 E4.1396
G1 X180.026 Y107.546 E4.17081
G1 X181.049 Y108.413 E4.21541
G1 X181.096 Y108.458 E4.21758
G1 X181.745 Y109.135 E4.24877
G1 X182.335 Y109.864 E4.27996
G1 X182.859 Y110.642 E4.31116
G1 X183.316 Y111.461 E4.34235
G1 X183.739 Y112.412 E4.37697
G1 X183.871 Y112.751 E4.38907
G1 X184.174 Y113.638 E4.42025
G1 X184.4 Y114.549 E4.45146
G1 X184.548 Y115.475 E4.48265
G1 X184.621 Y116.802 E4.52686
G1 X184.619 Y117.17 E4.5391
G1 X184.621 Y118.234 E4.57449
G1 X184.583 Y119.171 E4.60568
G1 X184.465 Y120.101 E4.63686
G1 X184.268 Y121.018 E4.66805
G1 X184.087 Y121.638 E4.68953
G1 X184.022 Y121.839 E4.69656
G1 X183.696 Y122.718 E4.72774
G1 X183.151 Y123.834 E4.76905
G1 X183.054 Y124.007 E4.77565
G1 X182.561 Y124.804 E4.80682
G1 X182.001 Y125.557 E4.83803
G1 X181.38 Y126.26 E4.86923
G1 X180.701 Y126.907 E4.90042
G1 X179.969 Y127.494 E4.93163
G1 X179.19 Y128.016 E4.96282
G1 X178.37 Y128.47 E4.99399
G1 X177.513 Y128.853 E5.02521
G1 X176.817 Y129.102 E5.0498
G1 X176.165 Y129.311 E5.07257
G1 X175.791 Y129.424 E5.08557
G1 X175.422 Y129.528 E5.09832
G1 X174.221 Y129.795 E5.13924
G1 X173.604 Y129.895 E5.16003
G1 X172.599 Y130.047 E5.19383
G1 X172.059 Y130.123 E5.21197
G1 X171.39 Y130.226 E5.23448
G1 X170.915 Y130.294 E5.25044
G1 X168.744 Y130.627 E5.3235
G1 X168.605 Y130.646 E5.32816
G1 X167.528 Y130.81 E5.3644
G1 X167.189 Y130.858 E5.37578
G1 X163.531 Y131.413 E5.49884
G1 X163.358 Y131.437 E5.50465
G1 X162.492 Y131.57 E5.53379
G1 X162.117 Y131.623 E5.54639
G1 X158.73 Y132.137 E5.66033
G1 X157.761 Y132.272 E5.69287
G1 X156.827 Y132.361 E5.72408
G1 X156.211 Y132.377 E5.74457
G1 X155.713 Y132.375 E5.76114
G1 X153.723 Y132.342 E5.82733
G1 X151.228 Y132.372 E5.91032
G1 X148.709 Y132.473 E5.99417
G1 X146.251 Y132.641 E6.07612
G1 X144.653 Y132.802 E6.12953
G1 X143.24 Y132.931 E6.17673
G1 X142.33 Y132.977 E6.20703
G1 X140.984 Y132.988 E6.2518
G1 X139.635 Y132.975 E6.29667
G1 X138.724 Y132.928 E6.32701
G1 X138.161 Y132.874 E6.34582
G1 X136.309 Y132.672 E6.40779
G1 X133.815 Y132.47 E6.49101
G1 X131.327 Y132.341 E6.57387
G1 X127.797 Y132.273 E6.6913
G1 X61.652 Y132.272 E8.89129
G1 X60.948 Y132.261 E8.91471
G1 X60.012 Y132.206 E8.9459
G1 X59.084 Y132.072 E8.97708
G1 X58.17 Y131.859 E9.0083
G1 X57.278 Y131.569 E9.03949
G1 X56.414 Y131.205 E9.07068
G1 X55.584 Y130.768 E9.10187
G1 X54.795 Y130.262 E9.13305
G1 X54.051 Y129.69 E9.16426
G1 X53.307 Y129.005 E9.1979
G1 X53.197 Y128.894 E9.2031
G1 X52.566 Y128.2 E9.23429
G1 X51.996 Y127.455 E9.26549
G1 X51.492 Y126.664 E9.29669
G1 X51.056 Y125.834 E9.32787
G1 X50.694 Y124.969 E9.35906
G1 X50.406 Y124.076 E9.39027
G1 X50.195 Y123.162 E9.42147
G1 X50.063 Y122.234 E9.45264
G1 X50.017 Y121.551 E9.47541
G1 X50.004 Y121.087 E9.49085
G1 X50 Y120.652 E9.50532
G1 X50.001 Y114.369 E9.71429
G1 X50.011 Y113.685 E9.73704
G1 X50.065 Y112.749 E9.76823
G1 X50.198 Y111.821 E9.79941
G1 X50.41 Y110.907 E9.83061
G1 X50.699 Y110.015 E9.8618
G1 X51.063 Y109.15 E9.89301
G1 X51.499 Y108.32 E9.9242
G1 X52.004 Y107.53 E9.95538
G1 X52.575 Y106.786 E9.98658
G1 X53.302 Y105.998 E10.02224
G1 X53.414 Y105.888 E10.02746
G1 X54.111 Y105.26 E10.05866
G1 X54.858 Y104.694 E10.08983
G1 X55.651 Y104.193 E10.12103
G0 F6000 X55.894 Y104.515
G1 F1200 X56.714 Y104.096 E10.15166
G1 X57.567 Y103.75 E10.18227
G1 X58.447 Y103.479 E10.2129
G1 X59.347 Y103.286 E10.24351
G1 X60.261 Y103.171 E10.27415
G1 X60.762 Y103.142 E10.29085
G1 X61.14 Y103.132 E10.30342
G1 X61.679 Y103.126 E10.32135
G1 X125.236 Y103.127 E12.43526
G1 X127.862 Y103.09 E12.52261
G1 X130.371 Y102.983 E12.60614
G1 X132.885 Y102.805 E12.68997
G1 X135.368 Y102.559 E12.77295
G1 X136.259 Y102.44 E12.80285
G1 X136.648 Y102.405 E12.81584
G1 X137.785 Y102.265 E12.85395
G1 X138.786 Y102.189 E12.88733
G1 X138.929 Y102.185 E12.89209
G1 X139.364 Y102.182 E12.90656
G1 X139.668 Y102.186 E12.91667
G1 X139.971 Y102.194 E12.92675
G1 X141.487 Y102.258 E12.97722
G1 X142.404 Y102.305 E13.00776
G1 X142.619 Y102.313 E13.01492
G1 X143.371 Y102.367 E13.03999
G1 X146.06 Y102.656 E13.12994
G1 X148.574 Y102.855 E13.21382
G1 X151.137 Y102.984 E13.29918
G1 X153.642 Y103.04 E13.38251
G1 X155.65 Y103.034 E13.4493
G1 X156.111 Y103.028 E13.46463
G1 X157.031 Y103.056 E13.49525
G1 X157.839 Y103.146 E13.52229
G1 X159.123 Y103.34 E13.56548
G1 X159.805 Y103.44 E13.5884
G1 X161.224 Y103.653 E13.63613
G1 X161.946 Y103.756 E13.66039
G1 X162.758 Y103.885 E13.68773
G1 X164.872 Y104.201 E13.75883
G1 X165.135 Y104.244 E13.76769
G1 X165.595 Y104.315 E13.78317
G1 X166.987 Y104.518 E13.82996
G1 X168.723 Y104.781 E13.88836
G1 X170.221 Y105.003 E13.93872
G1 X170.799 Y105.096 E13.9582
G1 X171.313 Y105.167 E13.97545
G1 X171.503 Y105.202 E13.98188
G1 X172.799 Y105.398 E14.02547
G1 X173.225 Y105.459 E14.03979
G1 X174.065 Y105.59 E14.06806
G1 X175.288 Y105.855 E14.10969
G1 X175.885 Y106.022 E14.1303
G1 X176.167 Y106.105 E14.14008
G1 X176.58 Y106.233 E14.15446
G1 X177.447 Y106.544 E14.1851
G1 X178.283 Y106.928 E14.2157
G1 X179.083 Y107.384 E14.24632
G1 X179.841 Y107.907 E14.27695
G1 X180.773 Y108.702 E14.3177
G1 X180.82 Y108.747 E14.31986
G1 X181.456 Y109.412 E14.35047
G1 X182.033 Y110.129 E14.38108
G1 X182.545 Y110.894 E14.41169
G1 X182.989 Y111.701 E14.44233
G1 X183.367 Y112.557 E14.47345
G1 X183.499 Y112.896 E14.48555
G1 X183.795 Y113.767 E14.51615
G1 X184.015 Y114.662 E14.5468
G1 X184.156 Y115.571 E14.5774
G1 X184.221 Y116.8 E14.61833
G1 X184.219 Y117.168 E14.63057
G1 X184.221 Y118.234 E14.66603
G1 X184.183 Y119.154 E14.69665
G1 X184.065 Y120.067 E14.72727
G1 X183.868 Y120.967 E14.75791
G1 X183.707 Y121.515 E14.77691
G1 X183.642 Y121.716 E14.78394
G1 X183.321 Y122.578 E14.81453
G1 X182.802 Y123.638 E14.85379
G1 X182.705 Y123.811 E14.86038
G1 X182.22 Y124.594 E14.89102
G1 X181.669 Y125.332 E14.92165
G1 X181.057 Y126.019 E14.95225
G1 X180.387 Y126.65 E14.98286
G1 X179.664 Y127.221 E15.0135
G1 X178.895 Y127.727 E15.04412
G1 X178.085 Y128.164 E15.07473
G1 X177.24 Y128.53 E15.10536
G1 X176.695 Y128.721 E15.12457
G1 X176.043 Y128.93 E15.14734
G1 X175.683 Y129.039 E15.15985
G1 X175.314 Y129.143 E15.1726
G1 X174.156 Y129.4 E15.21205
G1 X173.544 Y129.499 E15.23267
G1 X172.543 Y129.651 E15.26635
G1 X172.008 Y129.727 E15.28432
G1 X171.334 Y129.83 E15.307
G1 X170.884 Y129.894 E15.32212
G1 X168.689 Y130.231 E15.39598
G1 X168.489 Y130.259 E15.4027
G1 X167.472 Y130.414 E15.43691
G1 X167.166 Y130.457 E15.44719
G1 X163.475 Y131.017 E15.57136
G1 X163.32 Y131.039 E15.57656
G1 X162.437 Y131.173 E15.60627
G1 X162.082 Y131.223 E15.61819
G1 X158.675 Y131.741 E15.73281
G1 X157.706 Y131.876 E15.76535
G1 X156.789 Y131.963 E15.79599
G1 X156.213 Y131.977 E15.81515
G1 X155.719 Y131.975 E15.83158
G1 X153.724 Y131.942 E15.89795
G1 X151.244 Y131.972 E15.98044
G1 X148.662 Y132.075 E16.06638
G1 X146.216 Y132.242 E16.14793
G1 X144.617 Y132.404 E16.20138
G1 X143.204 Y132.533 E16.24858
G1 X142.327 Y132.577 E16.27778
G1 X140.981 Y132.588 E16.32255
G1 X139.639 Y132.575 E16.36719
G1 X138.761 Y132.53 E16.39643
G1 X138.204 Y132.476 E16.41504
G1 X136.384 Y132.277 E16.47594
G1 X133.832 Y132.071 E16.56109
G1 X131.325 Y131.94 E16.64459
G1 X127.805 Y131.873 E16.76169
G1 X61.658 Y131.872 E18.96174
G1 X60.954 Y131.861 E18.98516
G1 X60.035 Y131.806 E19.01578
G1 X59.124 Y131.672 E19.04641
G1 X58.229 Y131.46 E19.077
G1 X57.355 Y131.171 E19.10762
G1 X56.509 Y130.807 E19.13825
G1 X55.698 Y130.371 E19.16887
G1 X54.928 Y129.866 E19.1995
G1 X54.205 Y129.296 E19.23012
G1 X53.591 Y128.723 E19.25806
G1 X53.481 Y128.612 E19.26325
G1 X52.862 Y127.931 E19.29386
G1 X52.304 Y127.198 E19.3245
G1 X51.812 Y126.42 E19.35512
G1 X51.39 Y125.602 E19.38573
G1 X51.04 Y124.751 E19.41634
G1 X50.765 Y123.872 E19.44697
G1 X50.568 Y122.973 E19.47758
G1 X50.449 Y122.06 E19.5082
G1 X50.417 Y121.536 E19.52566
G1 X50.404 Y121.083 E19.54074
G1 X50.4 Y120.648 E19.55521
G1 X50.401 Y114.375 E19.76385
G1 X50.411 Y113.691 E19.7866
G1 X50.465 Y112.772 E19.81722
G1 X50.598 Y111.861 E19.84784
G1 X50.809 Y110.965 E19.87846
G1 X51.098 Y110.091 E19.90907
G1 X51.461 Y109.245 E19.93969
G1 X51.896 Y108.433 E19.97033
G1 X52.4 Y107.663 E20.00094
G1 X52.969 Y106.939 E20.03157
G1 X53.582 Y106.283 E20.06143
G1 X53.694 Y106.173 E20.06665
G1 X54.379 Y105.557 E20.09729
G1 X55.114 Y105.003 E20.1279
G1 X55.894 Y104.515 E20.1585
G0 F6000 X56.137 Y104.837
G1 F1200 X56.943 Y104.431 E20.18852
G1 X57.783 Y104.098 E20.21858
G1 X58.648 Y103.841 E20.24859
G1 X59.533 Y103.661 E20.27863
G1 X60.775 Y103.542 E20.32012
G1 X61.145 Y103.532 E20.33244
G1 X61.679 Y103.526 E20.3502
G1 X125.242 Y103.527 E22.46431
G1 X127.849 Y103.49 E22.55103
G1 X130.416 Y103.381 E22.63648
G1 X132.916 Y103.204 E22.71984
G1 X135.433 Y102.954 E22.80397
G1 X136.312 Y102.837 E22.83346
G1 X136.681 Y102.804 E22.84579
G1 X137.834 Y102.662 E22.88443
G1 X138.797 Y102.589 E22.91655
G1 X138.94 Y102.585 E22.9213
G1 X139.359 Y102.582 E22.93524
G1 X139.663 Y102.586 E22.94535
G1 X139.955 Y102.594 E22.95507
G1 X141.467 Y102.658 E23.0054
G1 X142.37 Y102.705 E23.03548
G1 X142.605 Y102.713 E23.0433
G1 X143.328 Y102.764 E23.0674
G1 X146.057 Y103.058 E23.1587
G1 X148.556 Y103.255 E23.24207
G1 X151.109 Y103.383 E23.32709
G1 X153.634 Y103.44 E23.41109
G1 X155.657 Y103.434 E23.47838
G1 X156.117 Y103.428 E23.49368
G1 X157.019 Y103.456 E23.5237
G1 X157.779 Y103.542 E23.54914
G1 X159.021 Y103.73 E23.59092
G1 X159.746 Y103.835 E23.61528
G1 X161.204 Y104.054 E23.66432
G1 X161.89 Y104.152 E23.68737
G1 X162.714 Y104.283 E23.71512
G1 X164.813 Y104.597 E23.78571
G1 X165.465 Y104.699 E23.80766
G1 X166.927 Y104.913 E23.8568
G1 X168.708 Y105.183 E23.91671
G1 X170.158 Y105.398 E23.96547
G1 X170.732 Y105.49 E23.9848
G1 X171.258 Y105.563 E24.00247
G1 X171.433 Y105.595 E24.00838
G1 X172.763 Y105.797 E24.05313
G1 X173.164 Y105.854 E24.0666
G1 X174.004 Y105.985 E24.09487
G1 X175.18 Y106.24 E24.1349
G1 X175.777 Y106.407 E24.15551
G1 X176.049 Y106.487 E24.16494
G1 X176.462 Y106.615 E24.17933
G1 X177.312 Y106.92 E24.20936
G1 X178.131 Y107.3 E24.23939
G1 X178.914 Y107.75 E24.26943
G1 X179.654 Y108.268 E24.29947
G1 X180.496 Y108.99 E24.33636
G1 X180.543 Y109.035 E24.33853
G1 X181.167 Y109.688 E24.36857
G1 X181.731 Y110.394 E24.39862
G1 X182.23 Y111.146 E24.42864
G1 X182.661 Y111.94 E24.45869
G1 X182.994 Y112.702 E24.48635
G1 X183.126 Y113.041 E24.49845
G1 X183.416 Y113.896 E24.52847
G1 X183.629 Y114.774 E24.55852
G1 X183.764 Y115.667 E24.58856
G1 X183.821 Y116.797 E24.62619
G1 X183.819 Y117.165 E24.63843
G1 X183.821 Y118.235 E24.67402
G1 X183.783 Y119.137 E24.70405
G1 X183.665 Y120.033 E24.73411
G1 X183.468 Y120.914 E24.76413
G1 X183.326 Y121.391 E24.78069
G1 X183.261 Y121.592 E24.78771
G1 X182.946 Y122.439 E24.81777
G1 X182.453 Y123.442 E24.85494
G1 X182.356 Y123.615 E24.86154
G1 X181.88 Y124.383 E24.89159
G1 X181.338 Y125.105 E24.92162
G1 X180.734 Y125.777 E24.95167
G1 X180.073 Y126.392 E24.9817
G1 X179.36 Y126.947 E25.01175
G1 X178.601 Y127.436 E25.04178
G1 X177.802 Y127.856 E25.0718
G1 X176.573 Y128.34 E25.11574
G1 X175.921 Y128.549 E25.13851
G1 X175.574 Y128.654 E25.15057
G1 X175.205 Y128.758 E25.16332
G1 X174.091 Y129.005 E25.20127
G1 X173.484 Y129.104 E25.22173
G1 X172.487 Y129.255 E25.25526
G1 X171.968 Y129.328 E25.2727
G1 X171.278 Y129.434 E25.29591
G1 X170.757 Y129.508 E25.31342
G1 X168.633 Y129.834 E25.38489
G1 X167.417 Y130.018 E25.42579
G1 X167.033 Y130.072 E25.43869
G1 X163.419 Y130.621 E25.56027
G1 X163.281 Y130.64 E25.56491
G1 X162.516 Y130.758 E25.59065
G1 X162.059 Y130.822 E25.606
G1 X158.619 Y131.344 E25.72172
G1 X157.65 Y131.479 E25.75426
G1 X156.751 Y131.564 E25.7843
G1 X156.214 Y131.577 E25.80216
G1 X155.726 Y131.575 E25.81839
G1 X153.727 Y131.542 E25.88489
G1 X151.223 Y131.572 E25.96818
G1 X148.655 Y131.675 E26.05366
G1 X146.176 Y131.844 E26.1363
G1 X144.58 Y132.006 E26.18966
G1 X143.167 Y132.135 E26.23685
G1 X142.323 Y132.177 E26.26496
G1 X140.977 Y132.188 E26.30973
G1 X139.643 Y132.175 E26.3541
G1 X138.799 Y132.132 E26.38221
G1 X138.248 Y132.079 E26.40062
G1 X136.392 Y131.876 E26.46272
G1 X133.849 Y131.671 E26.54757
G1 X131.354 Y131.541 E26.63067
G1 X127.813 Y131.473 E26.74846
G1 X61.665 Y131.472 E28.94856
G1 X60.961 Y131.461 E28.97197
G1 X60.059 Y131.407 E29.00203
G1 X59.166 Y131.273 E29.03206
G1 X58.288 Y131.061 E29.0621
G1 X57.432 Y130.772 E29.09215
G1 X56.606 Y130.409 E29.12216
G1 X55.814 Y129.974 E29.15222
G1 X55.065 Y129.47 E29.18224
G1 X54.362 Y128.902 E29.2123
G1 X53.875 Y128.442 E29.23458
G1 X53.765 Y128.331 E29.23978
G1 X53.158 Y127.662 E29.26983
G1 X52.613 Y126.942 E29.29986
G1 X52.134 Y126.176 E29.32991
G1 X51.724 Y125.372 E29.35993
G1 X51.387 Y124.534 E29.38997
G1 X51.126 Y123.669 E29.42002
G1 X50.942 Y122.785 E29.45005
G1 X50.817 Y121.522 E29.49226
G1 X50.804 Y121.08 E29.50697
G1 X50.8 Y120.645 E29.52144
G1 X50.801 Y114.381 E29.72978
G1 X50.811 Y113.697 E29.75253
G1 X50.864 Y112.795 E29.78259
G1 X50.997 Y111.902 E29.81261
G1 X51.208 Y111.024 E29.84265
G1 X51.496 Y110.168 E29.87269
G1 X51.859 Y109.341 E29.90273
G1 X52.293 Y108.549 E29.93276
G1 X52.796 Y107.799 E29.9628
G1 X53.363 Y107.096 E29.99284
G1 X53.863 Y106.569 E30.017
G1 X53.975 Y106.459 E30.02222
G1 X54.646 Y105.855 E30.05225
G1 X55.369 Y105.313 E30.0823
G1 X56.137 Y104.837 E30.11236
G1 F1500 E23.61236
G0 F6000 X156.273 Y113.174
G0 X158.614 Y114.108
G0 X159.801 Y114.726
G0 X163.532 Y116.985
G1 F1500 E30.11236
G1 F1200 X163.545 Y116.985 E30.11279
G1 X163.947 Y117.108 E30.12677
G1 X164.357 Y117.192 E30.14069
G1 X164.776 Y117.197 E30.15463
G1 X164.852 Y117.187 E30.15718
G1 X165.191 Y117.289 E30.16895
G1 X165.602 Y117.371 E30.18289
G1 X166.032 Y117.355 E30.1972
G1 X166.44 Y117.479 E30.21139
