;FLAVOR:Marlin
;TIME:1645
;Filament used: 0.9899m
;Layer height: 0.2
;MINX:74.325
;MINY:86.115
;MINZ:0.2
;MAXX:160.675
;MAXY:148.885
;MAXZ:1.4
;TARGET_MACHINE.NAME:Creality Ender-3
;Generated with Cura_SteamEngine 5.8.1
M140 S50
M105
M190 S50
M104 S200
M105
M109 S200
M82 ;absolute extrusion mode
; Ender 3 Custom Start G-code
G92 E0 ; Reset Extruder
G28 ; Home all axes
G1 Z2.0 F3000 ; Move Z Axis up little to prevent scratching of Heat Bed
G1 X0.1 Y20 Z0.3 F5000.0 ; Move to start position
G1 X0.1 Y200.0 Z0.3 F1500.0 E15 ; Draw the first line
G1 X0.4 Y200.0 Z0.3 F5000.0 ; Move to side a little
G1 X0.4 Y20 Z0.3 F1500.0 E30 ; Draw the second line
G92 E0 ; Reset Extruder
G1 Z2.0 F3000 ; Move Z Axis up little to prevent scratching of Heat Bed
G1 X5 Y20 Z0.3 F5000.0 ; Move over to prevent blob squish
G92 E0
G92 E0
G1 F2700 E-5
;LAYER_COUNT:7
;LAYER:0
M107
G0 F6000 X77.781 Y89.128 Z0.2
;TYPE:SKIRT
G1 F2700 E0
G1 F1200 X78.517 Y88.491 E0.03237
G1 X79.249 Y87.961 E0.06243
G1 X80.146 Y87.426 E0.09717
G1 X81.024 Y87.005 E0.12956
G1 X81.937 Y86.663 E0.16198
G1 X82.874 Y86.404 E0.19432
G1 X83.841 Y86.226 E0.22702
G1 X84.98 Y86.13 E0.26504
G1 X85.637 Y86.115 E0.2869
G1 X148.979 Y86.115 E2.39366
G1 X149.859 Y86.128 E2.42293
G1 X150.831 Y86.187 E2.45532
G1 X151.794 Y86.333 E2.48771
G1 X152.741 Y86.564 E2.52014
G1 X153.629 Y86.864 E2.55131
G1 X154.521 Y87.254 E2.58369
G1 X155.404 Y87.741 E2.61723
G1 X156.155 Y88.243 E2.64727
G1 X156.97 Y88.901 E2.68211
G1 X157.668 Y89.579 E2.71448
G1 X158.304 Y90.316 E2.74686
G1 X158.874 Y91.106 E2.77926
G1 X159.336 Y91.882 E2.8093
G1 X159.79 Y92.824 E2.84408
G1 X160.119 Y93.702 E2.87526
G1 X160.388 Y94.674 E2.9088
G1 X160.565 Y95.64 E2.94147
G1 X160.66 Y96.77 E2.97919
G1 X160.675 Y97.445 E3.00164
G1 X160.674 Y137.285 E4.32672
G1 X160.663 Y138.048 E4.35211
G1 X160.606 Y139.021 E4.38452
G1 X160.461 Y139.984 E4.41691
G1 X160.232 Y140.93 E4.44929
G1 X159.921 Y141.854 E4.48171
G1 X159.529 Y142.745 E4.51409
G1 X159.061 Y143.597 E4.54642
G1 X158.539 Y144.378 E4.57766
G1 X157.906 Y145.163 E4.6112
G1 X157.281 Y145.814 E4.64122
G1 X156.492 Y146.502 E4.67604
G1 X155.732 Y147.052 E4.70724
G1 X154.865 Y147.569 E4.74081
G1 X153.987 Y147.991 E4.77322
G1 X153.076 Y148.333 E4.80558
G1 X152.137 Y148.594 E4.838
G1 X151.171 Y148.772 E4.87067
G1 X150.02 Y148.87 E4.90909
G1 X149.345 Y148.885 E4.93154
G1 X85.889 Y148.884 E7.0421
G1 X85.156 Y148.873 E7.06648
G1 X84.184 Y148.816 E7.09886
G1 X83.221 Y148.67 E7.13126
G1 X82.275 Y148.441 E7.16363
G1 X81.351 Y148.129 E7.19607
G1 X80.461 Y147.737 E7.22842
G1 X79.638 Y147.286 E7.25963
G1 X78.799 Y146.725 E7.2932
G1 X78.095 Y146.159 E7.32324
G1 X77.342 Y145.434 E7.35801
G1 X76.705 Y144.698 E7.39038
G1 X76.175 Y143.967 E7.42041
G1 X75.639 Y143.07 E7.45517
G1 X75.217 Y142.192 E7.48757
G1 X74.875 Y141.28 E7.51997
G1 X74.615 Y140.342 E7.55234
G1 X74.437 Y139.373 E7.58511
G1 X74.339 Y138.194 E7.62446
G1 X74.325 Y137.543 E7.64611
G1 X74.326 Y97.64 E8.97329
G1 X74.337 Y96.94 E8.99658
G1 X74.395 Y95.967 E9.029
G1 X74.541 Y95.004 E9.06139
G1 X74.771 Y94.058 E9.09377
G1 X75.084 Y93.135 E9.12619
G1 X75.476 Y92.245 E9.15854
G1 X75.946 Y91.392 E9.19093
G1 X76.489 Y90.584 E9.22331
G1 X77.056 Y89.88 E9.25337
G1 X77.781 Y89.128 E9.28812
G0 F6000 X78.043 Y89.43
G1 F1200 X78.752 Y88.815 E9.31933
G1 X79.484 Y88.285 E9.34939
G1 X80.32 Y87.786 E9.38177
G1 X81.165 Y87.379 E9.41297
G1 X82.044 Y87.048 E9.44421
G1 X82.947 Y86.797 E9.47538
G1 X83.875 Y86.625 E9.50677
G1 X85.014 Y86.529 E9.54479
G1 X85.646 Y86.515 E9.56581
G1 X148.973 Y86.515 E11.67208
G1 X149.835 Y86.527 E11.70075
G1 X150.772 Y86.583 E11.73197
G1 X151.7 Y86.722 E11.76318
G1 X152.613 Y86.943 E11.79443
G1 X153.469 Y87.231 E11.82446
G1 X154.361 Y87.621 E11.85684
G1 X155.182 Y88.074 E11.88803
G1 X155.933 Y88.576 E11.91808
G1 X156.692 Y89.188 E11.9505
G1 X157.366 Y89.841 E11.98172
G1 X157.98 Y90.55 E12.01291
G1 X158.53 Y91.311 E12.04414
G1 X158.992 Y92.087 E12.07418
G1 X159.415 Y92.964 E12.10656
G1 X159.744 Y93.842 E12.13775
G1 X159.995 Y94.747 E12.16899
G1 X160.166 Y95.674 E12.20034
G1 X160.261 Y96.804 E12.23806
G1 X160.275 Y97.445 E12.25938
G1 X160.274 Y137.28 E13.5843
G1 X160.264 Y138.025 E13.60908
G1 X160.21 Y138.962 E13.6403
G1 X160.072 Y139.891 E13.67153
G1 X159.853 Y140.803 E13.70273
G1 X159.555 Y141.693 E13.73395
G1 X159.178 Y142.553 E13.76518
G1 X158.728 Y143.375 E13.79635
G1 X158.206 Y144.156 E13.82759
G1 X157.617 Y144.886 E13.85879
G1 X156.992 Y145.537 E13.8888
G1 X156.257 Y146.178 E13.92124
G1 X155.497 Y146.728 E13.95244
G1 X154.691 Y147.209 E13.98366
G1 X153.846 Y147.617 E14.01487
G1 X152.968 Y147.948 E14.04608
G1 X152.064 Y148.201 E14.0773
G1 X151.137 Y148.373 E14.10866
G1 X149.986 Y148.471 E14.14708
G1 X149.345 Y148.485 E14.16841
G1 X85.895 Y148.484 E16.27876
G1 X85.179 Y148.474 E16.30258
G1 X84.243 Y148.42 E16.33376
G1 X83.314 Y148.281 E16.365
G1 X82.402 Y148.062 E16.3962
G1 X81.512 Y147.763 E16.42743
G1 X80.653 Y147.386 E16.45863
G1 X79.83 Y146.935 E16.48984
G1 X79.05 Y146.413 E16.52106
G1 X78.346 Y145.847 E16.5511
G1 X77.644 Y145.172 E16.58349
G1 X77.029 Y144.463 E16.61471
G1 X76.499 Y143.732 E16.64474
G1 X75.999 Y142.896 E16.67714
G1 X75.591 Y142.051 E16.70835
G1 X75.26 Y141.173 E16.73956
G1 X75.008 Y140.269 E16.77077
G1 X74.836 Y139.34 E16.8022
G1 X74.738 Y138.161 E16.84154
G1 X74.725 Y137.543 E16.8621
G1 X74.726 Y97.646 E18.18908
G1 X74.736 Y96.963 E18.2118
G1 X74.791 Y96.026 E18.24302
G1 X74.93 Y95.098 E18.27423
G1 X75.15 Y94.186 E18.30543
G1 X75.45 Y93.296 E18.33667
G1 X75.827 Y92.437 E18.36787
G1 X76.278 Y91.615 E18.39906
G1 X76.801 Y90.835 E18.43029
G1 X77.368 Y90.131 E18.46036
G1 X78.043 Y89.43 E18.49272
G0 F6000 X78.306 Y89.732
G1 F1200 X78.987 Y89.139 E18.52276
G1 X79.719 Y88.609 E18.55282
G1 X80.494 Y88.146 E18.58284
G1 X81.307 Y87.753 E18.61288
G1 X82.152 Y87.433 E18.64293
G1 X83.021 Y87.19 E18.67294
G1 X83.909 Y87.024 E18.70299
G1 X85.048 Y86.928 E18.74101
G1 X85.655 Y86.915 E18.7612
G1 X148.968 Y86.915 E20.867
G1 X149.812 Y86.926 E20.89507
G1 X150.714 Y86.979 E20.92512
G1 X151.607 Y87.111 E20.95515
G1 X152.485 Y87.322 E20.98518
G1 X153.341 Y87.61 E21.01522
G1 X154.168 Y87.972 E21.04525
G1 X154.96 Y88.407 E21.0753
G1 X155.711 Y88.909 E21.10535
G1 X156.414 Y89.476 E21.13539
G1 X157.064 Y90.103 E21.16542
G1 X157.656 Y90.785 E21.19546
G1 X158.186 Y91.516 E21.22549
G1 X158.648 Y92.292 E21.25553
G1 X159.041 Y93.105 E21.28556
G1 X159.359 Y93.95 E21.31559
G1 X159.602 Y94.82 E21.34564
G1 X159.767 Y95.708 E21.37568
G1 X159.862 Y96.838 E21.41339
G1 X159.875 Y97.445 E21.43359
G1 X159.874 Y137.275 E22.75834
G1 X159.865 Y138.002 E22.78252
G1 X159.814 Y138.904 E22.81257
G1 X159.683 Y139.798 E22.84262
G1 X159.474 Y140.676 E22.87264
G1 X159.188 Y141.533 E22.90269
G1 X158.827 Y142.361 E22.93273
G1 X158.395 Y143.153 E22.96274
G1 X157.894 Y143.905 E22.99279
G1 X157.328 Y144.609 E23.02284
G1 X156.703 Y145.26 E23.05285
G1 X156.022 Y145.854 E23.08291
G1 X155.291 Y146.385 E23.11296
G1 X154.517 Y146.849 E23.14297
G1 X153.704 Y147.243 E23.17302
G1 X152.86 Y147.563 E23.20304
G1 X151.99 Y147.808 E23.2331
G1 X151.103 Y147.974 E23.26312
G1 X149.952 Y148.072 E23.30154
G1 X149.345 Y148.085 E23.32173
G1 X85.9 Y148.084 E25.43192
G1 X85.202 Y148.075 E25.45514
G1 X84.301 Y148.024 E25.48515
G1 X83.407 Y147.892 E25.51521
G1 X82.529 Y147.683 E25.54523
G1 X81.672 Y147.396 E25.57529
G1 X80.845 Y147.035 E25.6053
G1 X80.052 Y146.602 E25.63535
G1 X79.301 Y146.101 E25.66538
G1 X78.597 Y145.535 E25.69542
G1 X77.946 Y144.909 E25.72546
G1 X77.353 Y144.228 E25.7555
G1 X76.823 Y143.497 E25.78553
G1 X76.359 Y142.722 E25.81557
G1 X75.965 Y141.909 E25.84562
G1 X75.645 Y141.065 E25.87564
G1 X75.401 Y140.195 E25.90569
G1 X75.235 Y139.307 E25.93574
G1 X75.138 Y138.152 E25.97429
G1 X75.125 Y137.543 E25.99455
G1 X75.126 Y97.651 E27.32137
G1 X75.135 Y96.986 E27.34349
G1 X75.187 Y96.084 E27.37354
G1 X75.319 Y95.191 E27.40356
G1 X75.529 Y94.313 E27.43359
G1 X75.816 Y93.456 E27.46365
G1 X76.178 Y92.629 E27.49367
G1 X76.611 Y91.837 E27.52369
G1 X77.113 Y91.086 E27.55374
G1 X77.68 Y90.382 E27.5838
G1 X78.306 Y89.732 E27.61382
G1 F2700 E22.61382
;MESH:oc_lbs_01.stl
G0 F6000 X90.431 Y102.536
G0 X98.081 Y132.828
;TYPE:WALL-INNER
G1 F2700 E27.61382
G1 F1200 X97.878 Y132.92 E27.62123
G1 X91.074 Y132.92 E27.84753
G1 X90.759 Y132.715 E27.86003
G1 X90.612 Y132.434 E27.87058
G1 X90.612 Y102.569 E28.86389
G1 X90.76 Y102.288 E28.87446
G1 X91.074 Y102.084 E28.88691
G1 X104.672 Y102.084 E29.33918
G1 X104.857 Y102.157 E29.3458
G1 X105.012 Y102.279 E29.35236
G1 X105.114 Y102.434 E29.35853
G1 X105.168 Y102.684 E29.36704
G1 X105.168 Y107.189 E29.51687
G1 X105.098 Y107.391 E29.52398
G1 X104.929 Y107.589 E29.53264
G1 X104.691 Y107.708 E29.54149
G1 X98.36 Y107.708 E29.75206
G1 X98.355 Y132.405 E30.57349
G1 X98.281 Y132.62 E30.58105
G1 X98.081 Y132.828 E30.59065
G1 F2700 E25.59065
G0 F6000 X98.437 Y132.709
G0 X106.64 Y132.376
G0 X117.5 Y132.728
G1 F2700 E30.59065
G1 F1200 X115.14 Y132.92 E30.6694
G1 X107.302 Y132.92 E30.93009
G1 X107.099 Y132.828 E30.93751
G1 X106.899 Y132.62 E30.94711
G1 X106.825 Y132.405 E30.95467
G1 X106.82 Y102.684 E31.94319
G1 X106.874 Y102.434 E31.9517
G1 X106.976 Y102.279 E31.95787
G1 X107.131 Y102.157 E31.96443
G1 X107.42 Y102.084 E31.97435
G1 X116.573 Y102.085 E32.27878
G1 X118.643 Y102.212 E32.34775
G1 X120.523 Y102.621 E32.41174
G1 X122.18 Y103.316 E32.47151
G1 X123.569 Y104.326 E32.52863
G1 X124.659 Y105.646 E32.58557
G1 X125.444 Y107.266 E32.64544
G1 X125.935 Y109.216 E32.71232
G1 X126.096 Y111.416 E32.78569
G1 X125.935 Y113.529 E32.85617
G1 X125.434 Y115.32 E32.91803
G1 X124.629 Y116.79 E32.97377
G1 X123.488 Y117.946 E33.02779
G1 X122.179 Y118.688 E33.07784
G1 X122.901 Y119.108 E33.10562
G1 X123.877 Y120.066 E33.15111
G1 X124.587 Y121.288 E33.19811
G1 X125.036 Y122.785 E33.2501
G1 X125.187 Y124.572 E33.30974
G1 X124.973 Y126.944 E33.38896
G1 X124.359 Y128.815 E33.45445
G1 X123.389 Y130.307 E33.51364
G1 X122.095 Y131.398 E33.56994
G1 X120.558 Y132.16 E33.62699
G1 X118.832 Y132.62 E33.68641
G1 X117.5 Y132.728 E33.73085
G1 F2700 E28.73085
G0 F6000 X117.153 Y132.957
G0 X117.153 Y137.084
G0 X117.5 Y137.284
G1 F2700 E33.73085
G1 F1200 X149.072 Y137.284 E34.78094
G1 X149.072 Y97.712 E36.09711
G1 X85.925 Y97.713 E38.19739
G1 X85.924 Y137.284 E39.51353
G1 X117.5 Y137.284 E40.56375
G1 F2700 E35.56375
G0 F6000 X117.5 Y137.184
G0 X134.68 Y137.084
G0 X134.93 Y133.412
G0 X134.702 Y133.195
G1 F2700 E40.56375
G1 F1200 X132.986 Y132.79 E40.62239
G1 X131.461 Y132.117 E40.67783
G1 X130.14 Y131.158 E40.73213
G1 X129.066 Y129.949 E40.78591
G1 X128.307 Y128.5 E40.84032
G1 X127.856 Y126.81 E40.89849
G1 X127.709 Y124.956 E40.96035
G1 X128.012 Y122.358 E41.04735
G1 X128.93 Y120.159 E41.1266
G1 X130.299 Y118.365 E41.20166
G1 X131.901 Y116.799 E41.27617
G1 X134.437 Y114.588 E41.38808
G1 X136.737 Y112.111 E41.5005
G1 X137.317 Y110.892 E41.5454
G1 X137.511 Y109.404 E41.59531
G1 X137.241 Y108.203 E41.63625
G1 X137.003 Y107.944 E41.64795
G1 X136.46 Y107.831 E41.6664
G1 X135.933 Y107.921 E41.68418
G1 X135.498 Y108.184 E41.70109
G1 X135.124 Y108.694 E41.72212
G1 X134.793 Y109.558 E41.7529
G1 X134.473 Y112.552 E41.85304
G1 X134.38 Y112.815 E41.86232
G1 X134.24 Y112.966 E41.86917
G1 X133.856 Y113.088 E41.88257
G1 X128.069 Y112.224 E42.07718
G1 X127.788 Y111.998 E42.08918
G1 X127.669 Y111.681 E42.10044
G1 X128.009 Y108.533 E42.20575
G1 X128.788 Y106.008 E42.29364
G1 X130.076 Y104.068 E42.37109
G1 X131.791 Y102.755 E42.44293
G1 X131.956 Y102.666 E42.44916
G1 X134.113 Y101.904 E42.52525
G1 X136.802 Y101.64 E42.61512
G1 X139.162 Y101.9 E42.69408
G1 X141.2 Y102.703 E42.76694
G1 X142.895 Y103.977 E42.83747
G1 X144.137 Y105.602 E42.90549
G1 X144.907 Y107.563 E42.97556
G1 X145.16 Y109.708 E43.0474
G1 X144.805 Y112.696 E43.14748
G1 X143.731 Y115.172 E43.23725
G1 X142.178 Y117.246 E43.32342
G1 X140.345 Y119.051 E43.40899
G1 X137.923 Y121.183 E43.51631
G1 X135.912 Y123.267 E43.61263
G1 X135.42 Y124.296 E43.65057
G1 X135.255 Y125.584 E43.69375
G1 X135.588 Y126.857 E43.73752
G1 X135.918 Y127.194 E43.75321
G1 X136.417 Y127.317 E43.7703
G1 X136.872 Y127.23 E43.78571
G1 X137.132 Y127.021 E43.7968
G1 X137.567 Y125.756 E43.8413
G1 X137.742 Y123.564 E43.91443
G1 X137.842 Y123.276 E43.92457
G1 X138.116 Y123.055 E43.93628
G1 X138.414 Y123.016 E43.94628
G1 X144.123 Y123.727 E44.13763
G1 X144.336 Y123.83 E44.1455
G1 X144.518 Y124.057 E44.15517
G1 X144.572 Y124.308 E44.16371
G1 X144.236 Y127.156 E44.25909
G1 X143.825 Y128.684 E44.31172
G1 X143.134 Y130.113 E44.36452
G1 X142.128 Y131.419 E44.41935
G1 X140.709 Y132.456 E44.4778
G1 X138.902 Y133.109 E44.54171
G1 X136.626 Y133.326 E44.61775
G1 X134.702 Y133.195 E44.68189
G0 F6000 X134.75 Y132.795
;TYPE:WALL-OUTER
G1 F1200 X133.103 Y132.404 E44.73819
G1 X131.679 Y131.776 E44.78996
G1 X130.398 Y130.846 E44.84261
G1 X129.41 Y129.736 E44.89203
G1 X128.678 Y128.341 E44.94443
G1 X128.258 Y126.789 E44.99791
G1 X128.112 Y124.984 E45.05814
G1 X128.404 Y122.457 E45.14275
G1 X129.273 Y120.373 E45.21784
G1 X130.588 Y118.642 E45.29015
G1 X132.164 Y117.101 E45.36346
G1 X134.716 Y114.876 E45.47607
G1 X137.072 Y112.338 E45.59125
G1 X137.705 Y111.006 E45.6403
G1 X137.917 Y109.386 E45.69464
G1 X137.608 Y108.012 E45.74148
G1 X137.211 Y107.579 E45.76102
G1 X136.468 Y107.424 E45.78626
G1 X135.791 Y107.539 E45.8091
G1 X135.222 Y107.883 E45.83122
G1 X134.77 Y108.501 E45.85668
G1 X134.401 Y109.464 E45.89098
G1 X134.075 Y112.51 E45.99287
G1 X133.998 Y112.648 E45.99813
G1 X133.869 Y112.688 E46.00262
G1 X128.197 Y111.833 E46.1934
G1 X128.113 Y111.765 E46.197
G1 X128.076 Y111.667 E46.20048
G1 X128.408 Y108.597 E46.30319
G1 X129.152 Y106.182 E46.38723
G1 X130.375 Y104.345 E46.46064
G1 X132.06 Y103.053 E46.53126
G1 X134.232 Y102.292 E46.6078
G1 X136.78 Y102.044 E46.69295
G1 X139.068 Y102.292 E46.7695
G1 X141.002 Y103.054 E46.83863
G1 X142.597 Y104.247 E46.90488
G1 X143.786 Y105.803 E46.97001
G1 X144.507 Y107.638 E47.03559
G1 X144.76 Y109.708 E47.10495
G1 X144.418 Y112.571 E47.20085
G1 X143.369 Y114.988 E47.28849
G1 X141.873 Y116.987 E47.37153
G1 X140.081 Y118.751 E47.45516
G1 X137.647 Y120.893 E47.563
G1 X135.579 Y123.036 E47.66205
G1 X135.031 Y124.182 E47.7043
G1 X134.848 Y125.61 E47.75219
G1 X135.228 Y127.061 E47.80208
G1 X135.712 Y127.555 E47.82508
G1 X136.406 Y127.727 E47.84886
G1 X137.045 Y127.604 E47.8705
G1 X137.473 Y127.26 E47.88877
G1 X137.962 Y125.838 E47.93878
G1 X138.146 Y123.523 E48.01602
G1 X138.292 Y123.404 E48.02229
G1 X144.011 Y124.111 E48.21395
G1 X144.154 Y124.224 E48.22001
G1 X144.171 Y124.332 E48.22365
G1 X143.842 Y127.087 E48.31593
G1 X143.441 Y128.56 E48.3667
G1 X142.801 Y129.884 E48.41562
G1 X141.846 Y131.129 E48.4678
G1 X140.519 Y132.1 E48.52249
G1 X138.799 Y132.718 E48.58328
G1 X136.635 Y132.924 E48.65558
G1 X134.75 Y132.795 E48.71842
G1 F2700 E43.71842
G0 F6000 X134.637 Y133.283
G0 X131.367 Y132.273
G0 X122.197 Y131.55
G0 X117.5 Y132.329
G1 F2700 E48.71842
G1 F1200 X115.157 Y132.52 E48.79661
G1 X107.381 Y132.52 E49.05524
G1 X107.221 Y132.401 E49.06187
G1 X107.22 Y102.619 E50.05243
G1 X107.385 Y102.486 E50.05948
G1 X116.549 Y102.484 E50.36427
G1 X118.599 Y102.612 E50.43259
G1 X120.418 Y103.011 E50.49453
G1 X121.962 Y103.659 E50.55022
G1 X123.311 Y104.64 E50.6057
G1 X124.307 Y105.848 E50.65777
G1 X125.057 Y107.384 E50.71462
G1 X125.535 Y109.267 E50.77924
G1 X125.696 Y111.476 E50.85291
G1 X125.533 Y113.482 E50.91984
G1 X125.066 Y115.152 E50.97752
G1 X124.289 Y116.567 E51.03121
G1 X123.245 Y117.623 E51.0806
G1 X121.881 Y118.397 E51.13276
G1 X120.984 Y118.618 E51.16349
G1 X121.581 Y118.802 E51.18427
G1 X122.673 Y119.445 E51.22642
G1 X123.559 Y120.315 E51.26772
G1 X124.224 Y121.47 E51.31204
G1 X124.644 Y122.887 E51.3612
G1 X124.784 Y124.547 E51.41661
G1 X124.583 Y126.854 E51.49363
G1 X124.002 Y128.623 E51.55556
G1 X123.082 Y130.042 E51.61181
G1 X121.853 Y131.072 E51.66514
G1 X120.396 Y131.79 E51.71917
G1 X118.763 Y132.226 E51.77538
G1 X117.5 Y132.329 E51.81753
G1 F2700 E46.81753
G0 F6000 X117.524 Y132.629
G0 X117.153 Y132.957
G0 X117.153 Y137.084
G0 X117.5 Y137.684
G1 F2700 E51.81753
G1 F1200 X149.472 Y137.684 E52.88092
G1 X149.472 Y97.312 E54.2237
