;FLAVOR:Marlin
;TIME:2203
;Filament used: 1.0055m
;Layer height: 0.2
;MINX:42.117
;MINY:64.185
;MINZ:0.2
;MAXX:180.706
;MAXY:142.689
;MAXZ:6.6
;Generated with Cura_SteamEngine 4.13.0
M140 S60
M105
M190 S60
M104 S200
M105
M109 S200
M82 ;absolute extrusion mode
; Ender 3 Custom Start G-code
G92 E0 ; Reset Extruder
G28 ; Home all axes
G1 Z2.0 F3000 ; Move Z Axis up little to prevent scratching of Heat Bed
G1 X0.1 Y20 Z0.3 F5000.0 ; Move to start position
G1 X0.1 Y200.0 Z0.3 F1500.0 E15 ; Draw the first line
G1 X0.4 Y200.0 Z0.3 F5000.0 ; Move to side a little
G1 X0.4 Y20 Z0.3 F1500.0 E30 ; Draw the second line
G92 E0 ; Reset Extruder
G1 Z2.0 F3000 ; Move Z Axis up little to prevent scratching of Heat Bed
G1 X5 Y20 Z0.3 F5000.0 ; Move over to prevent blob squish
G92 E0
G92 E0
G1 F1500 E-6.5
;LAYER_COUNT:33
;LAYER:0
M107
G0 F6000 X64.712 Y102.408 Z0.2
;TYPE:SKIRT
G1 F1500 E0
G1 F1200 X69.011 Y99.688 E0.1692
G1 X81.967 Y91.52 E0.67861
G1 X84.676 Y89.824 E0.78491
G1 X85.53 Y89.297 E0.81829
G1 X86.345 Y88.799 E0.85005
G1 X87.32 Y88.213 E0.88789
G1 X88.171 Y87.711 E0.92075
G1 X89.039 Y87.211 E0.95407
G1 X89.866 Y86.743 E0.98567
G1 X90.686 Y86.289 E1.01685
G1 X91.585 Y85.801 E1.05087
G1 X92.488 Y85.321 E1.08488
G1 X94.732 Y84.097 E1.1699
G1 X96.901 Y82.833 E1.2534
G1 X99.019 Y81.517 E1.33633
G1 X101.151 Y80.108 E1.42133
G1 X101.446 Y79.904 E1.43326
G1 X102.183 Y79.407 E1.46283
G1 X102.982 Y78.916 E1.49402
G1 X103.82 Y78.495 E1.52521
G1 X104.585 Y78.185 E1.55266
G1 X105.479 Y77.903 E1.58384
G1 X106.803 Y77.632 E1.62879
G1 X106.996 Y77.605 E1.63527
G1 X109.62 Y77.194 E1.72361
G1 X112.056 Y76.742 E1.80602
G1 X114.554 Y76.206 E1.89099
G1 X116.947 Y75.62 E1.97293
G1 X119.431 Y74.938 E2.05861
G1 X121.793 Y74.216 E2.14076
G1 X124.206 Y73.403 E2.22545
G1 X126.586 Y72.526 E2.30981
G1 X128.876 Y71.607 E2.39188
G1 X131.207 Y70.595 E2.4764
G1 X133.517 Y69.513 E2.56124
G1 X135.745 Y68.392 E2.6442
G1 X137.935 Y67.211 E2.72695
G1 X139.614 Y66.238 E2.7915
G1 X140.156 Y65.921 E2.81238
G1 X140.62 Y65.658 E2.83012
G1 X141.455 Y65.231 E2.86131
G1 X142.323 Y64.876 E2.8925
G1 X143.218 Y64.597 E2.92368
G1 X143.913 Y64.436 E2.94741
G1 X144.146 Y64.39 E2.95531
G1 X145.073 Y64.248 E2.9865
G1 X146.009 Y64.185 E3.0177
G1 X147.413 Y64.241 E3.06444
G1 X148.016 Y64.305 E3.08461
G1 X149.122 Y64.441 E3.12167
G1 X152.698 Y64.764 E3.24109
G1 X153.228 Y64.802 E3.25877
G1 X153.797 Y64.857 E3.27778
G1 X154.226 Y64.91 E3.29216
G1 X154.736 Y64.985 E3.3093
G1 X155.016 Y65.033 E3.31875
G1 X155.348 Y65.096 E3.32999
G1 X155.673 Y65.162 E3.34102
G1 X155.954 Y65.223 E3.35058
G1 X156.288 Y65.301 E3.36199
G1 X156.464 Y65.345 E3.36803
G1 X156.733 Y65.416 E3.37728
G1 X157.065 Y65.508 E3.38874
G1 X157.569 Y65.661 E3.40626
G1 X157.982 Y65.797 E3.42072
G1 X158.432 Y65.956 E3.43659
G1 X158.789 Y66.091 E3.44929
G1 X159.174 Y66.245 E3.46308
G1 X159.43 Y66.353 E3.47232
G1 X160.039 Y66.632 E3.4946
G1 X160.612 Y66.916 E3.51587
G1 X160.985 Y67.11 E3.52985
G1 X161.437 Y67.356 E3.54697
G1 X161.842 Y67.588 E3.56249
G1 X162.2 Y67.803 E3.57638
G1 X162.5 Y67.99 E3.58814
G1 X162.779 Y68.17 E3.59918
G1 X163.143 Y68.415 E3.61378
G1 X163.527 Y68.685 E3.62939
G1 X163.815 Y68.894 E3.64123
G1 X164.195 Y69.18 E3.65704
G1 X164.487 Y69.407 E3.66935
G1 X164.756 Y69.624 E3.68084
G1 X165.046 Y69.867 E3.69342
G1 X165.365 Y70.143 E3.70745
G1 X165.58 Y70.334 E3.71702
G1 X165.773 Y70.51 E3.72571
G1 X166.109 Y70.829 E3.74112
G1 X166.493 Y71.21 E3.75911
G1 X167.111 Y71.847 E3.78863
G1 X167.368 Y72.122 E3.80115
G1 X167.497 Y72.265 E3.80755
G1 X167.732 Y72.535 E3.81946
G1 X167.955 Y72.799 E3.83095
G1 X168.192 Y73.089 E3.84341
G1 X168.597 Y73.603 E3.86517
G1 X168.825 Y73.902 E3.87768
G1 X169.089 Y74.272 E3.8928
G1 X169.379 Y74.696 E3.90988
G1 X169.588 Y75.013 E3.92251
G1 X170.067 Y75.768 E3.95225
G1 X170.356 Y76.25 E3.97094
G1 X170.456 Y76.427 E3.9777
G1 X170.664 Y76.813 E3.99229
G1 X170.873 Y77.22 E4.0075
G1 X171.134 Y77.764 E4.02757
G1 X171.419 Y78.403 E4.05084
G1 X171.58 Y78.782 E4.06454
G1 X171.707 Y79.098 E4.07587
G1 X171.843 Y79.454 E4.08854
G1 X171.977 Y79.824 E4.10163
G1 X172.111 Y80.218 E4.11547
G1 X172.246 Y80.64 E4.13021
G1 X172.377 Y81.081 E4.14551
G1 X172.492 Y81.5 E4.15996
G1 X172.598 Y81.92 E4.17437
G1 X172.711 Y82.406 E4.19096
G1 X172.79 Y82.773 E4.20345
G1 X172.889 Y83.276 E4.2205
G1 X172.957 Y83.655 E4.23331
G1 X173.115 Y84.639 E4.26646
G1 X173.553 Y87.133 E4.35068
G1 X174.067 Y89.648 E4.43605
G1 X174.624 Y92.028 E4.51735
G1 X175.279 Y94.509 E4.6027
G1 X175.992 Y96.925 E4.68648
G1 X176.772 Y99.321 E4.77029
G1 X177.612 Y101.67 E4.85326
G1 X178.521 Y104.003 E4.93654
G1 X179.303 Y105.825 E5.00249
G1 X179.846 Y107.113 E5.04898
G1 X180.173 Y107.992 E5.08017
G1 X180.424 Y108.895 E5.11134
G1 X180.598 Y109.817 E5.14255
G1 X180.692 Y110.75 E5.17374
G1 X180.706 Y111.688 E5.20494
G1 X180.64 Y112.624 E5.23615
G1 X180.495 Y113.55 E5.26732
G1 X180.271 Y114.461 E5.29852
G1 X179.971 Y115.349 E5.3297
G1 X179.596 Y116.209 E5.3609
G1 X179.149 Y117.034 E5.39211
G1 X178.634 Y117.817 E5.42328
G1 X178.054 Y118.554 E5.45448
G1 X177.413 Y119.239 E5.48568
G1 X176.716 Y119.866 E5.51686
G1 X176.284 Y120.206 E5.53515
G1 X175.117 Y121.075 E5.58354
G1 X174.904 Y121.232 E5.59234
G1 X172.893 Y122.783 E5.67681
G1 X170.943 Y124.378 E5.7606
G1 X169.033 Y126.033 E5.84466
G1 X167.156 Y127.752 E5.92931
G1 X166.604 Y128.287 E5.95488
G1 X165.835 Y129.022 E5.99026
G1 X165.13 Y129.641 E6.02146
G1 X164.694 Y129.974 E6.03971
G1 X164.348 Y130.225 E6.05393
G1 X163.714 Y130.652 E6.07935
G1 X163.046 Y131.069 E6.10554
G1 X162.682 Y131.287 E6.11965
G1 X162.404 Y131.446 E6.13031
G1 X161.476 Y131.92 E6.16496
G1 X160.68 Y132.28 E6.19402
G1 X160.155 Y132.501 E6.21297
G1 X159.702 Y132.67 E6.22905
G1 X159.467 Y132.752 E6.23733
G1 X158.988 Y132.907 E6.25407
G1 X158.54 Y133.039 E6.26961
G1 X158.198 Y133.131 E6.28138
G1 X158.004 Y133.18 E6.28804
G1 X157.524 Y133.29 E6.30442
G1 X157.305 Y133.335 E6.31185
G1 X156.716 Y133.439 E6.33175
G1 X156.229 Y133.509 E6.34811
G1 X155.956 Y133.543 E6.35726
G1 X155.569 Y133.584 E6.37021
G1 X154.996 Y133.624 E6.38931
G1 X154.654 Y133.639 E6.4007
G1 X154.089 Y133.65 E6.41949
G1 X153.956 Y133.649 E6.42392
G1 X153.583 Y133.64 E6.43633
G1 X152.215 Y133.582 E6.48187
G1 X151.443 Y133.539 E6.50758
G1 X148.921 Y133.468 E6.5915
G1 X146.397 Y133.47 E6.67545
G1 X143.909 Y133.541 E6.75823
G1 X141.403 Y133.684 E6.84172
G1 X138.854 Y133.903 E6.92681
G1 X136.372 Y134.186 E7.0099
G1 X133.894 Y134.54 E7.09315
G1 X131.41 Y134.966 E7.17698
G1 X128.962 Y135.458 E7.26002
G1 X126.495 Y136.028 E7.34424
G1 X124.041 Y136.668 E7.42859
G1 X121.598 Y137.378 E7.51321
G1 X121.186 Y137.509 E7.52759
G1 X120.28 Y137.754 E7.5588
G1 X119.358 Y137.92 E7.58996
G1 X118.424 Y138.008 E7.62116
G1 X117.835 Y138.022 E7.64076
G1 X117.096 Y138.02 E7.66534
G1 X116.159 Y137.977 E7.69654
G1 X115.291 Y137.866 E7.72564
G1 X114.47 Y137.726 E7.75334
G1 X113.217 Y137.494 E7.79572
G1 X110.711 Y137.103 E7.88008
G1 X108.23 Y136.788 E7.96326
G1 X105.718 Y136.541 E8.04722
G1 X103.24 Y136.368 E8.12983
G1 X100.684 Y136.262 E8.21492
G1 X98.192 Y136.228 E8.29781
G1 X95.664 Y136.267 E8.3819
G1 X93.146 Y136.375 E8.46573
G1 X90.63 Y136.556 E8.54963
G1 X88.156 Y136.804 E8.63233
G1 X85.68 Y137.123 E8.71536
G1 X81.802 Y137.762 E8.84608
G1 X79.26 Y138.242 E8.93212
G1 X76.11 Y138.894 E9.03911
G1 X72.478 Y139.708 E9.16291
G1 X71.648 Y139.892 E9.19119
G1 X68.84 Y140.499 E9.28674
G1 X67.974 Y140.679 E9.31616
G1 X67.168 Y140.841 E9.3435
G1 X66.794 Y140.913 E9.35617
G1 X66.251 Y141.021 E9.37458
G1 X65.14 Y141.226 E9.41216
G1 X64.285 Y141.372 E9.44101
G1 X63.445 Y141.506 E9.4693
G1 X62.626 Y141.629 E9.49685
G1 X61.822 Y141.742 E9.52385
G1 X61.16 Y141.83 E9.54606
G1 X60.22 Y141.951 E9.57758
G1 X59.194 Y142.076 E9.61196
G1 X58.259 Y142.187 E9.64328
G1 X56.405 Y142.4 E9.70535
G1 X54.896 Y142.568 E9.75585
G1 X54.182 Y142.638 E9.77971
G1 X53.246 Y142.689 E9.81089
G1 X52.308 Y142.661 E9.8421
G1 X51.377 Y142.553 E9.87327
G1 X50.458 Y142.366 E9.90446
G1 X49.558 Y142.101 E9.93567
G1 X48.684 Y141.761 E9.96686
G1 X47.842 Y141.347 E9.99807
G1 X47.039 Y140.863 E10.02925
G1 X46.279 Y140.313 E10.06045
G1 X45.57 Y139.7 E10.09163
G1 X44.915 Y139.029 E10.12281
G1 X44.319 Y138.304 E10.15403
G1 X43.788 Y137.531 E10.18522
G1 X43.324 Y136.716 E10.21641
G1 X42.932 Y135.864 E10.24761
G1 X42.613 Y134.982 E10.2788
G1 X42.371 Y134.076 E10.30999
G1 X42.207 Y133.153 E10.34117
G1 X42.122 Y132.219 E10.37237
G1 X42.117 Y131.281 E10.40356
G1 X42.149 Y130.749 E10.42129
G1 X42.248 Y129.613 E10.45922
G1 X42.328 Y128.814 E10.48593
G1 X42.511 Y126.257 E10.57119
G1 X42.596 Y124.472 E10.63063
G1 X42.644 Y123.205 E10.6728
G1 X42.719 Y122.27 E10.70399
G1 X42.873 Y121.345 E10.73518
G1 X43.106 Y120.436 E10.76639
G1 X43.415 Y119.551 E10.79757
G1 X43.799 Y118.695 E10.82878
G1 X44.254 Y117.875 E10.85997
G1 X44.906 Y116.925 E10.89829
G1 X45.103 Y116.668 E10.90906
G1 X45.356 Y116.35 E10.92258
G1 X45.961 Y115.674 E10.95275
G1 X46.421 Y115.201 E10.97469
G1 X46.835 Y114.798 E10.99391
G1 X47.158 Y114.499 E11.00855
G1 X47.489 Y114.204 E11.0233
G1 X48.049 Y113.726 E11.04779
G1 X48.29 Y113.526 E11.0582
G1 X48.777 Y113.135 E11.07897
G1 X49.359 Y112.682 E11.1035
G1 X50.163 Y112.078 E11.13695
G1 X50.689 Y111.691 E11.15867
G1 X51.416 Y111.168 E11.18846
G1 X52.556 Y110.366 E11.23482
G1 X53.811 Y109.503 E11.28547
G1 X54.719 Y108.889 E11.32193
G1 X55.241 Y108.539 E11.34283
G1 X56.315 Y107.826 E11.38571
G1 X57.378 Y107.127 E11.42803
G1 X59.104 Y106 E11.49659
G1 X60.547 Y105.069 E11.5537
G1 X63.366 Y103.264 E11.66504
G1 X64.712 Y102.408 E11.71809
G0 F6000 X64.926 Y102.746
G1 F1200 X69.225 Y100.027 E11.88728
G1 X79.147 Y93.773 E12.27737
G1 X82.204 Y91.844 E12.39759
G1 X84.127 Y90.637 E12.47311
G1 X84.886 Y90.164 E12.50285
G1 X85.738 Y89.638 E12.53616
G1 X86.551 Y89.142 E12.56783
G1 X87.523 Y88.558 E12.60555
G1 X88.371 Y88.058 E12.63829
G1 X89.236 Y87.559 E12.6715
G1 X90.06 Y87.093 E12.70299
G1 X90.877 Y86.64 E12.73406
G1 X91.773 Y86.154 E12.76796
G1 X92.637 Y85.695 E12.8005
G1 X94.918 Y84.451 E12.88692
G1 X97.107 Y83.175 E12.97119
G1 X99.27 Y81.831 E13.05589
G1 X101.36 Y80.45 E13.13921
G1 X101.669 Y80.236 E13.15171
G1 X102.406 Y79.739 E13.18128
G1 X103.191 Y79.257 E13.21191
G1 X104.015 Y78.846 E13.24254
G1 X104.722 Y78.561 E13.26789
G1 X105.6 Y78.284 E13.29851
G1 X106.859 Y78.028 E13.34125
G1 X107.047 Y78.001 E13.34756
G1 X109.683 Y77.589 E13.4363
G1 X112.141 Y77.133 E13.51945
G1 X114.661 Y76.592 E13.60518
G1 X117.043 Y76.009 E13.68674
G1 X119.516 Y75.329 E13.77204
G1 X121.932 Y74.591 E13.85607
G1 X124.355 Y73.775 E13.9411
G1 X126.706 Y72.908 E14.02445
G1 X129.035 Y71.974 E14.1079
G1 X131.4 Y70.947 E14.19366
G1 X133.66 Y69.889 E14.27666
G1 X135.921 Y68.751 E14.36085
G1 X138.147 Y67.55 E14.44497
G1 X139.834 Y66.573 E14.50981
G1 X140.353 Y66.269 E14.52982
G1 X140.817 Y66.006 E14.54756
G1 X141.637 Y65.588 E14.57817
G1 X142.49 Y65.242 E14.60879
G1 X143.37 Y64.971 E14.63941
G1 X143.991 Y64.829 E14.6606
G1 X144.224 Y64.783 E14.6685
G1 X145.134 Y64.644 E14.69912
G1 X146.053 Y64.584 E14.72975
G1 X147.371 Y64.639 E14.77362
G1 X147.967 Y64.702 E14.79356
G1 X149.068 Y64.838 E14.83045
G1 X152.684 Y65.164 E14.95121
G1 X153.2 Y65.201 E14.96842
G1 X153.748 Y65.254 E14.98673
G1 X154.177 Y65.307 E15.00111
G1 X154.668 Y65.379 E15.01761
G1 X154.948 Y65.427 E15.02706
G1 X155.269 Y65.487 E15.03792
G1 X155.588 Y65.553 E15.04876
G1 X155.869 Y65.614 E15.05832
G1 X156.191 Y65.689 E15.06932
G1 X156.367 Y65.733 E15.07535
G1 X156.627 Y65.802 E15.0843
G1 X156.959 Y65.894 E15.09576
G1 X157.443 Y66.041 E15.11258
G1 X157.856 Y66.177 E15.12704
G1 X158.29 Y66.33 E15.14235
G1 X158.647 Y66.465 E15.15504
G1 X159.018 Y66.614 E15.16834
G1 X159.274 Y66.722 E15.17758
G1 X159.861 Y66.991 E15.19906
G1 X160.434 Y67.275 E15.22033
G1 X160.794 Y67.462 E15.23382
G1 X161.246 Y67.708 E15.25094
G1 X161.636 Y67.931 E15.26588
G1 X161.994 Y68.146 E15.27977
G1 X162.284 Y68.326 E15.29112
G1 X162.563 Y68.506 E15.30216
G1 X162.913 Y68.742 E15.3162
G1 X163.297 Y69.012 E15.33182
G1 X163.574 Y69.214 E15.34322
G1 X163.954 Y69.5 E15.35904
G1 X164.235 Y69.719 E15.37089
G1 X164.504 Y69.936 E15.38238
G1 X164.785 Y70.17 E15.39454
G1 X165.104 Y70.446 E15.40857
G1 X165.503 Y70.806 E15.42645
G1 X165.827 Y71.113 E15.44129
G1 X166.211 Y71.494 E15.45929
G1 X166.369 Y71.654 E15.46676
G1 X166.824 Y72.125 E15.48855
G1 X167.071 Y72.39 E15.50059
G1 X167.2 Y72.533 E15.507
G1 X167.427 Y72.793 E15.51848
G1 X167.65 Y73.057 E15.52997
G1 X167.878 Y73.337 E15.54198
G1 X168.283 Y73.851 E15.56375
G1 X168.504 Y74.141 E15.57588
G1 X168.759 Y74.498 E15.59047
G1 X169.049 Y74.922 E15.60755
G1 X169.251 Y75.227 E15.61972
G1 X169.73 Y75.982 E15.64946
G1 X170.008 Y76.447 E15.66748
G1 X170.108 Y76.624 E15.67424
G1 X170.308 Y76.996 E15.68829
G1 X170.517 Y77.403 E15.7035
G1 X170.769 Y77.927 E15.72284
G1 X171.054 Y78.566 E15.74611
G1 X171.208 Y78.931 E15.75929
G1 X171.335 Y79.247 E15.77062
G1 X171.467 Y79.591 E15.78287
G1 X171.601 Y79.961 E15.79596
G1 X171.73 Y80.34 E15.80928
G1 X171.865 Y80.762 E15.82401
G1 X171.991 Y81.186 E15.83873
G1 X172.106 Y81.605 E15.85318
G1 X172.209 Y82.01 E15.86708
G1 X172.322 Y82.496 E15.88367
G1 X172.397 Y82.85 E15.89571
G1 X172.496 Y83.353 E15.91276
G1 X172.562 Y83.719 E15.92513
G1 X172.719 Y84.694 E15.95797
G1 X173.16 Y87.211 E16.04297
G1 X173.672 Y89.713 E16.12791
G1 X174.242 Y92.149 E16.21112
G1 X174.894 Y94.619 E16.29608
G1 X175.604 Y97.024 E16.37949
G1 X176.392 Y99.443 E16.4641
G1 X177.25 Y101.844 E16.54891
G1 X178.145 Y104.142 E16.63093
G1 X178.934 Y105.98 E16.69746
G1 X179.477 Y107.268 E16.74395
G1 X179.798 Y108.131 E16.77457
G1 X180.042 Y109.019 E16.8052
G1 X180.209 Y109.924 E16.83581
G1 X180.296 Y110.841 E16.86645
G1 X180.303 Y111.762 E16.89708
G1 X180.231 Y112.679 E16.92768
G1 X180.079 Y113.587 E16.9583
G1 X179.849 Y114.479 E16.98893
G1 X179.542 Y115.347 E17.01956
G1 X179.161 Y116.185 E17.05017
G1 X178.709 Y116.987 E17.08079
G1 X178.189 Y117.747 E17.11142
G1 X177.605 Y118.459 E17.14205
G1 X176.962 Y119.117 E17.17265
G1 X176.045 Y119.885 E17.21243
G1 X174.655 Y120.919 E17.27005
G1 X172.624 Y122.486 E17.35537
G1 X170.691 Y124.067 E17.43843
G1 X168.766 Y125.734 E17.52313
G1 X166.908 Y127.436 E17.60693
G1 X166.328 Y127.998 E17.63379
G1 X165.559 Y128.733 E17.66917
G1 X164.866 Y129.339 E17.69979
G1 X164.459 Y129.65 E17.71683
G1 X164.113 Y129.901 E17.73105
G1 X163.502 Y130.313 E17.75556
G1 X162.834 Y130.73 E17.78175
G1 X162.484 Y130.939 E17.79531
G1 X162.206 Y131.098 E17.80596
G1 X161.311 Y131.555 E17.83938
G1 X160.515 Y131.915 E17.86844
G1 X160.01 Y132.128 E17.88667
G1 X159.57 Y132.292 E17.90229
G1 X159.335 Y132.374 E17.91057
G1 X158.873 Y132.524 E17.92672
G1 X158.429 Y132.654 E17.94211
G1 X158.1 Y132.743 E17.95344
G1 X157.906 Y132.792 E17.9601
G1 X157.444 Y132.898 E17.97587
G1 X157.225 Y132.943 E17.9833
G1 X156.656 Y133.044 E18.00252
G1 X156.435 Y133.077 E18.00995
G1 X156.18 Y133.112 E18.01852
G1 X155.907 Y133.146 E18.02767
G1 X155.531 Y133.186 E18.04024
G1 X154.978 Y133.225 E18.05868
G1 X154.636 Y133.24 E18.07007
G1 X154.092 Y133.25 E18.08816
G1 X153.959 Y133.249 E18.09259
G1 X153.6 Y133.24 E18.10453
G1 X152.237 Y133.182 E18.14991
G1 X151.476 Y133.139 E18.17526
G1 X148.932 Y133.068 E18.2599
G1 X146.421 Y133.07 E18.34342
G1 X143.874 Y133.143 E18.42817
G1 X141.347 Y133.287 E18.51235
G1 X138.843 Y133.502 E18.59594
G1 X136.306 Y133.791 E18.68087
G1 X133.841 Y134.143 E18.76369
G1 X131.335 Y134.574 E18.84826
G1 X128.865 Y135.069 E18.93205
G1 X126.409 Y135.637 E19.01589
G1 X123.909 Y136.289 E19.10182
G1 X121.481 Y136.995 E19.18592
G1 X121.065 Y137.127 E19.20044
G1 X120.176 Y137.367 E19.23106
G1 X119.27 Y137.529 E19.26168
G1 X118.353 Y137.611 E19.2923
G1 X117.836 Y137.622 E19.3095
G1 X117.097 Y137.62 E19.33408
G1 X116.178 Y137.577 E19.36468
G1 X115.358 Y137.471 E19.39218
G1 X114.543 Y137.332 E19.41967
G1 X113.285 Y137.099 E19.46223
G1 X110.782 Y136.709 E19.54648
G1 X108.287 Y136.392 E19.63013
G1 X105.749 Y136.142 E19.71496
G1 X103.251 Y135.967 E19.79824
G1 X100.705 Y135.862 E19.883
G1 X98.192 Y135.828 E19.96659
G1 X95.641 Y135.867 E20.05144
G1 X93.134 Y135.975 E20.1349
G1 X90.597 Y136.157 E20.2195
