;FLAVOR:Marlin
;TIME:8647
;Filament used: 5.89249m
;Layer height: 0.2
;MINX:77.9
;MINY:55.899
;MINZ:0.2
;MAXX:157.101
;MAXY:179.1
;MAXZ:12.6
;Generated with Cura_SteamEngine 4.13.0
M140 S60
M105
M190 S60
M104 S200
M105
M109 S200
M82 ;absolute extrusion mode
; Ender 3 Custom Start G-code
G92 E0 ; Reset Extruder
G28 ; Home all axes
G1 Z2.0 F3000 ; Move Z Axis up little to prevent scratching of Heat Bed
G1 X0.1 Y20 Z0.3 F5000.0 ; Move to start position
G1 X0.1 Y200.0 Z0.3 F1500.0 E15 ; Draw the first line
G1 X0.4 Y200.0 Z0.3 F5000.0 ; Move to side a little
G1 X0.4 Y20 Z0.3 F1500.0 E30 ; Draw the second line
G92 E0 ; Reset Extruder
G1 Z2.0 F3000 ; Move Z Axis up little to prevent scratching of Heat Bed
G1 X5 Y20 Z0.3 F5000.0 ; Move over to prevent blob squish
G92 E0
G92 E0
G1 F1500 E-6.5
;LAYER_COUNT:63
;LAYER:0
M107
G0 F6000 X81.549 Y62.795 Z0.2
;TYPE:SKIRT
G1 F1500 E0
G1 F1200 X81.766 Y62.518 E0.0117
G1 X82.221 Y61.974 E0.03529
G1 X82.522 Y61.637 E0.05032
G1 X82.987 Y61.147 E0.07279
G1 X83.284 Y60.853 E0.08669
G1 X83.855 Y60.327 E0.11251
G1 X84.238 Y59.998 E0.1293
G1 X84.845 Y59.513 E0.15514
G1 X85.207 Y59.244 E0.17014
G1 X85.763 Y58.857 E0.19268
G1 X86.073 Y58.655 E0.20498
G1 X86.686 Y58.283 E0.22883
G1 X87.031 Y58.089 E0.242
G1 X87.674 Y57.755 E0.2661
G1 X88.188 Y57.509 E0.28505
G1 X88.852 Y57.218 E0.30916
G1 X89.087 Y57.124 E0.31758
G1 X89.728 Y56.89 E0.34027
G1 X90.183 Y56.74 E0.35621
G1 X90.902 Y56.53 E0.38112
G1 X91.426 Y56.396 E0.39911
G1 X92.104 Y56.245 E0.42221
G1 X92.405 Y56.188 E0.4324
G1 X93.108 Y56.078 E0.45607
G1 X93.506 Y56.029 E0.46941
G1 X94.225 Y55.965 E0.49342
G1 X94.682 Y55.939 E0.50864
G1 X95.1 Y55.923 E0.52255
G1 X96.161 Y55.903 E0.55785
G1 X96.367 Y55.901 E0.5647
G1 X132.858 Y55.899 E1.7784
G1 X136.628 Y55.903 E1.90379
G1 X137.303 Y55.911 E1.92624
G1 X137.613 Y55.919 E1.93655
G1 X137.838 Y55.928 E1.94404
G1 X138.151 Y55.945 E1.95447
G1 X138.588 Y55.975 E1.96904
G1 X138.91 Y56.002 E1.97978
G1 X139.185 Y56.029 E1.98898
G1 X139.597 Y56.077 E2.00277
G1 X139.893 Y56.118 E2.01271
G1 X140.144 Y56.157 E2.02116
G1 X140.445 Y56.208 E2.03131
G1 X140.793 Y56.272 E2.04308
G1 X141.331 Y56.382 E2.06135
G1 X141.731 Y56.473 E2.07499
G1 X142.075 Y56.561 E2.0868
G1 X142.333 Y56.631 E2.09569
G1 X142.624 Y56.714 E2.10576
G1 X142.923 Y56.804 E2.11614
G1 X143.22 Y56.898 E2.1265
G1 X143.533 Y57.002 E2.13747
G1 X143.938 Y57.145 E2.15176
G1 X144.237 Y57.258 E2.16239
G1 X144.457 Y57.345 E2.17026
G1 X144.72 Y57.453 E2.17971
G1 X145.009 Y57.576 E2.19016
G1 X145.339 Y57.723 E2.20218
G1 X145.796 Y57.938 E2.21897
G1 X145.973 Y58.025 E2.22553
G1 X146.281 Y58.182 E2.23703
G1 X146.618 Y58.361 E2.24972
G1 X147.089 Y58.626 E2.2677
G1 X147.381 Y58.8 E2.279
G1 X147.672 Y58.98 E2.29038
G1 X147.996 Y59.187 E2.30317
G1 X148.279 Y59.374 E2.31445
G1 X148.421 Y59.471 E2.32017
G1 X148.696 Y59.665 E2.33137
G1 X148.899 Y59.813 E2.33972
G1 X149.136 Y59.991 E2.34958
G1 X149.433 Y60.22 E2.36205
G1 X149.829 Y60.54 E2.37899
G1 X150.085 Y60.757 E2.39015
G1 X150.38 Y61.016 E2.40321
G1 X150.672 Y61.282 E2.41635
G1 X150.899 Y61.496 E2.42672
G1 X151.067 Y61.658 E2.43448
G1 X151.364 Y61.955 E2.44845
G1 X151.584 Y62.184 E2.45902
G1 X151.944 Y62.578 E2.47677
G1 X152.324 Y63.014 E2.496
G1 X152.57 Y63.306 E2.5087
G1 X152.756 Y63.535 E2.51851
G1 X153.091 Y63.969 E2.53675
G1 X153.25 Y64.186 E2.5457
G1 X153.443 Y64.458 E2.55679
G1 X153.773 Y64.942 E2.57627
G1 X153.879 Y65.104 E2.58271
G1 X154.071 Y65.409 E2.5947
G1 X154.228 Y65.667 E2.60474
G1 X154.382 Y65.927 E2.61479
G1 X154.574 Y66.263 E2.62767
G1 X154.847 Y66.772 E2.64688
G1 X154.982 Y67.04 E2.65686
G1 X155.115 Y67.313 E2.66696
G1 X155.254 Y67.609 E2.67783
G1 X155.393 Y67.917 E2.68907
G1 X155.499 Y68.162 E2.69795
G1 X155.662 Y68.558 E2.7122
G1 X155.77 Y68.837 E2.72215
G1 X155.88 Y69.133 E2.73265
G1 X155.982 Y69.42 E2.74278
G1 X156.062 Y69.655 E2.75104
G1 X156.166 Y69.975 E2.76223
G1 X156.235 Y70.2 E2.77005
G1 X156.387 Y70.735 E2.78855
G1 X156.479 Y71.084 E2.80056
G1 X156.573 Y71.47 E2.81377
G1 X156.683 Y71.974 E2.83093
G1 X156.738 Y72.257 E2.84052
G1 X156.8 Y72.608 E2.85237
G1 X156.866 Y73.018 E2.86618
G1 X156.918 Y73.38 E2.87835
G1 X156.98 Y73.886 E2.8953
G1 X157.014 Y74.254 E2.9076
G1 X157.033 Y74.499 E2.91577
G1 X157.054 Y74.831 E2.92683
G1 X157.071 Y75.191 E2.93882
G1 X157.082 Y75.535 E2.95027
G1 X157.098 Y76.538 E2.98363
G1 X157.101 Y158.622 E5.71376
G1 X157.098 Y167.279 E6.00169
G1 X157.091 Y167.798 E6.01895
G1 X157.079 Y168.181 E6.0317
G1 X157.069 Y168.388 E6.03859
G1 X156.984 Y169.322 E6.06978
G1 X156.82 Y170.245 E6.10096
G1 X156.577 Y171.151 E6.13216
G1 X156.258 Y172.033 E6.16336
G1 X155.866 Y172.885 E6.19455
G1 X155.205 Y174.003 E6.23775
G1 X155.077 Y174.193 E6.24537
G1 X154.52 Y174.948 E6.27657
G1 X153.901 Y175.652 E6.30775
G1 X153.225 Y176.302 E6.33895
G1 X152.495 Y176.891 E6.37014
G1 X151.718 Y177.416 E6.40133
G1 X150.899 Y177.873 E6.43253
G1 X150.044 Y178.258 E6.46371
G1 X149.159 Y178.57 E6.49492
G1 X148.592 Y178.726 E6.51448
G1 X148.426 Y178.767 E6.52017
G1 X147.506 Y178.953 E6.55139
G1 X146.575 Y179.06 E6.58256
G1 X145.955 Y179.087 E6.6032
G1 X144.999 Y179.1 E6.635
G1 X89.757 Y179.099 E8.47235
G1 X89.17 Y179.091 E8.49188
G1 X87.986 Y179.011 E8.53135
G1 X87.765 Y178.984 E8.53876
G1 X86.84 Y178.83 E8.56994
G1 X85.931 Y178.599 E8.60114
G1 X85.045 Y178.291 E8.63234
G1 X84.189 Y177.908 E8.66353
G1 X83.368 Y177.454 E8.69473
G1 X82.589 Y176.932 E8.72592
G1 X81.823 Y176.315 E8.75863
G1 X81.662 Y176.173 E8.76577
G1 X80.986 Y175.523 E8.79697
G1 X80.367 Y174.818 E8.82817
G1 X79.811 Y174.063 E8.85936
G1 X79.321 Y173.263 E8.89056
G1 X78.901 Y172.424 E8.92176
G1 X78.554 Y171.553 E8.95295
G1 X78.283 Y170.655 E8.98415
G1 X78.145 Y170.049 E9.00482
G1 X78.119 Y169.917 E9.00929
G1 X77.978 Y168.99 E9.04048
G1 X77.913 Y167.954 E9.07501
G1 X77.9 Y166.983 E9.1073
G1 X77.901 Y74.059 E12.19797
G1 X77.915 Y73.149 E12.22824
G1 X77.948 Y72.451 E12.25148
G1 X77.997 Y71.831 E12.27217
G1 X78.076 Y71.128 E12.29569
G1 X78.123 Y70.802 E12.30665
G1 X78.243 Y70.12 E12.32968
G1 X78.33 Y69.704 E12.34382
G1 X78.512 Y68.962 E12.36923
G1 X78.652 Y68.467 E12.38634
G1 X78.861 Y67.808 E12.40933
G1 X78.974 Y67.487 E12.42065
G1 X79.233 Y66.823 E12.44436
G1 X79.399 Y66.434 E12.45842
G1 X79.69 Y65.807 E12.48141
G1 X79.931 Y65.328 E12.49925
G1 X80.298 Y64.658 E12.52466
G1 X80.444 Y64.412 E12.53417
G1 X80.817 Y63.826 E12.55727
G1 X81.122 Y63.379 E12.57527
G1 X81.549 Y62.795 E12.59934
G0 F6000 X81.864 Y63.042
G1 F1200 X82.081 Y62.765 E12.61104
G1 X82.519 Y62.241 E12.63375
G1 X82.82 Y61.904 E12.64878
G1 X83.269 Y61.432 E12.67045
G1 X83.566 Y61.138 E12.68435
G1 X84.116 Y60.63 E12.70925
G1 X84.499 Y60.301 E12.72604
G1 X85.084 Y59.834 E12.75094
G1 X85.446 Y59.565 E12.76594
G1 X85.981 Y59.192 E12.78763
G1 X86.291 Y58.99 E12.79994
G1 X86.883 Y58.632 E12.82295
G1 X87.228 Y58.438 E12.83611
G1 X87.847 Y58.116 E12.85932
G1 X88.361 Y57.87 E12.87827
G1 X89 Y57.589 E12.90149
G1 X89.235 Y57.495 E12.90991
G1 X89.853 Y57.27 E12.93179
G1 X90.308 Y57.12 E12.94772
G1 X91.001 Y56.917 E12.97174
G1 X91.525 Y56.783 E12.98973
G1 X92.179 Y56.638 E13.01201
G1 X92.48 Y56.581 E13.0222
G1 X93.157 Y56.475 E13.04499
G1 X93.555 Y56.426 E13.05833
G1 X94.248 Y56.364 E13.08147
G1 X94.705 Y56.338 E13.09669
G1 X95.107 Y56.323 E13.11007
G1 X96.168 Y56.303 E13.14537
G1 X96.367 Y56.301 E13.15199
G1 X132.858 Y56.299 E14.36568
G1 X136.624 Y56.303 E14.49094
G1 X137.299 Y56.311 E14.51339
G1 X137.597 Y56.318 E14.5233
G1 X137.822 Y56.327 E14.53079
G1 X138.124 Y56.344 E14.54085
G1 X138.561 Y56.374 E14.55542
G1 X138.871 Y56.4 E14.56577
G1 X139.146 Y56.427 E14.57496
G1 X139.546 Y56.473 E14.58835
G1 X139.831 Y56.514 E14.59793
G1 X140.082 Y56.553 E14.60638
G1 X140.372 Y56.602 E14.61616
G1 X140.72 Y56.666 E14.62793
G1 X140.966 Y56.714 E14.63627
G1 X141.249 Y56.773 E14.64588
G1 X141.635 Y56.861 E14.65905
G1 X141.971 Y56.947 E14.67058
G1 X142.229 Y57.017 E14.67947
G1 X142.508 Y57.097 E14.68913
G1 X142.807 Y57.187 E14.69951
G1 X143.094 Y57.278 E14.70953
G1 X143.407 Y57.382 E14.7205
G1 X143.802 Y57.521 E14.73443
G1 X144.09 Y57.63 E14.74467
G1 X144.31 Y57.717 E14.75254
G1 X144.563 Y57.821 E14.76163
G1 X144.852 Y57.944 E14.77208
G1 X145.171 Y58.085 E14.78368
G1 X145.414 Y58.198 E14.79259
G1 X145.797 Y58.384 E14.80676
G1 X146.093 Y58.536 E14.81782
G1 X146.43 Y58.715 E14.83051
G1 X146.884 Y58.97 E14.84783
G1 X147.176 Y59.144 E14.85914
G1 X147.457 Y59.317 E14.87011
G1 X147.781 Y59.524 E14.8829
G1 X148.053 Y59.704 E14.89375
G1 X148.195 Y59.801 E14.89947
G1 X148.461 Y59.989 E14.9103
G1 X148.664 Y60.137 E14.91866
G1 X148.891 Y60.308 E14.92811
G1 X149.188 Y60.537 E14.94059
G1 X149.57 Y60.845 E14.95691
G1 X149.826 Y61.062 E14.96807
G1 X150.11 Y61.312 E14.98065
G1 X150.402 Y61.578 E14.99379
G1 X150.622 Y61.784 E15.00381
G1 X150.79 Y61.946 E15.01158
G1 X151.076 Y62.232 E15.02503
G1 X151.296 Y62.461 E15.03559
G1 X151.643 Y62.84 E15.05268
G1 X152.023 Y63.276 E15.07192
G1 X152.26 Y63.558 E15.08417
G1 X152.446 Y63.787 E15.09398
G1 X152.768 Y64.205 E15.11153
G1 X152.927 Y64.422 E15.12048
G1 X153.114 Y64.684 E15.13119
G1 X153.305 Y64.962 E15.1424
G1 X153.544 Y65.323 E15.1568
G1 X153.729 Y65.617 E15.16836
G1 X153.886 Y65.875 E15.1784
G1 X154.034 Y66.126 E15.18809
G1 X154.226 Y66.462 E15.20097
G1 X154.49 Y66.952 E15.21948
G1 X154.625 Y67.22 E15.22946
G1 X154.753 Y67.483 E15.23919
G1 X154.892 Y67.779 E15.25006
G1 X155.026 Y68.076 E15.2609
G1 X155.132 Y68.321 E15.26978
G1 X155.291 Y68.708 E15.2837
G1 X155.395 Y68.977 E15.29329
G1 X155.505 Y69.273 E15.30379
G1 X155.603 Y69.549 E15.31353
G1 X155.683 Y69.784 E15.32179
G1 X155.783 Y70.092 E15.33256
G1 X155.852 Y70.317 E15.34039
G1 X155.929 Y70.58 E15.3495
G1 X156.002 Y70.842 E15.35855
G1 X156.09 Y71.179 E15.37013
G1 X156.184 Y71.565 E15.38335
G1 X156.29 Y72.051 E15.39989
G1 X156.345 Y72.334 E15.40948
G1 X156.405 Y72.671 E15.42086
G1 X156.471 Y73.081 E15.43468
G1 X156.522 Y73.431 E15.44644
G1 X156.554 Y73.683 E15.45489
G1 X156.591 Y74.014 E15.46597
G1 X156.634 Y74.53 E15.48319
G1 X156.654 Y74.85 E15.49385
G1 X156.671 Y75.21 E15.50584
G1 X156.682 Y75.541 E15.51685
G1 X156.698 Y76.544 E15.55022
G1 X156.701 Y158.621 E18.28011
G1 X156.698 Y167.274 E18.56791
G1 X156.691 Y167.793 E18.58517
G1 X156.68 Y168.161 E18.59742
G1 X156.67 Y168.368 E18.60431
G1 X156.585 Y169.285 E18.63494
G1 X156.422 Y170.191 E18.66556
G1 X156.18 Y171.08 E18.6962
G1 X155.863 Y171.944 E18.72681
G1 X155.471 Y172.777 E18.75743
G1 X154.873 Y173.779 E18.79624
G1 X154.745 Y173.969 E18.80386
G1 X154.198 Y174.71 E18.8345
G1 X153.589 Y175.4 E18.86511
G1 X152.922 Y176.035 E18.89574
G1 X152.203 Y176.609 E18.92634
G1 X151.436 Y177.119 E18.95697
G1 X150.628 Y177.561 E18.98761
G1 X149.785 Y177.931 E19.01823
G1 X148.496 Y178.338 E19.06318
G1 X148.33 Y178.379 E19.06887
G1 X147.427 Y178.56 E19.0995
G1 X146.512 Y178.663 E19.13013
G1 X145.949 Y178.687 E19.14887
G1 X144.999 Y178.7 E19.18047
G1 X89.763 Y178.699 E21.01763
G1 X89.176 Y178.691 E21.03715
G1 X88.035 Y178.614 E21.07519
G1 X87.814 Y178.587 E21.08259
G1 X86.905 Y178.436 E21.11324
G1 X86.014 Y178.206 E21.14385
G1 X85.145 Y177.9 E21.17449
G1 X84.307 Y177.52 E21.20509
G1 X83.505 Y177.068 E21.23571
G1 X82.744 Y176.549 E21.26635
G1 X82.087 Y176.015 E21.29451
G1 X81.926 Y175.873 E21.30165
G1 X81.263 Y175.234 E21.33228
G1 X80.658 Y174.541 E21.36287
G1 X80.115 Y173.797 E21.39351
G1 X79.638 Y173.01 E21.42412
G1 X79.232 Y172.183 E21.45476
G1 X78.899 Y171.325 E21.48537
G1 X78.641 Y170.441 E21.516
G1 X78.538 Y169.972 E21.53197
G1 X78.512 Y169.84 E21.53644
G1 X78.373 Y168.929 E21.56709
G1 X78.313 Y167.948 E21.59978
G1 X78.3 Y166.983 E21.63188
G1 X78.301 Y74.065 E24.72235
G1 X78.315 Y73.155 E24.75262
G1 X78.347 Y72.483 E24.77499
G1 X78.396 Y71.863 E24.79568
G1 X78.471 Y71.185 E24.81837
G1 X78.518 Y70.859 E24.82932
G1 X78.634 Y70.202 E24.85151
G1 X78.721 Y69.786 E24.86565
G1 X78.897 Y69.071 E24.89014
G1 X79.037 Y68.576 E24.90725
G1 X79.238 Y67.941 E24.9294
G1 X79.351 Y67.62 E24.94072
G1 X79.601 Y66.98 E24.96357
G1 X79.767 Y66.591 E24.97764
G1 X80.047 Y65.987 E24.99978
G1 X80.288 Y65.508 E25.01762
G1 X80.642 Y64.862 E25.04212
G1 X80.788 Y64.616 E25.05163
G1 X81.147 Y64.052 E25.07387
G1 X81.452 Y63.605 E25.09187
G1 X81.864 Y63.042 E25.11507
G0 F6000 X82.179 Y63.289
G1 F1200 X82.396 Y63.012 E25.12677
G1 X82.818 Y62.507 E25.14866
G1 X83.119 Y62.17 E25.16369
G1 X83.55 Y61.716 E25.18451
G1 X83.847 Y61.422 E25.19841
G1 X84.377 Y60.934 E25.22237
G1 X84.76 Y60.605 E25.23917
G1 X85.322 Y60.155 E25.26311
G1 X85.684 Y59.886 E25.27811
G1 X86.199 Y59.527 E25.29899
G1 X86.509 Y59.325 E25.3113
G1 X87.079 Y58.98 E25.33346
G1 X87.424 Y58.786 E25.34663
G1 X88.02 Y58.476 E25.36897
G1 X88.534 Y58.23 E25.38792
G1 X89.149 Y57.961 E25.41025
G1 X89.384 Y57.867 E25.41867
G1 X89.978 Y57.65 E25.4397
G1 X90.433 Y57.5 E25.45564
G1 X91.1 Y57.305 E25.47875
G1 X91.624 Y57.171 E25.49674
G1 X92.253 Y57.031 E25.51817
G1 X92.554 Y56.974 E25.52836
G1 X93.206 Y56.872 E25.55031
G1 X93.604 Y56.823 E25.56365
G1 X94.271 Y56.763 E25.58592
G1 X94.728 Y56.737 E25.60114
G1 X95.115 Y56.723 E25.61403
G1 X96.367 Y56.701 E25.65567
G1 X132.857 Y56.699 E26.86934
G1 X136.619 Y56.703 E26.99446
G1 X137.294 Y56.711 E27.01691
G1 X137.581 Y56.718 E27.02646
G1 X137.806 Y56.727 E27.03395
G1 X138.097 Y56.743 E27.04364
G1 X138.534 Y56.773 E27.05821
G1 X138.832 Y56.798 E27.06816
G1 X139.107 Y56.825 E27.07735
G1 X139.496 Y56.87 E27.09037
G1 X139.77 Y56.909 E27.09958
G1 X140.021 Y56.948 E27.10803
G1 X140.3 Y56.995 E27.11744
G1 X140.648 Y57.059 E27.12921
G1 X141.168 Y57.165 E27.14686
G1 X141.538 Y57.249 E27.15948
G1 X141.866 Y57.333 E27.17074
G1 X142.124 Y57.403 E27.17963
G1 X142.393 Y57.48 E27.18894
G1 X142.692 Y57.57 E27.19932
G1 X142.968 Y57.657 E27.20895
G1 X143.281 Y57.761 E27.21992
G1 X143.666 Y57.897 E27.2335
G1 X143.943 Y58.002 E27.24335
G1 X144.163 Y58.089 E27.25122
G1 X144.406 Y58.189 E27.25996
G1 X144.695 Y58.312 E27.2704
G1 X145.002 Y58.448 E27.28157
G1 X145.245 Y58.561 E27.29049
G1 X145.62 Y58.743 E27.30435
G1 X145.906 Y58.889 E27.31503
G1 X146.243 Y59.068 E27.32772
G1 X146.679 Y59.314 E27.34437
G1 X146.971 Y59.488 E27.35568
G1 X147.242 Y59.654 E27.36625
G1 X147.566 Y59.861 E27.37904
G1 X147.969 Y60.132 E27.39519
G1 X148.225 Y60.312 E27.4056
G1 X148.428 Y60.46 E27.41395
G1 X148.647 Y60.624 E27.42305
G1 X148.944 Y60.853 E27.43553
G1 X149.311 Y61.15 E27.45123
G1 X149.567 Y61.367 E27.46239
G1 X149.841 Y61.608 E27.47453
G1 X150.133 Y61.874 E27.48767
G1 X150.344 Y62.072 E27.49729
G1 X150.512 Y62.234 E27.50505
G1 X150.788 Y62.51 E27.51803
G1 X151.008 Y62.739 E27.5286
G1 X151.341 Y63.103 E27.545
G1 X151.721 Y63.539 E27.56424
G1 X151.949 Y63.81 E27.57602
G1 X152.135 Y64.039 E27.58583
G1 X152.446 Y64.441 E27.60274
G1 X152.605 Y64.658 E27.61168
G1 X152.784 Y64.911 E27.62199
G1 X152.975 Y65.189 E27.63321
G1 X153.209 Y65.542 E27.6473
G1 X153.387 Y65.825 E27.65842
G1 X153.544 Y66.083 E27.66846
G1 X153.687 Y66.324 E27.67778
G1 X153.879 Y66.66 E27.69065
G1 X154.133 Y67.132 E27.70848
G1 X154.268 Y67.4 E27.71846
G1 X154.391 Y67.653 E27.72782
G1 X154.53 Y67.949 E27.73869
G1 X154.658 Y68.235 E27.74912
G1 X154.864 Y68.718 E27.76658
G1 X155.02 Y69.116 E27.7808
G1 X155.13 Y69.412 E27.7913
G1 X155.225 Y69.678 E27.8007
G1 X155.305 Y69.913 E27.80895
G1 X155.401 Y70.209 E27.8193
G1 X155.47 Y70.434 E27.82713
G1 X155.544 Y70.687 E27.8359
G1 X155.617 Y70.949 E27.84494
G1 X155.701 Y71.274 E27.85611
G1 X155.795 Y71.66 E27.86932
G1 X155.898 Y72.127 E27.88523
G1 X155.953 Y72.41 E27.89482
G1 X156.01 Y72.735 E27.90579
G1 X156.076 Y73.145 E27.9196
G1 X156.125 Y73.481 E27.9309
G1 X156.157 Y73.733 E27.93935
G1 X156.193 Y74.055 E27.95012
G1 X156.235 Y74.561 E27.96701
G1 X156.255 Y74.869 E27.97728
G1 X156.272 Y75.229 E27.98926
G1 X156.282 Y75.547 E27.99984
G1 X156.299 Y76.713 E28.03863
G1 X156.301 Y158.621 E30.7629
G1 X156.298 Y167.269 E31.05054
G1 X156.291 Y167.788 E31.0678
G1 X156.28 Y168.142 E31.07958
G1 X156.27 Y168.349 E31.08647
G1 X156.187 Y169.248 E31.1165
G1 X156.024 Y170.137 E31.14656
G1 X155.783 Y171.007 E31.17659
G1 X155.467 Y171.853 E31.20662
G1 X155.076 Y172.667 E31.23666
G1 X154.541 Y173.556 E31.27117
G1 X154.413 Y173.746 E31.27879
