;FLAVOR:Marlin
;TIME:4500
;Filament used: 3.22678m
;Layer height: 0.2
;MINX:78.3
;MINY:56.25
;MINZ:0.2
;MAXX:156.7
;MAXY:178.75
;MAXZ:5.6
;Generated with Cura_SteamEngine 4.13.0
M140 S60
M105
M190 S60
M104 S200
M105
M109 S200
M82 ;absolute extrusion mode
; Ender 3 Custom Start G-code
G92 E0 ; Reset Extruder
G28 ; Home all axes
G1 Z2.0 F3000 ; Move Z Axis up little to prevent scratching of Heat Bed
G1 X0.1 Y20 Z0.3 F5000.0 ; Move to start position
G1 X0.1 Y200.0 Z0.3 F1500.0 E15 ; Draw the first line
G1 X0.4 Y200.0 Z0.3 F5000.0 ; Move to side a little
G1 X0.4 Y20 Z0.3 F1500.0 E30 ; Draw the second line
G92 E0 ; Reset Extruder
G1 Z2.0 F3000 ; Move Z Axis up little to prevent scratching of Heat Bed
G1 X5 Y20 Z0.3 F5000.0 ; Move over to prevent blob squish
G92 E0
G92 E0
G1 F1500 E-6.5
;LAYER_COUNT:28
;LAYER:0
M107
G0 F6000 X80.874 Y72.535 Z0.2
;TYPE:SKIRT
G1 F1500 E0
G1 F1200 X81.506 Y71.842 E0.03119
G1 X82.195 Y71.205 E0.0624
G1 X82.935 Y70.63 E0.09357
G1 X83.722 Y70.119 E0.12478
G1 X84.21 Y69.848 E0.14335
G1 X85.085 Y69.39 E0.1762
G1 X87.398 Y68.138 E0.26368
G1 X89.565 Y66.885 E0.34693
G1 X91.714 Y65.56 E0.4309
G1 X93.829 Y64.173 E0.51502
G1 X95.878 Y62.743 E0.59813
G1 X97.88 Y61.261 E0.68098
G1 X100.275 Y59.371 E0.78245
G1 X101.049 Y58.739 E0.81568
G1 X101.801 Y58.178 E0.84689
G1 X102.597 Y57.682 E0.87808
G1 X103.432 Y57.256 E0.90926
G1 X104.301 Y56.903 E0.94046
G1 X105.197 Y56.625 E0.97166
G1 X106.113 Y56.425 E1.00284
G1 X107.043 Y56.303 E1.03404
G1 X107.588 Y56.269 E1.0522
G1 X107.825 Y56.26 E1.06009
G1 X108.141 Y56.252 E1.07061
G1 X108.358 Y56.25 E1.07782
G1 X136.282 Y56.25 E2.00658
G1 X137.412 Y56.265 E2.04417
G1 X137.721 Y56.274 E2.05445
G1 X137.933 Y56.283 E2.06151
G1 X138.266 Y56.302 E2.0726
G1 X138.554 Y56.323 E2.0822
G1 X138.852 Y56.349 E2.09215
G1 X139.131 Y56.377 E2.10148
G1 X139.43 Y56.411 E2.11149
G1 X139.884 Y56.473 E2.12673
G1 X140.174 Y56.518 E2.13649
G1 X140.61 Y56.593 E2.1512
G1 X140.944 Y56.659 E2.16253
G1 X141.236 Y56.721 E2.17246
G1 X141.565 Y56.796 E2.18368
G1 X141.798 Y56.853 E2.19166
G1 X142.106 Y56.933 E2.20224
G1 X142.302 Y56.987 E2.209
G1 X142.573 Y57.066 E2.21839
G1 X142.84 Y57.147 E2.22767
G1 X143.162 Y57.25 E2.23892
G1 X143.42 Y57.337 E2.24797
G1 X143.682 Y57.429 E2.25721
G1 X143.868 Y57.497 E2.26379
G1 X144.183 Y57.618 E2.27502
G1 X144.435 Y57.719 E2.28405
G1 X144.709 Y57.833 E2.29392
G1 X144.894 Y57.913 E2.30062
G1 X145.18 Y58.041 E2.31104
G1 X145.45 Y58.167 E2.32095
G1 X145.885 Y58.38 E2.33706
G1 X146.172 Y58.528 E2.3478
G1 X146.404 Y58.652 E2.35655
G1 X146.677 Y58.802 E2.36691
G1 X146.88 Y58.918 E2.37469
G1 X147.158 Y59.083 E2.38544
G1 X147.338 Y59.193 E2.39246
G1 X147.586 Y59.349 E2.4022
G1 X147.822 Y59.502 E2.41156
G1 X148.097 Y59.687 E2.42258
G1 X148.543 Y59.998 E2.44067
G1 X148.909 Y60.269 E2.45581
G1 X149.083 Y60.403 E2.46312
G1 X149.36 Y60.624 E2.4749
G1 X149.614 Y60.833 E2.48584
G1 X149.852 Y61.034 E2.4962
G1 X150.062 Y61.217 E2.50547
G1 X150.368 Y61.493 E2.51917
G1 X150.622 Y61.731 E2.53075
G1 X150.794 Y61.898 E2.53873
G1 X151.027 Y62.131 E2.54969
G1 X151.221 Y62.331 E2.55895
G1 X151.422 Y62.544 E2.56869
G1 X151.605 Y62.743 E2.57769
G1 X151.851 Y63.02 E2.59001
G1 X152.092 Y63.304 E2.6024
G1 X152.236 Y63.478 E2.60991
G1 X152.482 Y63.786 E2.62302
G1 X152.685 Y64.05 E2.63409
G1 X152.868 Y64.295 E2.64427
G1 X153.069 Y64.572 E2.65565
G1 X153.374 Y65.015 E2.67354
G1 X153.506 Y65.217 E2.68156
G1 X153.698 Y65.52 E2.69349
G1 X153.929 Y65.9 E2.70828
G1 X154.106 Y66.203 E2.71996
G1 X154.258 Y66.472 E2.73023
G1 X154.494 Y66.912 E2.74684
G1 X154.61 Y67.141 E2.75538
G1 X154.786 Y67.506 E2.76885
G1 X154.946 Y67.853 E2.78156
G1 X155.065 Y68.119 E2.79126
G1 X155.144 Y68.303 E2.79792
G1 X155.303 Y68.693 E2.81192
G1 X155.414 Y68.979 E2.82213
G1 X155.52 Y69.266 E2.8323
G1 X155.645 Y69.624 E2.84492
G1 X155.802 Y70.106 E2.86178
G1 X155.872 Y70.335 E2.86974
G1 X155.961 Y70.645 E2.88047
G1 X156.024 Y70.875 E2.8884
G1 X156.112 Y71.218 E2.90018
G1 X156.164 Y71.435 E2.9076
G1 X156.222 Y71.691 E2.91633
G1 X156.336 Y72.234 E2.93478
G1 X156.37 Y72.413 E2.94084
G1 X156.435 Y72.79 E2.95357
G1 X156.478 Y73.069 E2.96296
G1 X156.52 Y73.37 E2.97306
G1 X156.553 Y73.632 E2.98185
G1 X156.586 Y73.925 E2.99165
G1 X156.603 Y74.097 E2.9974
G1 X156.629 Y74.404 E3.00765
G1 X156.649 Y74.687 E3.01709
G1 X156.665 Y74.965 E3.02635
G1 X156.675 Y75.186 E3.03371
G1 X156.685 Y75.528 E3.04509
G1 X156.7 Y76.679 E3.08337
G1 X156.699 Y167.165 E6.09295
G1 X156.689 Y167.892 E6.11713
G1 X156.636 Y168.829 E6.14835
G1 X156.504 Y169.757 E6.17952
G1 X156.293 Y170.671 E6.21072
G1 X156.004 Y171.563 E6.24191
G1 X155.641 Y172.428 E6.27311
G1 X155.206 Y173.259 E6.3043
G1 X154.701 Y174.049 E6.33549
G1 X154.131 Y174.794 E6.36669
G1 X153.5 Y175.488 E6.39789
G1 X152.811 Y176.125 E6.4291
G1 X152.071 Y176.701 E6.46029
G1 X151.285 Y177.212 E6.49147
G1 X150.458 Y177.654 E6.52266
G1 X149.596 Y178.024 E6.55386
G1 X148.706 Y178.319 E6.58504
G1 X147.794 Y178.538 E6.61624
G1 X146.867 Y178.678 E6.64742
G1 X145.999 Y178.737 E6.67635
G1 X145.679 Y178.746 E6.687
G1 X145.37 Y178.75 E6.69728
G1 X95.265 Y178.748 E8.36378
G1 X94.28 Y178.733 E8.39654
G1 X93.615 Y178.702 E8.41869
G1 X93.101 Y178.663 E8.43583
G1 X92.403 Y178.588 E8.45918
G1 X91.983 Y178.529 E8.47329
G1 X91.314 Y178.414 E8.49586
G1 X90.912 Y178.332 E8.50951
G1 X90.221 Y178.167 E8.53314
G1 X89.751 Y178.039 E8.54934
G1 X89.114 Y177.845 E8.57149
G1 X88.789 Y177.735 E8.5829
G1 X88.11 Y177.48 E8.60702
G1 X87.605 Y177.271 E8.6252
G1 X86.959 Y176.979 E8.64878
G1 X86.609 Y176.807 E8.66175
G1 X85.996 Y176.481 E8.68484
G1 X85.603 Y176.256 E8.69991
G1 X85.027 Y175.902 E8.72239
G1 X84.639 Y175.647 E8.73783
G1 X84.093 Y175.265 E8.76
G1 X83.772 Y175.025 E8.77333
G1 X83.184 Y174.553 E8.79841
G1 X82.89 Y174.3 E8.81131
G1 X82.406 Y173.857 E8.83313
G1 X81.971 Y173.435 E8.85329
G1 X81.116 Y172.506 E8.89528
G1 X81.044 Y172.418 E8.89906
G1 X80.482 Y171.667 E8.93026
G1 X80.113 Y171.09 E8.95304
G1 X79.999 Y170.899 E8.96044
G1 X79.553 Y170.074 E8.99163
G1 X79.245 Y169.382 E9.01682
G1 X79.165 Y169.184 E9.02393
G1 X78.851 Y168.3 E9.05513
G1 X78.614 Y167.393 E9.08631
G1 X78.503 Y166.805 E9.10621
G1 X78.448 Y166.462 E9.11777
G1 X78.315 Y165.072 E9.16421
G1 X78.305 Y164.673 E9.17748
G1 X78.3 Y164.161 E9.19451
G1 X78.301 Y80.126 E11.98953
G1 X78.311 Y79.435 E12.01251
G1 X78.365 Y78.498 E12.04373
G1 X78.498 Y77.57 E12.07491
G1 X78.709 Y76.656 E12.10611
G1 X78.998 Y75.764 E12.1373
G1 X79.362 Y74.9 E12.16848
G1 X79.798 Y74.069 E12.19969
G1 X80.303 Y73.279 E12.23088
G1 X80.874 Y72.535 E12.26207
G0 F6000 X81.268 Y72.688
G1 F1200 X81.898 Y72.017 E12.29268
G1 X82.583 Y71.402 E12.3233
G1 X83.319 Y70.849 E12.35392
G1 X84.395 Y70.202 E12.39568
G1 X85.34 Y69.707 E12.43116
G1 X87.568 Y68.502 E12.51541
G1 X89.769 Y67.229 E12.59998
G1 X91.947 Y65.886 E12.68508
G1 X94.047 Y64.509 E12.76861
G1 X96.099 Y63.077 E12.85183
G1 X98.137 Y61.568 E12.93617
G1 X100.526 Y59.683 E13.03739
G1 X101.302 Y59.049 E13.07072
G1 X102.04 Y58.499 E13.10133
G1 X102.823 Y58.014 E13.13196
G1 X103.645 Y57.599 E13.16259
G1 X104.5 Y57.257 E13.19322
G1 X105.381 Y56.991 E13.22383
G1 X106.282 Y56.802 E13.25445
G1 X107.603 Y56.669 E13.29861
G1 X107.84 Y56.66 E13.30649
G1 X108.144 Y56.652 E13.31661
G1 X108.361 Y56.65 E13.32383
G1 X136.282 Y56.65 E14.25248
G1 X137.407 Y56.665 E14.2899
G1 X137.704 Y56.674 E14.29979
G1 X137.916 Y56.683 E14.30684
G1 X138.237 Y56.701 E14.31754
G1 X138.525 Y56.722 E14.32714
G1 X138.812 Y56.747 E14.33672
G1 X139.091 Y56.775 E14.34605
G1 X139.543 Y56.829 E14.36119
G1 X139.822 Y56.868 E14.37056
G1 X140.112 Y56.913 E14.38032
G1 X140.539 Y56.987 E14.39473
G1 X140.861 Y57.05 E14.40565
G1 X141.153 Y57.112 E14.41558
G1 X141.47 Y57.185 E14.42639
G1 X141.703 Y57.242 E14.43437
G1 X142 Y57.319 E14.44458
G1 X142.196 Y57.373 E14.45134
G1 X142.457 Y57.449 E14.46038
G1 X142.724 Y57.53 E14.46966
G1 X143.034 Y57.629 E14.48048
G1 X143.545 Y57.804 E14.49845
G1 X143.731 Y57.872 E14.50504
G1 X144.034 Y57.989 E14.51584
G1 X144.286 Y58.09 E14.52487
G1 X144.55 Y58.2 E14.53438
G1 X145.011 Y58.403 E14.55114
G1 X145.281 Y58.529 E14.56105
G1 X145.707 Y58.738 E14.57683
G1 X145.984 Y58.881 E14.5872
G1 X146.216 Y59.005 E14.59595
G1 X146.478 Y59.15 E14.6059
G1 X146.681 Y59.266 E14.61368
G1 X146.949 Y59.424 E14.62403
G1 X147.129 Y59.534 E14.63104
G1 X147.368 Y59.685 E14.64045
G1 X147.604 Y59.838 E14.6498
G1 X147.87 Y60.016 E14.66045
G1 X148.309 Y60.322 E14.67825
G1 X148.418 Y60.401 E14.68272
G1 X148.665 Y60.586 E14.69299
G1 X148.839 Y60.72 E14.70029
G1 X149.106 Y60.933 E14.71165
G1 X149.36 Y61.142 E14.72259
G1 X149.589 Y61.336 E14.73257
G1 X149.975 Y61.675 E14.74966
G1 X150.099 Y61.788 E14.75524
G1 X150.343 Y62.018 E14.76639
G1 X150.515 Y62.185 E14.77437
G1 X150.74 Y62.41 E14.78495
G1 X150.934 Y62.61 E14.79422
G1 X151.127 Y62.815 E14.80358
G1 X151.31 Y63.014 E14.81257
G1 X151.547 Y63.28 E14.82442
G1 X151.784 Y63.559 E14.8366
G1 X151.928 Y63.733 E14.84411
G1 X152.165 Y64.03 E14.85675
G1 X152.368 Y64.294 E14.86783
G1 X152.544 Y64.53 E14.87762
G1 X152.745 Y64.807 E14.889
G1 X153.039 Y65.234 E14.90624
G1 X153.171 Y65.436 E14.91427
G1 X153.356 Y65.728 E14.92577
G1 X153.587 Y66.108 E14.94056
G1 X153.758 Y66.399 E14.95178
G1 X153.91 Y66.668 E14.96206
G1 X154.137 Y67.093 E14.97809
G1 X154.253 Y67.322 E14.98662
G1 X154.423 Y67.674 E14.99963
G1 X154.583 Y68.021 E15.01233
G1 X154.697 Y68.277 E15.02166
G1 X154.873 Y68.695 E15.03674
G1 X154.932 Y68.842 E15.04201
G1 X155.038 Y69.117 E15.05181
G1 X155.144 Y69.404 E15.06199
G1 X155.265 Y69.75 E15.07418
G1 X155.419 Y70.223 E15.09072
G1 X155.489 Y70.452 E15.09869
G1 X155.575 Y70.751 E15.10904
G1 X155.638 Y70.981 E15.11697
G1 X155.723 Y71.311 E15.1283
G1 X155.775 Y71.528 E15.13572
G1 X155.831 Y71.775 E15.14415
G1 X155.943 Y72.309 E15.16229
G1 X155.977 Y72.488 E15.16835
G1 X156.039 Y72.851 E15.1806
G1 X156.082 Y73.13 E15.18999
G1 X156.123 Y73.42 E15.19973
G1 X156.156 Y73.682 E15.20852
G1 X156.188 Y73.964 E15.21796
G1 X156.205 Y74.136 E15.2237
G1 X156.23 Y74.432 E15.23358
G1 X156.25 Y74.715 E15.24302
G1 X156.275 Y75.204 E15.25931
G1 X156.285 Y75.534 E15.27029
G1 X156.3 Y76.679 E15.30837
G1 X156.299 Y167.16 E18.31778
G1 X156.289 Y167.887 E18.34197
G1 X156.236 Y168.806 E18.37258
G1 X156.104 Y169.717 E18.4032
G1 X155.893 Y170.613 E18.43381
G1 X155.606 Y171.488 E18.46444
G1 X155.243 Y172.334 E18.49506
G1 X154.809 Y173.146 E18.52568
G1 X154.305 Y173.917 E18.55632
G1 X153.737 Y174.641 E18.58693
G1 X153.108 Y175.313 E18.61754
G1 X152.423 Y175.928 E18.64816
G1 X151.687 Y176.481 E18.67878
G1 X150.906 Y176.969 E18.70941
G1 X150.086 Y177.387 E18.74002
G1 X149.232 Y177.732 E18.77066
G1 X148.352 Y178.001 E18.80126
G1 X147.451 Y178.194 E18.83191
G1 X146.538 Y178.307 E18.86251
G1 X145.988 Y178.337 E18.88083
G1 X145.668 Y178.346 E18.89148
G1 X145.37 Y178.35 E18.90139
G1 X95.271 Y178.348 E20.56769
G1 X94.286 Y178.333 E20.60045
G1 X93.645 Y178.304 E20.62179
G1 X93.131 Y178.265 E20.63894
G1 X92.458 Y178.192 E20.66145
G1 X92.038 Y178.133 E20.67556
G1 X91.394 Y178.022 E20.6973
G1 X90.992 Y177.94 E20.71094
G1 X90.326 Y177.782 E20.73371
G1 X89.856 Y177.654 E20.74991
G1 X89.243 Y177.466 E20.77124
G1 X88.918 Y177.356 E20.78265
G1 X88.262 Y177.11 E20.80595
G1 X87.757 Y176.901 E20.82413
G1 X87.136 Y176.62 E20.8468
G1 X86.786 Y176.448 E20.85977
G1 X86.194 Y176.134 E20.88206
G1 X85.801 Y175.909 E20.89712
G1 X85.246 Y175.568 E20.91878
G1 X84.858 Y175.313 E20.93423
G1 X84.333 Y174.945 E20.95555
G1 X84.012 Y174.705 E20.96888
G1 X83.445 Y174.25 E20.99306
G1 X83.151 Y173.997 E21.00596
G1 X82.684 Y173.57 E21.02701
G1 X82.249 Y173.148 E21.04717
G1 X81.426 Y172.252 E21.08763
G1 X81.354 Y172.164 E21.09141
G1 X80.803 Y171.427 E21.12202
G1 X80.456 Y170.885 E21.14342
G1 X80.342 Y170.694 E21.15082
G1 X79.905 Y169.883 E21.18146
G1 X79.616 Y169.232 E21.20515
G1 X79.536 Y169.034 E21.21226
G1 X79.228 Y168.166 E21.24289
G1 X78.997 Y167.275 E21.2735
G1 X78.898 Y166.741 E21.29157
G1 X78.843 Y166.398 E21.30312
G1 X78.714 Y165.06 E21.34783
G1 X78.705 Y164.669 E21.36084
G1 X78.7 Y164.161 E21.37773
G1 X78.701 Y80.132 E24.17255
G1 X78.711 Y79.441 E24.19554
G1 X78.764 Y78.522 E24.22615
G1 X78.897 Y77.61 E24.25681
G1 X79.109 Y76.714 E24.28743
G1 X79.397 Y75.84 E24.31804
G1 X79.76 Y74.994 E24.34866
G1 X80.195 Y74.183 E24.37927
G1 X80.699 Y73.412 E24.4099
G1 X81.268 Y72.688 E24.44053
G0 F6000 X81.662 Y72.845
G1 F1200 X82.289 Y72.195 E24.47057
G1 X82.971 Y71.603 E24.5006
G1 X83.703 Y71.074 E24.53064
G1 X84.581 Y70.557 E24.56453
G1 X85.479 Y70.087 E24.59824
G1 X87.752 Y68.857 E24.6842
G1 X89.999 Y67.557 E24.77054
G1 X92.13 Y66.244 E24.8538
G1 X94.29 Y64.827 E24.93972
G1 X96.344 Y63.394 E25.02302
G1 X98.372 Y61.892 E25.10695
G1 X100.777 Y59.994 E25.20885
G1 X101.555 Y59.359 E25.24225
G1 X102.279 Y58.82 E25.27227
G1 X103.049 Y58.346 E25.30235
G1 X103.857 Y57.943 E25.33238
G1 X104.697 Y57.612 E25.36241
G1 X105.563 Y57.358 E25.39243
G1 X106.449 Y57.18 E25.42248
G1 X107.618 Y57.068 E25.46154
G1 X107.855 Y57.059 E25.46943
G1 X108.148 Y57.052 E25.47918
G1 X108.365 Y57.05 E25.4864
G1 X136.282 Y57.05 E26.41492
G1 X137.401 Y57.065 E26.45214
G1 X137.687 Y57.073 E26.46166
G1 X137.899 Y57.082 E26.46871
G1 X138.208 Y57.1 E26.47901
G1 X138.496 Y57.121 E26.48861
G1 X138.773 Y57.145 E26.49786
G1 X139.052 Y57.173 E26.50719
G1 X139.493 Y57.226 E26.52196
G1 X139.761 Y57.264 E26.53096
G1 X140.051 Y57.309 E26.54072
G1 X140.468 Y57.381 E26.5548
G1 X140.778 Y57.441 E26.5653
G1 X141.07 Y57.503 E26.57523
G1 X141.375 Y57.573 E26.58564
G1 X141.608 Y57.63 E26.59362
G1 X141.893 Y57.704 E26.60341
G1 X142.089 Y57.758 E26.61017
G1 X142.341 Y57.831 E26.6189
G1 X142.608 Y57.912 E26.62818
G1 X142.906 Y58.008 E26.63859
G1 X143.164 Y58.095 E26.64765
G1 X143.407 Y58.18 E26.65621
G1 X143.593 Y58.248 E26.6628
G1 X143.886 Y58.36 E26.67323
G1 X144.138 Y58.461 E26.68226
G1 X144.576 Y58.647 E26.69809
G1 X144.841 Y58.766 E26.70775
G1 X145.111 Y58.892 E26.71766
G1 X145.34 Y59.002 E26.72611
G1 X145.529 Y59.096 E26.73313
G1 X145.795 Y59.233 E26.74308
G1 X146.027 Y59.357 E26.75183
G1 X146.28 Y59.497 E26.76145
G1 X146.483 Y59.613 E26.76922
G1 X146.741 Y59.766 E26.7792
G1 X147.151 Y60.02 E26.79524
G1 X147.387 Y60.173 E26.80459
G1 X147.642 Y60.344 E26.81481
G1 X147.892 Y60.517 E26.82492
G1 X148.183 Y60.725 E26.83682
G1 X148.421 Y60.903 E26.8467
G1 X148.595 Y61.037 E26.854
G1 X148.852 Y61.242 E26.86494
G1 X149.106 Y61.451 E26.87588
G1 X149.326 Y61.637 E26.88546
G1 X149.536 Y61.82 E26.89473
G1 X149.829 Y62.084 E26.90784
G1 X150.064 Y62.305 E26.91857
G1 X150.236 Y62.472 E26.92655
G1 X150.452 Y62.688 E26.93671
G1 X150.646 Y62.888 E26.94597
G1 X150.833 Y63.086 E26.95503
G1 X151.016 Y63.285 E26.96402
G1 X151.244 Y63.541 E26.97543
G1 X151.476 Y63.814 E26.98734
G1 X151.62 Y63.988 E26.99485
G1 X151.848 Y64.273 E27.00699
G1 X152.051 Y64.537 E27.01807
G1 X152.221 Y64.765 E27.02753
G1 X152.422 Y65.042 E27.03891
G1 X152.705 Y65.452 E27.05548
G1 X152.837 Y65.654 E27.06351
G1 X153.014 Y65.936 E27.07458
G1 X153.245 Y66.316 E27.08937
G1 X153.409 Y66.596 E27.10016
G1 X153.561 Y66.865 E27.11044
G1 X153.78 Y67.274 E27.12587
G1 X153.896 Y67.503 E27.13441
G1 X154.06 Y67.841 E27.14691
G1 X154.22 Y68.188 E27.15961
G1 X154.33 Y68.435 E27.16861
G1 X154.502 Y68.844 E27.18336
G1 X154.561 Y68.991 E27.18863
G1 X154.663 Y69.256 E27.19808
G1 X154.769 Y69.543 E27.20825
G1 X154.885 Y69.875 E27.21995
G1 X155.036 Y70.34 E27.23621
G1 X155.106 Y70.569 E27.24418
G1 X155.19 Y70.856 E27.25412
G1 X155.253 Y71.086 E27.26205
G1 X155.334 Y71.404 E27.27297
G1 X155.44 Y71.858 E27.28847
G1 X155.502 Y72.147 E27.29831
G1 X155.584 Y72.563 E27.31241
G1 X155.644 Y72.912 E27.32419
G1 X155.687 Y73.191 E27.33357
G1 X155.726 Y73.47 E27.34294
G1 X155.759 Y73.732 E27.35173
G1 X155.79 Y74.004 E27.36083
G1 X155.807 Y74.176 E27.36658
G1 X155.831 Y74.46 E27.37606
G1 X155.851 Y74.743 E27.3855
G1 X155.866 Y75.001 E27.39409
G1 X155.876 Y75.222 E27.40145
G1 X155.885 Y75.54 E27.41203
G1 X155.9 Y76.679 E27.44992
G1 X155.899 Y167.154 E30.45913
G1 X155.889 Y167.881 E30.48331
G1 X155.837 Y168.783 E30.51336
G1 X155.705 Y169.676 E30.54339
G1 X155.494 Y170.555 E30.57345
G1 X155.207 Y171.411 E30.60348
