;FLAVOR:Marlin
;TIME:845
;Filament used: 0.508859m
;Layer height: 0.2
;MINX:85.461
;MINY:99.726
;MINZ:0.2
;MAXX:149.557
;MAXY:135.288
;MAXZ:5.6
;Generated with Cura_SteamEngine 4.13.0
M140 S60
M105
M190 S60
M104 S200
M105
M109 S200
M82 ;absolute extrusion mode
; Ender 3 Custom Start G-code
G92 E0 ; Reset Extruder
G28 ; Home all axes
G1 Z2.0 F3000 ; Move Z Axis up little to prevent scratching of Heat Bed
G1 X0.1 Y20 Z0.3 F5000.0 ; Move to start position
G1 X0.1 Y200.0 Z0.3 F1500.0 E15 ; Draw the first line
G1 X0.4 Y200.0 Z0.3 F5000.0 ; Move to side a little
G1 X0.4 Y20 Z0.3 F1500.0 E30 ; Draw the second line
G92 E0 ; Reset Extruder
G1 Z2.0 F3000 ; Move Z Axis up little to prevent scratching of Heat Bed
G1 X5 Y20 Z0.3 F5000.0 ; Move over to prevent blob squish
G92 E0
G92 E0
G1 F1500 E-6.5
;LAYER_COUNT:28
;LAYER:0
M107
G0 F6000 X91.369 Y103.785 Z0.2
;TYPE:SKIRT
G1 F1500 E0
G1 F1200 X91.635 Y103.562 E0.01154
G1 X92.229 Y103.098 E0.03661
G1 X92.556 Y102.86 E0.05007
G1 X93.178 Y102.439 E0.07505
G1 X93.584 Y102.184 E0.09099
G1 X94.227 Y101.81 E0.11573
G1 X94.64 Y101.588 E0.13133
G1 X95.446 Y101.196 E0.16114
G1 X95.659 Y101.103 E0.16887
G1 X96.25 Y100.865 E0.19006
G1 X96.778 Y100.67 E0.20878
G1 X97.516 Y100.427 E0.23462
G1 X97.681 Y100.379 E0.24034
G1 X98.365 Y100.203 E0.26383
G1 X98.846 Y100.096 E0.28022
G1 X99.586 Y99.958 E0.30526
G1 X100.061 Y99.886 E0.32124
G1 X100.816 Y99.798 E0.34652
G1 X101.184 Y99.768 E0.3588
G1 X101.932 Y99.733 E0.3837
G1 X102.458 Y99.726 E0.4012
G1 X103.198 Y99.741 E0.42582
G1 X103.346 Y99.749 E0.43075
G1 X104.118 Y99.818 E0.45653
G1 X105.636 Y100.008 E0.50741
G1 X105.83 Y100.034 E0.51392
G1 X106.657 Y100.153 E0.54171
G1 X109.128 Y100.436 E0.62443
G1 X111.651 Y100.653 E0.70866
G1 X114.15 Y100.798 E0.79191
G1 X116.681 Y100.873 E0.87613
G1 X118.12 Y100.884 E0.92399
G1 X134.521 Y100.886 E1.46949
G1 X135.326 Y100.897 E1.49627
G1 X135.856 Y100.917 E1.51391
G1 X135.969 Y100.924 E1.51768
G1 X136.615 Y100.983 E1.53925
G1 X137.002 Y101.03 E1.55222
G1 X138.002 Y101.199 E1.58595
G1 X138.247 Y101.252 E1.59429
G1 X139.053 Y101.458 E1.62196
G1 X139.292 Y101.529 E1.63025
G1 X140.284 Y101.876 E1.6652
G1 X140.692 Y102.041 E1.67984
G1 X141.637 Y102.477 E1.71446
G1 X141.793 Y102.558 E1.7203
G1 X142.533 Y102.979 E1.74862
G1 X142.89 Y103.201 E1.7626
G1 X143.819 Y103.847 E1.80024
G1 X144.059 Y104.033 E1.81034
G1 X144.757 Y104.622 E1.84071
G1 X144.878 Y104.733 E1.84617
G1 X145.448 Y105.296 E1.87282
G1 X145.741 Y105.607 E1.88703
G1 X146.402 Y106.376 E1.92076
G1 X146.563 Y106.582 E1.92946
G1 X147.041 Y107.242 E1.95656
G1 X147.158 Y107.417 E1.96356
G1 X147.706 Y108.331 E1.99901
G1 X147.927 Y108.743 E2.01456
G1 X148.385 Y109.706 E2.05002
G1 X148.481 Y109.936 E2.05831
G1 X148.79 Y110.769 E2.08786
G1 X148.872 Y111.021 E2.09668
G1 X149.108 Y111.858 E2.1256
G1 X149.174 Y112.133 E2.13501
G1 X149.366 Y113.135 E2.16894
G1 X149.415 Y113.476 E2.1804
G1 X149.525 Y114.808 E2.22485
G1 X149.555 Y116.221 E2.27186
G1 X149.557 Y116.457 E2.27971
G1 X149.555 Y120.283 E2.40696
G1 X149.544 Y121.059 E2.43278
G1 X149.525 Y121.56 E2.44945
G1 X149.518 Y121.677 E2.45335
G1 X149.458 Y122.346 E2.47569
G1 X149.411 Y122.733 E2.48866
G1 X149.242 Y123.733 E2.52239
G1 X149.189 Y123.978 E2.53072
G1 X148.983 Y124.784 E2.55839
G1 X148.912 Y125.023 E2.56669
G1 X148.565 Y126.015 E2.60164
G1 X148.4 Y126.423 E2.61628
G1 X147.97 Y127.357 E2.65048
G1 X147.883 Y127.525 E2.65677
G1 X147.48 Y128.237 E2.68398
G1 X147.297 Y128.534 E2.69558
G1 X146.704 Y129.401 E2.73052
G1 X146.502 Y129.668 E2.74166
G1 X145.901 Y130.396 E2.77305
G1 X145.773 Y130.538 E2.77941
G1 X145.149 Y131.176 E2.8091
G1 X144.833 Y131.474 E2.82354
G1 X143.995 Y132.188 E2.86016
G1 X143.778 Y132.355 E2.86927
G1 X143.171 Y132.791 E2.89412
G1 X143.012 Y132.897 E2.90048
G1 X142.11 Y133.437 E2.93545
G1 X141.698 Y133.658 E2.951
G1 X140.729 Y134.119 E2.98669
G1 X140.501 Y134.214 E2.9949
G1 X139.675 Y134.52 E3.0242
G1 X139.42 Y134.603 E3.03312
G1 X138.591 Y134.837 E3.06177
G1 X138.317 Y134.903 E3.07114
G1 X137.292 Y135.099 E3.10585
G1 X136.948 Y135.148 E3.11741
G1 X135.63 Y135.256 E3.16139
G1 X134.215 Y135.286 E3.20847
G1 X133.982 Y135.288 E3.21622
G1 X103.452 Y135.287 E4.23165
G1 X102.654 Y135.276 E4.25819
G1 X102.135 Y135.257 E4.27547
G1 X102.004 Y135.249 E4.27983
G1 X101.425 Y135.198 E4.29916
G1 X101.189 Y135.171 E4.30706
G1 X100.182 Y135.008 E4.34099
G1 X99.891 Y134.947 E4.35088
G1 X98.91 Y134.694 E4.38458
G1 X98.66 Y134.617 E4.39328
G1 X97.804 Y134.314 E4.42348
G1 X97.602 Y134.233 E4.43072
G1 X96.777 Y133.862 E4.4608
G1 X96.495 Y133.721 E4.47129
G1 X95.664 Y133.259 E4.50291
G1 X95.558 Y133.194 E4.50705
G1 X94.738 Y132.639 E4.53998
G1 X94.358 Y132.356 E4.55574
G1 X93.422 Y131.575 E4.59629
G1 X93.091 Y131.266 E4.61135
G1 X92.823 Y131.007 E4.62374
G1 X90.977 Y129.163 E4.71053
G1 X90.839 Y129.023 E4.71706
G1 X90.131 Y128.29 E4.75096
G1 X89.64 Y127.747 E4.77531
G1 X89.286 Y127.328 E4.79355
G1 X88.802 Y126.712 E4.81961
G1 X88.624 Y126.468 E4.82965
G1 X88.214 Y125.864 E4.85393
G1 X87.944 Y125.437 E4.87074
G1 X87.562 Y124.785 E4.89587
G1 X87.427 Y124.535 E4.90532
G1 X87.09 Y123.855 E4.93056
G1 X86.863 Y123.355 E4.94883
G1 X86.59 Y122.698 E4.97249
G1 X86.497 Y122.452 E4.98124
G1 X86.249 Y121.719 E5.00697
G1 X86.098 Y121.215 E5.02447
G1 X85.911 Y120.505 E5.04889
G1 X85.809 Y120.058 E5.06414
G1 X85.649 Y119.204 E5.09304
G1 X85.619 Y118.999 E5.09993
G1 X85.543 Y118.343 E5.1219
G1 X85.507 Y117.922 E5.13595
G1 X85.469 Y117.172 E5.16093
G1 X85.461 Y116.702 E5.17656
G1 X85.474 Y115.946 E5.20171
G1 X85.496 Y115.521 E5.21587
G1 X85.56 Y114.775 E5.24077
G1 X85.622 Y114.26 E5.25802
G1 X85.767 Y113.365 E5.28818
G1 X85.807 Y113.17 E5.2948
G1 X85.951 Y112.558 E5.31571
G1 X86.05 Y112.185 E5.32854
G1 X86.253 Y111.509 E5.35202
G1 X86.417 Y111.02 E5.36917
G1 X86.694 Y110.283 E5.39536
G1 X86.835 Y109.945 E5.40754
G1 X87.129 Y109.3 E5.43112
G1 X87.328 Y108.898 E5.44604
G1 X87.723 Y108.17 E5.47359
G1 X87.979 Y107.738 E5.49029
G1 X88.305 Y107.221 E5.51062
G1 X88.366 Y107.13 E5.51426
G1 X88.87 Y106.438 E5.54273
G1 X89.193 Y106.029 E5.56007
G1 X89.67 Y105.465 E5.58464
G1 X89.984 Y105.118 E5.6002
G1 X90.524 Y104.562 E5.62598
G1 X90.82 Y104.278 E5.63962
G1 X91.369 Y103.785 E5.66416
G0 F6000 X91.626 Y104.092
G1 F1200 X91.892 Y103.869 E5.67571
G1 X92.464 Y103.422 E5.69985
G1 X92.791 Y103.184 E5.71331
G1 X93.391 Y102.778 E5.7374
G1 X93.797 Y102.523 E5.75335
G1 X94.416 Y102.162 E5.77718
G1 X94.829 Y101.94 E5.79278
G1 X95.606 Y101.563 E5.8215
G1 X95.819 Y101.47 E5.82923
G1 X96.389 Y101.24 E5.84967
G1 X96.917 Y101.045 E5.8684
G1 X97.628 Y100.811 E5.89329
G1 X97.793 Y100.763 E5.89901
G1 X98.452 Y100.594 E5.92163
G1 X98.933 Y100.487 E5.93802
G1 X99.646 Y100.354 E5.96215
G1 X100.121 Y100.282 E5.97813
G1 X100.849 Y100.197 E6.0025
G1 X101.217 Y100.167 E6.01478
G1 X101.937 Y100.133 E6.03876
G1 X102.463 Y100.126 E6.05625
G1 X103.176 Y100.14 E6.07997
G1 X103.324 Y100.148 E6.0849
G1 X104.068 Y100.215 E6.10975
G1 X105.774 Y100.43 E6.16694
G1 X106.592 Y100.547 E6.19442
G1 X109.085 Y100.833 E6.27788
G1 X111.63 Y101.052 E6.36284
G1 X114.15 Y101.199 E6.4468
G1 X116.666 Y101.273 E6.53052
G1 X118.117 Y101.284 E6.57878
G1 X134.516 Y101.286 E7.12422
G1 X135.321 Y101.297 E7.15099
G1 X135.831 Y101.316 E7.16797
G1 X135.944 Y101.323 E7.17173
G1 X136.567 Y101.38 E7.19254
G1 X136.954 Y101.427 E7.20551
G1 X137.917 Y101.59 E7.23799
G1 X138.162 Y101.643 E7.24633
G1 X138.94 Y101.842 E7.27304
G1 X139.179 Y101.913 E7.28133
G1 X140.134 Y102.247 E7.31498
G1 X140.542 Y102.412 E7.32962
G1 X141.453 Y102.832 E7.36298
G1 X141.609 Y102.913 E7.36883
G1 X142.322 Y103.318 E7.3961
G1 X142.679 Y103.54 E7.41009
G1 X143.574 Y104.164 E7.44637
G1 X143.814 Y104.35 E7.45647
G1 X144.487 Y104.917 E7.48574
G1 X144.608 Y105.028 E7.4912
G1 X145.157 Y105.57 E7.51686
G1 X145.45 Y105.881 E7.53108
G1 X146.087 Y106.623 E7.5636
G1 X146.248 Y106.829 E7.5723
G1 X146.708 Y107.465 E7.5984
G1 X146.825 Y107.64 E7.6054
G1 X147.354 Y108.52 E7.63956
G1 X147.575 Y108.932 E7.65511
G1 X148.016 Y109.86 E7.68928
G1 X148.112 Y110.09 E7.69757
G1 X148.41 Y110.893 E7.72606
G1 X148.492 Y111.145 E7.73487
G1 X148.719 Y111.951 E7.76272
G1 X148.785 Y112.226 E7.77213
G1 X148.97 Y113.192 E7.80484
G1 X149.019 Y113.533 E7.8163
G1 X149.125 Y114.816 E7.85912
G1 X149.155 Y116.229 E7.90612
G1 X149.157 Y116.457 E7.91371
G1 X149.155 Y120.277 E8.04076
G1 X149.144 Y121.053 E8.06657
G1 X149.126 Y121.536 E8.08265
G1 X149.119 Y121.653 E8.08655
G1 X149.061 Y122.298 E8.10809
G1 X149.014 Y122.685 E8.12105
G1 X148.851 Y123.648 E8.15354
G1 X148.798 Y123.893 E8.16188
G1 X148.599 Y124.671 E8.18858
G1 X148.528 Y124.91 E8.19688
G1 X148.194 Y125.865 E8.23053
G1 X148.029 Y126.273 E8.24517
G1 X147.615 Y127.173 E8.27811
G1 X147.528 Y127.341 E8.28441
G1 X147.139 Y128.028 E8.31067
G1 X146.956 Y128.325 E8.32227
G1 X146.385 Y129.159 E8.35589
G1 X146.183 Y129.426 E8.36702
G1 X145.603 Y130.128 E8.39731
G1 X145.475 Y130.27 E8.40367
G1 X144.874 Y130.885 E8.43227
G1 X144.558 Y131.183 E8.44671
G1 X143.751 Y131.871 E8.48198
G1 X143.534 Y132.038 E8.49109
G1 X142.949 Y132.458 E8.51504
G1 X142.79 Y132.564 E8.5214
G1 X141.921 Y133.085 E8.5551
G1 X141.509 Y133.306 E8.57065
G1 X140.575 Y133.75 E8.60505
G1 X140.347 Y133.845 E8.61326
G1 X139.551 Y134.14 E8.6415
G1 X139.296 Y134.223 E8.65042
G1 X138.497 Y134.448 E8.67802
G1 X138.223 Y134.514 E8.6874
G1 X137.236 Y134.703 E8.72082
G1 X136.892 Y134.752 E8.73238
G1 X135.622 Y134.856 E8.77476
G1 X134.207 Y134.886 E8.82183
G1 X133.982 Y134.888 E8.82932
G1 X103.458 Y134.887 E9.84455
G1 X102.66 Y134.876 E9.8711
G1 X102.16 Y134.857 E9.88774
G1 X102.029 Y134.849 E9.8921
G1 X101.47 Y134.8 E9.91077
G1 X101.234 Y134.773 E9.91867
G1 X100.264 Y134.617 E9.95134
G1 X99.973 Y134.556 E9.96123
G1 X99.028 Y134.311 E9.9937
G1 X98.778 Y134.234 E10.0024
G1 X97.953 Y133.942 E10.03151
G1 X97.751 Y133.861 E10.03875
G1 X96.956 Y133.504 E10.06773
G1 X96.674 Y133.363 E10.07822
G1 X95.873 Y132.918 E10.1087
G1 X95.767 Y132.853 E10.11283
G1 X94.977 Y132.318 E10.14457
G1 X94.597 Y132.035 E10.16033
G1 X93.695 Y131.282 E10.19941
G1 X93.364 Y130.973 E10.21447
G1 X93.106 Y130.724 E10.22639
G1 X91.26 Y128.88 E10.31318
G1 X91.127 Y128.745 E10.31948
G1 X90.419 Y128.012 E10.35337
G1 X89.946 Y127.489 E10.37683
G1 X89.592 Y127.07 E10.39507
G1 X89.126 Y126.476 E10.42018
G1 X88.948 Y126.232 E10.43023
G1 X88.552 Y125.65 E10.45364
G1 X88.282 Y125.223 E10.47044
G1 X87.914 Y124.595 E10.49465
G1 X87.779 Y124.345 E10.5041
G1 X87.454 Y123.69 E10.52842
G1 X87.227 Y123.19 E10.54669
G1 X86.964 Y122.556 E10.56952
G1 X86.871 Y122.31 E10.57826
G1 X86.632 Y121.604 E10.60305
G1 X86.481 Y121.1 E10.62055
G1 X86.301 Y120.416 E10.64408
G1 X86.199 Y119.969 E10.65933
G1 X86.045 Y119.146 E10.68718
G1 X86.015 Y118.941 E10.69407
G1 X85.942 Y118.309 E10.71523
G1 X85.906 Y117.888 E10.72928
G1 X85.869 Y117.165 E10.75336
G1 X85.861 Y116.695 E10.76899
G1 X85.873 Y115.967 E10.79321
G1 X85.895 Y115.542 E10.80737
G1 X85.957 Y114.823 E10.83137
G1 X86.019 Y114.308 E10.84862
G1 X86.159 Y113.445 E10.8777
G1 X86.199 Y113.25 E10.88432
G1 X86.338 Y112.661 E10.90445
G1 X86.437 Y112.288 E10.91728
G1 X86.632 Y111.636 E10.93992
G1 X86.796 Y111.147 E10.95707
G1 X87.063 Y110.437 E10.9823
G1 X87.204 Y110.099 E10.99448
G1 X87.487 Y109.477 E11.01721
G1 X87.686 Y109.075 E11.03213
G1 X88.067 Y108.374 E11.05867
G1 X88.323 Y107.942 E11.07537
G1 X88.637 Y107.444 E11.09495
G1 X88.698 Y107.353 E11.09859
G1 X89.184 Y106.685 E11.12607
G1 X89.507 Y106.276 E11.1434
G1 X89.966 Y105.734 E11.16703
G1 X90.28 Y105.387 E11.18259
G1 X90.801 Y104.85 E11.20748
G1 X91.097 Y104.566 E11.22112
G1 X91.626 Y104.092 E11.24475
G0 F6000 X91.883 Y104.398
G1 F1200 X92.149 Y104.175 E11.25629
G1 X92.7 Y103.745 E11.27954
G1 X93.027 Y103.507 E11.29299
G1 X93.604 Y103.116 E11.31617
G1 X94.01 Y102.861 E11.33212
G1 X94.606 Y102.515 E11.35504
G1 X95.019 Y102.293 E11.37063
G1 X95.767 Y101.929 E11.3983
G1 X95.98 Y101.836 E11.40603
G1 X96.527 Y101.616 E11.42564
G1 X97.055 Y101.421 E11.44436
G1 X97.74 Y101.195 E11.46835
G1 X97.905 Y101.147 E11.47407
G1 X98.539 Y100.984 E11.49584
G1 X99.02 Y100.877 E11.51223
G1 X99.706 Y100.749 E11.53544
G1 X100.181 Y100.677 E11.55142
G1 X100.881 Y100.596 E11.57486
G1 X101.249 Y100.566 E11.58714
G1 X101.942 Y100.533 E11.61021
G1 X102.468 Y100.526 E11.62771
G1 X103.155 Y100.54 E11.65056
G1 X103.303 Y100.548 E11.65549
G1 X104.019 Y100.612 E11.6794
G1 X105.717 Y100.826 E11.73632
G1 X106.526 Y100.942 E11.76351
G1 X109.076 Y101.234 E11.84888
G1 X111.57 Y101.449 E11.93213
G1 X114.116 Y101.597 E12.01696
G1 X116.697 Y101.673 E12.10284
G1 X118.114 Y101.684 E12.14997
G1 X134.51 Y101.686 E12.6953
G1 X135.315 Y101.697 E12.72208
G1 X135.807 Y101.716 E12.73846
G1 X135.92 Y101.723 E12.74222
G1 X136.519 Y101.777 E12.76223
G1 X136.906 Y101.824 E12.77519
G1 X137.833 Y101.981 E12.80646
G1 X138.078 Y102.034 E12.8148
G1 X138.826 Y102.225 E12.84048
G1 X139.065 Y102.296 E12.84877
G1 X139.984 Y102.618 E12.88116
G1 X140.392 Y102.783 E12.89579
G1 X141.268 Y103.187 E12.92788
G1 X141.424 Y103.268 E12.93373
G1 X142.11 Y103.658 E12.95997
G1 X142.467 Y103.88 E12.97395
G1 X143.329 Y104.48 E13.00889
G1 X143.569 Y104.666 E13.01899
G1 X144.216 Y105.212 E13.04714
G1 X144.337 Y105.323 E13.0526
G1 X144.866 Y105.845 E13.07732
G1 X145.159 Y106.156 E13.09153
G1 X145.772 Y106.869 E13.12281
G1 X145.933 Y107.075 E13.1315
G1 X146.375 Y107.687 E13.15661
G1 X146.492 Y107.862 E13.16362
G1 X147.001 Y108.709 E13.19648
G1 X147.222 Y109.121 E13.21203
G1 X147.647 Y110.014 E13.24493
G1 X147.743 Y110.244 E13.25321
G1 X148.029 Y111.017 E13.28063
G1 X148.111 Y111.269 E13.28944
G1 X148.33 Y112.045 E13.31626
G1 X148.396 Y112.32 E13.32567
G1 X148.574 Y113.249 E13.35713
G1 X148.623 Y113.59 E13.36859
G1 X148.725 Y114.824 E13.40977
G1 X148.755 Y116.237 E13.45678
G1 X148.757 Y116.457 E13.46409
G1 X148.755 Y120.272 E13.59098
G1 X148.744 Y121.048 E13.61679
G1 X148.727 Y121.512 E13.63224
G1 X148.72 Y121.629 E13.63613
G1 X148.664 Y122.25 E13.65687
G1 X148.617 Y122.637 E13.66984
G1 X148.46 Y123.564 E13.70111
G1 X148.407 Y123.809 E13.70945
G1 X148.216 Y124.557 E13.73512
G1 X148.145 Y124.796 E13.74342
G1 X147.823 Y125.715 E13.77581
G1 X147.658 Y126.123 E13.79044
G1 X147.26 Y126.99 E13.82217
G1 X147.173 Y127.158 E13.82847
G1 X146.799 Y127.818 E13.8537
G1 X146.616 Y128.115 E13.8653
G1 X146.066 Y128.918 E13.89767
G1 X145.864 Y129.185 E13.90881
G1 X145.306 Y129.86 E13.93794
G1 X145.178 Y130.002 E13.94429
G1 X144.6 Y130.594 E13.97181
G1 X144.284 Y130.892 E13.98626
G1 X143.507 Y131.554 E14.02021
G1 X143.29 Y131.721 E14.02932
G1 X142.727 Y132.125 E14.05237
G1 X142.568 Y132.231 E14.05872
G1 X141.732 Y132.732 E14.09114
G1 X141.32 Y132.953 E14.10669
G1 X140.421 Y133.38 E14.13979
G1 X140.193 Y133.475 E14.148
G1 X139.427 Y133.759 E14.17518
G1 X139.172 Y133.842 E14.1841
G1 X138.404 Y134.059 E14.21064
G1 X138.13 Y134.125 E14.22001
G1 X137.179 Y134.307 E14.25222
G1 X136.835 Y134.356 E14.26378
G1 X135.613 Y134.456 E14.30455
G1 X134.198 Y134.486 E14.35163
G1 X133.982 Y134.488 E14.35881
G1 X103.463 Y134.487 E15.37388
G1 X102.665 Y134.476 E15.40042
G1 X102.184 Y134.458 E15.41643
G1 X102.053 Y134.45 E15.4208
G1 X101.516 Y134.403 E15.43873
G1 X101.28 Y134.376 E15.44663
G1 X100.346 Y134.225 E15.4781
G1 X100.055 Y134.164 E15.48798
G1 X99.146 Y133.929 E15.51921
G1 X98.896 Y133.852 E15.52791
G1 X98.102 Y133.571 E15.55593
G1 X97.9 Y133.49 E15.56316
G1 X97.134 Y133.146 E15.59109
G1 X96.852 Y133.005 E15.60158
G1 X96.082 Y132.577 E15.63088
G1 X95.976 Y132.512 E15.63502
G1 X95.216 Y131.998 E15.66553
G1 X94.836 Y131.715 E15.68129
G1 X93.968 Y130.99 E15.71891
G1 X93.637 Y130.681 E15.73397
G1 X93.388 Y130.441 E15.74547
G1 X91.542 Y128.597 E15.83225
G1 X91.414 Y128.467 E15.83832
G1 X90.706 Y127.734 E15.87222
G1 X90.252 Y127.231 E15.89475
G1 X89.898 Y126.812 E15.913
G1 X89.449 Y126.24 E15.93718
G1 X89.271 Y125.996 E15.94723
G1 X88.89 Y125.436 E15.96976
G1 X88.62 Y125.009 E15.98656
G1 X88.266 Y124.405 E16.00984
G1 X88.131 Y124.155 E16.01929
G1 X87.818 Y123.525 E16.04269
G1 X87.591 Y123.025 E16.06096
G1 X87.338 Y122.415 E16.08292
G1 X87.245 Y122.169 E16.09167
G1 X87.015 Y121.489 E16.11554
