;FLAVOR:Marlin
;TIME:6831
;Filament used: 4.64532m
;Layer height: 0.2
;MINX:77.399
;MINY:55.399
;MINZ:0.2
;MAXX:157.6
;MAXY:179.601
;MAXZ:12.6
;Generated with Cura_SteamEngine 4.13.0
M140 S60
M105
M190 S60
M104 S200
M105
M109 S200
M82 ;absolute extrusion mode
; Ender 3 Custom Start G-code
G92 E0 ; Reset Extruder
G28 ; Home all axes
G1 Z2.0 F3000 ; Move Z Axis up little to prevent scratching of Heat Bed
G1 X0.1 Y20 Z0.3 F5000.0 ; Move to start position
G1 X0.1 Y200.0 Z0.3 F1500.0 E15 ; Draw the first line
G1 X0.4 Y200.0 Z0.3 F5000.0 ; Move to side a little
G1 X0.4 Y20 Z0.3 F1500.0 E30 ; Draw the second line
G92 E0 ; Reset Extruder
G1 Z2.0 F3000 ; Move Z Axis up little to prevent scratching of Heat Bed
G1 X5 Y20 Z0.3 F5000.0 ; Move over to prevent blob squish
G92 E0
G92 E0
G1 F1500 E-6.5
;LAYER_COUNT:63
;LAYER:0
M107
G0 F6000 X81.544 Y63.626 Z0.2
;TYPE:SKIRT
G1 F1500 E0
G1 F1200 X81.906 Y63.169 E0.01939
G1 X82.429 Y62.542 E0.04655
G1 X82.945 Y61.966 E0.07227
G1 X83.388 Y61.505 E0.09353
G1 X83.922 Y60.985 E0.11832
G1 X84.425 Y60.528 E0.14093
G1 X85.005 Y60.037 E0.1662
G1 X85.561 Y59.598 E0.18976
G1 X85.909 Y59.334 E0.20429
G1 X86.135 Y59.171 E0.21356
G1 X86.312 Y59.047 E0.22075
G1 X86.663 Y58.811 E0.23482
G1 X86.973 Y58.612 E0.24707
G1 X87.165 Y58.491 E0.25462
G1 X87.434 Y58.327 E0.2651
G1 X87.588 Y58.236 E0.27105
G1 X87.875 Y58.072 E0.28204
G1 X88.267 Y57.856 E0.29693
G1 X88.712 Y57.624 E0.31362
G1 X88.996 Y57.484 E0.32415
G1 X89.242 Y57.366 E0.33322
G1 X89.562 Y57.218 E0.34495
G1 X89.879 Y57.078 E0.35648
G1 X90.072 Y56.996 E0.36345
G1 X90.467 Y56.837 E0.37761
G1 X90.675 Y56.758 E0.38501
G1 X91.06 Y56.62 E0.39862
G1 X91.655 Y56.419 E0.4195
G1 X92.346 Y56.21 E0.44351
G1 X93.071 Y56.017 E0.46847
G1 X93.809 Y55.848 E0.49365
G1 X94.382 Y55.737 E0.51306
G1 X95.128 Y55.619 E0.53818
G1 X95.915 Y55.522 E0.56456
G1 X96.395 Y55.473 E0.5806
G1 X96.547 Y55.461 E0.58568
G1 X97.209 Y55.429 E0.60772
G1 X98.72 Y55.401 E0.65798
G1 X98.924 Y55.399 E0.66477
G1 X138.492 Y55.4 E1.98081
G1 X138.71 Y55.402 E1.98806
G1 X140.272 Y55.433 E2.04002
G1 X140.861 Y55.461 E2.05963
G1 X141.363 Y55.506 E2.0764
G1 X141.834 Y55.562 E2.09217
G1 X142.128 Y55.602 E2.10204
G1 X142.659 Y55.688 E2.11993
G1 X142.906 Y55.734 E2.12829
G1 X143.251 Y55.804 E2.14
G1 X143.588 Y55.878 E2.15147
G1 X144.086 Y56 E2.16853
G1 X144.257 Y56.046 E2.17442
G1 X144.655 Y56.161 E2.18819
G1 X145.023 Y56.275 E2.20101
G1 X145.499 Y56.434 E2.2177
G1 X145.732 Y56.518 E2.22594
G1 X146.13 Y56.67 E2.24011
G1 X146.493 Y56.817 E2.25313
G1 X147.069 Y57.07 E2.27406
G1 X147.312 Y57.185 E2.283
G1 X147.871 Y57.469 E2.30385
G1 X148.427 Y57.772 E2.32491
G1 X149.007 Y58.112 E2.34728
G1 X149.302 Y58.297 E2.35886
G1 X149.766 Y58.604 E2.37736
G1 X149.856 Y58.667 E2.38102
G1 X150.312 Y59.004 E2.39987
G1 X150.902 Y59.464 E2.42476
G1 X151.55 Y60.011 E2.45296
G1 X151.868 Y60.301 E2.46728
G1 X152.325 Y60.742 E2.4884
G1 X152.536 Y60.958 E2.49844
G1 X152.925 Y61.378 E2.51748
G1 X153.189 Y61.678 E2.53077
G1 X153.424 Y61.953 E2.54281
G1 X153.824 Y62.459 E2.56426
G1 X154.013 Y62.713 E2.57479
G1 X154.265 Y63.066 E2.58921
G1 X154.482 Y63.383 E2.60199
G1 X154.707 Y63.726 E2.61564
G1 X154.974 Y64.149 E2.63227
G1 X155.448 Y64.978 E2.66403
G1 X155.694 Y65.455 E2.68188
G1 X155.909 Y65.894 E2.69814
G1 X156.038 Y66.174 E2.7084
G1 X156.357 Y66.936 E2.73587
G1 X156.49 Y67.29 E2.74845
G1 X156.647 Y67.735 E2.76414
G1 X156.722 Y67.964 E2.77216
G1 X156.848 Y68.379 E2.78658
G1 X156.939 Y68.699 E2.79765
G1 X157.042 Y69.087 E2.811
G1 X157.121 Y69.409 E2.82203
G1 X157.249 Y70 E2.84214
G1 X157.286 Y70.197 E2.84881
G1 X157.363 Y70.662 E2.86449
G1 X157.43 Y71.128 E2.88014
G1 X157.522 Y72.026 E2.91017
G1 X157.552 Y72.52 E2.92663
G1 X157.57 Y72.956 E2.94114
G1 X157.598 Y74.29 E2.98552
G1 X157.6 Y74.521 E2.9932
G1 X157.599 Y167.252 E6.07745
G1 X157.589 Y167.943 E6.10044
G1 X157.489 Y169.268 E6.14463
G1 X157.457 Y169.503 E6.15252
G1 X157.291 Y170.426 E6.18371
G1 X157.047 Y171.332 E6.21492
G1 X156.618 Y172.468 E6.25531
G1 X156.53 Y172.667 E6.26254
G1 X156.115 Y173.508 E6.29373
G1 X155.629 Y174.31 E6.32492
G1 X154.869 Y175.321 E6.36699
G1 X154.721 Y175.496 E6.37461
G1 X154.085 Y176.186 E6.40583
G1 X153.393 Y176.819 E6.43702
G1 X152.65 Y177.391 E6.46821
G1 X152.106 Y177.75 E6.48988
G1 X151.886 Y177.886 E6.49849
G1 X151.068 Y178.344 E6.52967
G1 X150.214 Y178.732 E6.56087
G1 X148.996 Y179.141 E6.6036
G1 X148.798 Y179.195 E6.61043
G1 X147.884 Y179.403 E6.6416
G1 X146.955 Y179.533 E6.6728
G1 X146.098 Y179.581 E6.70135
G1 X144.882 Y179.601 E6.7418
G1 X89.75 Y179.599 E8.5755
G1 X89.044 Y179.589 E8.59898
G1 X88.108 Y179.536 E8.63016
G1 X87.61 Y179.474 E8.64686
G1 X87.391 Y179.442 E8.65422
G1 X86.469 Y179.267 E8.68543
G1 X85.566 Y179.014 E8.71662
G1 X84.642 Y178.666 E8.74946
G1 X84.451 Y178.584 E8.75637
G1 X83.605 Y178.177 E8.7876
G1 X82.798 Y177.701 E8.81876
G1 X81.707 Y176.892 E8.86394
G1 X81.524 Y176.738 E8.87189
G1 X80.833 Y176.104 E8.90308
G1 X80.198 Y175.414 E8.93427
G1 X79.625 Y174.672 E8.96545
G1 X79.21 Y174.04 E8.9906
G1 X79.067 Y173.805 E8.99975
G1 X78.614 Y172.984 E9.03094
G1 X78.233 Y172.127 E9.06213
G1 X77.817 Y170.852 E9.10674
G1 X77.77 Y170.671 E9.11296
G1 X77.573 Y169.754 E9.14415
G1 X77.455 Y168.823 E9.17536
G1 X77.419 Y168.099 E9.19947
G1 X77.399 Y166.882 E9.23996
G1 X77.401 Y76.598 E12.24282
G1 X77.419 Y75.488 E12.27974
G1 X77.454 Y74.778 E12.30338
G1 X77.519 Y73.975 E12.33018
G1 X77.608 Y73.208 E12.35586
G1 X77.722 Y72.459 E12.38106
G1 X77.836 Y71.835 E12.40216
G1 X77.897 Y71.547 E12.41195
G1 X78.006 Y71.082 E12.42783
G1 X78.125 Y70.62 E12.4437
G1 X78.273 Y70.099 E12.46171
G1 X78.379 Y69.758 E12.47359
G1 X78.574 Y69.185 E12.49372
G1 X78.813 Y68.543 E12.51651
G1 X79.096 Y67.856 E12.54122
G1 X79.365 Y67.26 E12.56297
G1 X79.697 Y66.587 E12.58793
G1 X80.082 Y65.869 E12.61503
G1 X80.41 Y65.298 E12.63693
G1 X80.564 Y65.048 E12.64669
G1 X80.797 Y64.686 E12.66101
G1 X81.036 Y64.33 E12.67527
G1 X81.36 Y63.872 E12.69393
G1 X81.544 Y63.626 E12.70415
G0 F6000 X81.865 Y63.866
G1 F1200 X82.213 Y63.425 E12.72284
G1 X82.736 Y62.798 E12.74999
G1 X83.233 Y62.243 E12.77477
G1 X83.676 Y61.782 E12.79604
G1 X84.191 Y61.282 E12.81991
G1 X84.694 Y60.825 E12.84251
G1 X85.253 Y60.351 E12.86689
G1 X85.809 Y59.912 E12.89045
G1 X86.146 Y59.656 E12.90453
G1 X86.365 Y59.498 E12.91351
G1 X86.542 Y59.374 E12.9207
G1 X86.879 Y59.148 E12.93419
G1 X87.186 Y58.95 E12.94634
G1 X87.378 Y58.829 E12.95389
G1 X87.637 Y58.671 E12.96398
G1 X87.791 Y58.58 E12.96993
G1 X88.068 Y58.422 E12.98054
G1 X88.46 Y58.206 E12.99543
G1 X88.889 Y57.982 E13.01152
G1 X89.173 Y57.842 E13.02205
G1 X89.41 Y57.729 E13.03079
G1 X89.73 Y57.581 E13.04251
G1 X90.035 Y57.446 E13.05361
G1 X90.228 Y57.364 E13.06058
G1 X90.609 Y57.211 E13.07424
G1 X90.817 Y57.132 E13.08164
G1 X91.189 Y56.999 E13.09478
G1 X91.784 Y56.798 E13.11566
G1 X92.449 Y56.597 E13.13877
G1 X93.174 Y56.404 E13.16372
G1 X93.885 Y56.24 E13.18799
G1 X94.458 Y56.129 E13.20741
G1 X95.177 Y56.016 E13.23161
G1 X95.964 Y55.919 E13.25799
G1 X96.427 Y55.872 E13.27347
G1 X96.579 Y55.86 E13.27854
G1 X97.217 Y55.829 E13.29978
G1 X98.728 Y55.801 E13.35005
G1 X98.924 Y55.799 E13.35657
G1 X138.492 Y55.8 E14.6726
G1 X138.702 Y55.802 E14.67959
G1 X140.264 Y55.833 E14.73155
G1 X140.831 Y55.86 E14.75043
G1 X141.318 Y55.904 E14.76669
G1 X141.78 Y55.959 E14.78217
G1 X142.074 Y55.999 E14.79204
G1 X142.586 Y56.081 E14.80928
G1 X142.833 Y56.127 E14.81764
G1 X143.165 Y56.195 E14.82891
G1 X143.502 Y56.269 E14.84039
G1 X143.983 Y56.386 E14.85685
G1 X144.154 Y56.432 E14.86274
G1 X144.537 Y56.543 E14.876
G1 X144.905 Y56.657 E14.88882
G1 X145.363 Y56.81 E14.90488
G1 X145.596 Y56.894 E14.91312
G1 X145.98 Y57.041 E14.92679
G1 X146.343 Y57.188 E14.93982
G1 X146.898 Y57.432 E14.95998
G1 X147.141 Y57.547 E14.96892
G1 X147.679 Y57.82 E14.98899
G1 X148.235 Y58.123 E15.01005
G1 X148.795 Y58.451 E15.03164
G1 X149.09 Y58.636 E15.04322
G1 X149.537 Y58.932 E15.06105
G1 X149.627 Y58.995 E15.0647
G1 X150.066 Y59.32 E15.08287
G1 X150.656 Y59.78 E15.10775
G1 X151.281 Y60.307 E15.13494
G1 X151.599 Y60.597 E15.14926
G1 X152.039 Y61.022 E15.1696
G1 X152.25 Y61.238 E15.17965
G1 X152.625 Y61.642 E15.19798
G1 X152.889 Y61.942 E15.21127
G1 X153.117 Y62.211 E15.223
G1 X153.503 Y62.698 E15.24367
G1 X153.692 Y62.952 E15.2542
G1 X153.935 Y63.292 E15.2681
G1 X154.152 Y63.609 E15.28088
G1 X154.369 Y63.939 E15.29401
G1 X154.636 Y64.362 E15.31065
G1 X155.093 Y65.161 E15.34126
G1 X155.339 Y65.638 E15.35912
G1 X155.545 Y66.062 E15.37479
G1 X155.674 Y66.341 E15.38502
G1 X155.983 Y67.077 E15.41157
G1 X156.116 Y67.431 E15.42414
G1 X156.267 Y67.86 E15.43927
G1 X156.342 Y68.089 E15.44729
G1 X156.464 Y68.489 E15.4612
G1 X156.555 Y68.809 E15.47226
G1 X156.654 Y69.182 E15.4851
G1 X156.733 Y69.504 E15.49612
G1 X156.856 Y70.073 E15.51549
G1 X156.893 Y70.27 E15.52215
G1 X156.967 Y70.718 E15.53725
G1 X157.034 Y71.184 E15.55291
G1 X157.123 Y72.05 E15.58187
G1 X157.153 Y72.544 E15.59833
G1 X157.17 Y72.965 E15.61234
G1 X157.198 Y74.299 E15.65672
G1 X157.2 Y74.521 E15.66411
G1 X157.199 Y167.246 E18.74815
G1 X157.189 Y167.937 E18.77114
G1 X157.093 Y169.214 E18.81373
G1 X157.061 Y169.449 E18.82162
G1 X156.897 Y170.355 E18.85224
G1 X156.656 Y171.244 E18.88288
G1 X156.252 Y172.306 E18.92067
G1 X156.164 Y172.505 E18.92791
G1 X155.756 Y173.33 E18.95852
G1 X155.277 Y174.116 E18.98913
G1 X154.564 Y175.063 E19.02856
G1 X154.416 Y175.238 E19.03618
G1 X153.791 Y175.914 E19.0668
G1 X153.11 Y176.534 E19.09743
G1 X152.378 Y177.092 E19.12805
G1 X151.896 Y177.409 E19.14724
G1 X151.676 Y177.545 E19.15584
G1 X150.872 Y177.995 E19.18648
G1 X150.033 Y178.373 E19.21709
G1 X148.891 Y178.755 E19.25714
G1 X148.693 Y178.809 E19.26397
G1 X147.795 Y179.013 E19.2946
G1 X146.883 Y179.138 E19.32521
G1 X146.091 Y179.181 E19.35159
G1 X144.882 Y179.201 E19.39181
G1 X89.756 Y179.199 E21.22531
G1 X89.05 Y179.189 E21.24879
G1 X88.131 Y179.136 E21.27941
G1 X87.667 Y179.079 E21.29496
G1 X87.448 Y179.047 E21.30232
G1 X86.544 Y178.874 E21.33293
G1 X85.658 Y178.624 E21.36355
G1 X84.799 Y178.298 E21.39411
G1 X84.608 Y178.216 E21.40102
G1 X83.779 Y177.817 E21.43162
G1 X82.987 Y177.347 E21.46225
G1 X81.965 Y176.586 E21.50463
G1 X81.782 Y176.432 E21.51259
G1 X81.104 Y175.81 E21.54319
G1 X80.482 Y175.13 E21.57384
G1 X79.922 Y174.4 E21.60444
G1 X79.552 Y173.832 E21.62699
G1 X79.409 Y173.597 E21.63614
G1 X78.965 Y172.791 E21.66675
G1 X78.592 Y171.949 E21.69738
G1 X78.204 Y170.751 E21.73926
G1 X78.157 Y170.57 E21.74548
G1 X77.965 Y169.67 E21.77609
G1 X77.851 Y168.756 E21.80672
G1 X77.819 Y168.092 E21.82883
G1 X77.799 Y166.882 E21.86908
G1 X77.801 Y76.604 E24.87174
G1 X77.819 Y75.494 E24.90867
G1 X77.853 Y74.811 E24.93141
G1 X77.918 Y74.008 E24.95821
G1 X78.004 Y73.268 E24.98298
G1 X78.118 Y72.519 E25.00818
G1 X78.227 Y71.918 E25.0285
G1 X78.288 Y71.63 E25.03829
G1 X78.393 Y71.182 E25.05359
G1 X78.512 Y70.72 E25.06946
G1 X78.655 Y70.218 E25.08682
G1 X78.761 Y69.877 E25.0987
G1 X78.949 Y69.325 E25.11809
G1 X79.188 Y68.683 E25.14088
G1 X79.46 Y68.02 E25.16471
G1 X79.729 Y67.424 E25.18646
G1 X80.049 Y66.776 E25.2105
G1 X80.434 Y66.058 E25.2376
G1 X80.751 Y65.508 E25.25871
G1 X80.905 Y65.258 E25.26848
G1 X81.129 Y64.909 E25.28227
G1 X81.368 Y64.553 E25.29653
G1 X81.681 Y64.112 E25.31452
G1 X81.865 Y63.866 E25.32474
G0 F6000 X82.185 Y64.106
G1 F1200 X82.52 Y63.681 E25.34273
G1 X83.043 Y63.054 E25.36989
G1 X83.521 Y62.521 E25.3937
G1 X83.964 Y62.06 E25.41497
G1 X84.46 Y61.578 E25.43797
G1 X84.963 Y61.121 E25.46058
G1 X85.501 Y60.665 E25.48403
G1 X86.057 Y60.226 E25.50759
G1 X86.384 Y59.977 E25.52126
G1 X86.772 Y59.702 E25.53708
G1 X87.096 Y59.484 E25.55007
G1 X87.4 Y59.289 E25.56208
G1 X87.592 Y59.168 E25.56963
G1 X87.841 Y59.016 E25.57933
G1 X88.261 Y58.772 E25.59549
G1 X88.653 Y58.556 E25.61038
G1 X89.066 Y58.341 E25.62586
G1 X89.35 Y58.201 E25.63639
G1 X89.578 Y58.092 E25.6448
G1 X89.898 Y57.944 E25.65653
G1 X90.191 Y57.814 E25.66719
G1 X90.384 Y57.732 E25.67416
G1 X90.751 Y57.585 E25.68731
G1 X90.959 Y57.506 E25.69471
G1 X91.317 Y57.378 E25.70736
G1 X91.912 Y57.177 E25.72825
G1 X92.552 Y56.983 E25.75049
G1 X93.277 Y56.79 E25.77544
G1 X93.961 Y56.633 E25.79878
G1 X94.534 Y56.522 E25.8182
G1 X95.226 Y56.413 E25.8415
G1 X96.013 Y56.316 E25.86787
G1 X96.458 Y56.271 E25.88275
G1 X96.61 Y56.259 E25.88782
G1 X97.224 Y56.229 E25.90826
G1 X98.924 Y56.199 E25.96481
G1 X138.492 Y56.2 E27.28085
G1 X138.694 Y56.202 E27.28757
G1 X140.256 Y56.233 E27.33953
G1 X140.802 Y56.258 E27.35771
G1 X141.273 Y56.301 E27.37344
G1 X141.726 Y56.355 E27.38862
G1 X142.02 Y56.395 E27.39848
G1 X142.512 Y56.474 E27.41506
G1 X142.759 Y56.52 E27.42341
G1 X143.08 Y56.585 E27.43431
G1 X143.417 Y56.659 E27.44578
G1 X143.879 Y56.772 E27.4616
G1 X144.05 Y56.818 E27.46749
G1 X144.418 Y56.925 E27.48024
G1 X144.786 Y57.039 E27.49305
G1 X145.227 Y57.187 E27.50852
G1 X145.46 Y57.271 E27.51676
G1 X145.83 Y57.412 E27.52993
G1 X146.193 Y57.559 E27.54296
G1 X146.727 Y57.793 E27.56235
G1 X146.97 Y57.908 E27.57129
G1 X147.488 Y58.172 E27.59063
G1 X148.044 Y58.475 E27.61169
G1 X148.582 Y58.79 E27.63242
G1 X148.877 Y58.975 E27.644
G1 X149.307 Y59.26 E27.66116
G1 X149.397 Y59.323 E27.66482
G1 X149.82 Y59.635 E27.6823
G1 X150.41 Y60.095 E27.70718
G1 X151.011 Y60.602 E27.73333
G1 X151.329 Y60.892 E27.74765
G1 X151.752 Y61.301 E27.76722
G1 X151.963 Y61.517 E27.77726
G1 X152.324 Y61.907 E27.79494
G1 X152.588 Y62.207 E27.80823
G1 X152.811 Y62.468 E27.81965
G1 X153.182 Y62.937 E27.83954
G1 X153.371 Y63.191 E27.85007
G1 X153.605 Y63.518 E27.86344
G1 X153.822 Y63.835 E27.87622
G1 X154.03 Y64.153 E27.88885
G1 X154.297 Y64.576 E27.90549
G1 X154.737 Y65.345 E27.93496
G1 X154.983 Y65.822 E27.95281
G1 X155.182 Y66.229 E27.96788
G1 X155.311 Y66.51 E27.97816
G1 X155.608 Y67.218 E28.0037
G1 X155.741 Y67.572 E28.01628
G1 X155.886 Y67.984 E28.0308
G1 X155.961 Y68.213 E28.03882
G1 X156.079 Y68.598 E28.05221
G1 X156.17 Y68.918 E28.06328
G1 X156.265 Y69.278 E28.07566
G1 X156.344 Y69.6 E28.08669
G1 X156.463 Y70.147 E28.10531
G1 X156.5 Y70.344 E28.11197
G1 X156.571 Y70.775 E28.1265
G1 X156.638 Y71.241 E28.14216
G1 X156.723 Y72.075 E28.17004
G1 X156.753 Y72.569 E28.1865
G1 X156.77 Y72.973 E28.19995
G1 X156.798 Y74.307 E28.24433
G1 X156.8 Y74.521 E28.25145
G1 X156.799 Y167.241 E31.33533
G1 X156.789 Y167.932 E31.35831
G1 X156.697 Y169.16 E31.39927
G1 X156.665 Y169.395 E31.40716
G1 X156.503 Y170.284 E31.43722
G1 X156.264 Y171.155 E31.46726
G1 X155.887 Y172.144 E31.50246
G1 X155.799 Y172.343 E31.5097
G1 X155.397 Y173.152 E31.53974
G1 X154.926 Y173.922 E31.56976
G1 X154.258 Y174.805 E31.60659
G1 X154.11 Y174.98 E31.61421
G1 X153.497 Y175.643 E31.64425
G1 X152.828 Y176.249 E31.67427
G1 X152.107 Y176.794 E31.70433
G1 X151.685 Y177.069 E31.72108
G1 X151.465 Y177.205 E31.72968
G1 X150.677 Y177.645 E31.7597
G1 X149.853 Y178.014 E31.78973
G1 X148.786 Y178.37 E31.82714
G1 X148.588 Y178.424 E31.83397
G1 X147.707 Y178.622 E31.864
G1 X146.812 Y178.743 E31.89404
G1 X146.084 Y178.781 E31.91829
G1 X144.882 Y178.801 E31.95827
G1 X89.762 Y178.799 E33.79157
G1 X89.056 Y178.789 E33.81505
G1 X87.725 Y178.683 E33.85946
G1 X87.506 Y178.651 E33.86682
G1 X86.619 Y178.481 E33.89686
G1 X85.751 Y178.233 E33.92689
G1 X84.957 Y177.931 E33.95514
G1 X84.766 Y177.849 E33.96206
G1 X83.953 Y177.456 E33.99209
G1 X83.177 Y176.993 E34.02215
G1 X82.222 Y176.28 E34.06178
G1 X82.039 Y176.126 E34.06974
G1 X81.375 Y175.515 E34.09975
G1 X80.767 Y174.847 E34.12979
G1 X80.221 Y174.128 E34.15982
G1 X79.893 Y173.624 E34.17982
G1 X79.75 Y173.389 E34.18897
G1 X79.316 Y172.598 E34.21898
G1 X78.952 Y171.771 E34.24903
G1 X78.591 Y170.651 E34.28817
G1 X78.544 Y170.47 E34.29439
G1 X78.356 Y169.586 E34.32445
G1 X78.247 Y168.69 E34.35447
G1 X78.219 Y168.085 E34.37462
G1 X78.199 Y166.882 E34.41463
G1 X78.201 Y76.611 E37.41706
G1 X78.219 Y75.501 E37.45398
G1 X78.251 Y74.843 E37.47589
G1 X78.316 Y74.04 E37.50269
G1 X78.399 Y73.328 E37.52653
G1 X78.513 Y72.579 E37.55173
G1 X78.618 Y72 E37.5713
G1 X78.679 Y71.712 E37.58109
G1 X78.78 Y71.282 E37.59578
G1 X78.899 Y70.82 E37.61165
G1 X79.037 Y70.336 E37.62839
G1 X79.143 Y69.995 E37.64027
G1 X79.324 Y69.464 E37.65893
