;FLAVOR:Marlin
;TIME:870
;Filament used: 0.300656m
;Layer height: 0.2
;MINX:100.56
;MINY:100.627
;MINZ:0.2
;MAXX:134.436
;MAXY:134.345
;MAXZ:13.8
;Generated with Cura_SteamEngine 4.13.0
M140 S60
M105
M190 S60
M104 S200
M105
M109 S200
M82 ;absolute extrusion mode
; Ender 3 Custom Start G-code
G92 E0 ; Reset Extruder
G28 ; Home all axes
G1 Z2.0 F3000 ; Move Z Axis up little to prevent scratching of Heat Bed
G1 X0.1 Y20 Z0.3 F5000.0 ; Move to start position
G1 X0.1 Y200.0 Z0.3 F1500.0 E15 ; Draw the first line
G1 X0.4 Y200.0 Z0.3 F5000.0 ; Move to side a little
G1 X0.4 Y20 Z0.3 F1500.0 E30 ; Draw the second line
G92 E0 ; Reset Extruder
G1 Z2.0 F3000 ; Move Z Axis up little to prevent scratching of Heat Bed
G1 X5 Y20 Z0.3 F5000.0 ; Move over to prevent blob squish
G92 E0
G92 E0
G1 F1500 E-6.5
;LAYER_COUNT:69
;LAYER:0
M107
G0 F6000 X105.648 Y105.469 Z0.2
;TYPE:SKIRT
G1 F1500 E0
G1 F1200 X106.209 Y104.944 E0.02556
G1 X106.559 Y104.638 E0.04102
G1 X107.343 Y104.013 E0.07437
G1 X107.761 Y103.71 E0.09154
G1 X108.558 Y103.184 E0.1233
G1 X108.988 Y102.926 E0.13998
G1 X109.606 Y102.581 E0.16352
G1 X109.831 Y102.465 E0.17194
G1 X110.144 Y102.31 E0.18355
G1 X110.373 Y102.201 E0.19199
G1 X110.824 Y101.998 E0.20844
G1 X111.106 Y101.879 E0.21862
G1 X111.588 Y101.689 E0.23585
G1 X111.705 Y101.646 E0.24
G1 X112.382 Y101.422 E0.26371
G1 X112.93 Y101.26 E0.28272
G1 X113.571 Y101.091 E0.30477
G1 X113.809 Y101.036 E0.31289
G1 X114.275 Y100.939 E0.32873
G1 X114.517 Y100.894 E0.33691
G1 X115.111 Y100.801 E0.35691
G1 X115.365 Y100.768 E0.36543
G1 X115.73 Y100.726 E0.37765
G1 X116.209 Y100.68 E0.39365
G1 X116.703 Y100.644 E0.41013
G1 X117.507 Y100.627 E0.43687
G1 X117.944 Y100.634 E0.45141
G1 X118.385 Y100.65 E0.46609
G1 X118.862 Y100.682 E0.48199
G1 X119.151 Y100.708 E0.49164
G1 X119.771 Y100.782 E0.51241
G1 X120.164 Y100.84 E0.52562
G1 X120.758 Y100.944 E0.54568
G1 X121.101 Y101.014 E0.55732
G1 X121.663 Y101.144 E0.57651
G1 X121.875 Y101.199 E0.58379
G1 X122.734 Y101.46 E0.61365
G1 X123.279 Y101.65 E0.63285
G1 X123.967 Y101.916 E0.65738
G1 X124.418 Y102.108 E0.67369
G1 X124.933 Y102.343 E0.69251
G1 X125.14 Y102.444 E0.70017
G1 X126.056 Y102.947 E0.73493
G1 X126.396 Y103.155 E0.74819
G1 X126.979 Y103.537 E0.77137
G1 X127.342 Y103.792 E0.78613
G1 X127.916 Y104.224 E0.81002
G1 X128.321 Y104.55 E0.82731
G1 X128.887 Y105.038 E0.85217
G1 X129.227 Y105.352 E0.86756
G1 X129.845 Y105.97 E0.89663
G1 X130.05 Y106.192 E0.90668
G1 X130.386 Y106.574 E0.9236
G1 X130.545 Y106.763 E0.93182
G1 X130.885 Y107.187 E0.94989
G1 X131.053 Y107.408 E0.95913
G1 X131.337 Y107.8 E0.97523
G1 X131.416 Y107.914 E0.97984
G1 X131.737 Y108.404 E0.99932
G1 X132.104 Y108.999 E1.02257
G1 X132.694 Y110.089 E1.0638
G1 X132.839 Y110.397 E1.07512
G1 X133.017 Y110.795 E1.08962
G1 X133.119 Y111.036 E1.09832
G1 X133.299 Y111.489 E1.11454
G1 X133.447 Y111.887 E1.12866
G1 X133.693 Y112.628 E1.15463
G1 X133.773 Y112.901 E1.16409
G1 X133.897 Y113.36 E1.1799
G1 X134.025 Y113.879 E1.19768
G1 X134.22 Y114.857 E1.23085
G1 X134.264 Y115.146 E1.24058
G1 X134.309 Y115.478 E1.25172
G1 X134.337 Y115.709 E1.25946
G1 X134.406 Y116.548 E1.28746
G1 X134.427 Y117.024 E1.3033
G1 X134.436 Y117.692 E1.32552
G1 X134.424 Y118.102 E1.33917
G1 X134.396 Y118.679 E1.35838
G1 X134.34 Y119.377 E1.38167
G1 X134.315 Y119.599 E1.3891
G1 X134.264 Y119.99 E1.40222
G1 X134.247 Y120.104 E1.40605
G1 X134.188 Y120.457 E1.41795
G1 X134.1 Y120.928 E1.43389
G1 X134.071 Y121.072 E1.43878
G1 X133.963 Y121.556 E1.45527
G1 X133.91 Y121.769 E1.46257
G1 X133.792 Y122.203 E1.47753
G1 X133.708 Y122.49 E1.48748
G1 X133.58 Y122.898 E1.5017
G1 X133.525 Y123.062 E1.50745
G1 X133.351 Y123.544 E1.52449
G1 X133.24 Y123.83 E1.5347
G1 X133.031 Y124.332 E1.55278
G1 X132.886 Y124.657 E1.56462
G1 X132.479 Y125.475 E1.59501
G1 X132.253 Y125.886 E1.61061
G1 X131.79 Y126.652 E1.64038
G1 X131.435 Y127.189 E1.66179
G1 X130.867 Y127.972 E1.69396
G1 X130.645 Y128.251 E1.70582
G1 X130.31 Y128.651 E1.72318
G1 X130.133 Y128.853 E1.73211
G1 X129.711 Y129.309 E1.75277
G1 X129.499 Y129.525 E1.76284
G1 X129.135 Y129.879 E1.77973
G1 X128.938 Y130.062 E1.78867
G1 X128.521 Y130.43 E1.80717
G1 X128.254 Y130.654 E1.81876
G1 X127.798 Y131.017 E1.83815
G1 X127.697 Y131.093 E1.84235
G1 X127.2 Y131.445 E1.86261
G1 X126.65 Y131.813 E1.88462
G1 X125.878 Y132.285 E1.91471
G1 X125.556 Y132.464 E1.92696
G1 X125.034 Y132.736 E1.94654
G1 X124.788 Y132.856 E1.95565
G1 X123.935 Y133.229 E1.98661
G1 X123.32 Y133.467 E2.00854
G1 X122.492 Y133.75 E2.03765
G1 X122.086 Y133.871 E2.05174
G1 X121.651 Y133.991 E2.06675
G1 X120.734 Y134.187 E2.09794
G1 X119.803 Y134.305 E2.12915
G1 X118.918 Y134.343 E2.15861
G1 X117.605 Y134.345 E2.20228
G1 X116.113 Y134.344 E2.25191
G1 X115.176 Y134.304 E2.2831
G1 X114.246 Y134.184 E2.31429
G1 X113.419 Y134.009 E2.3424
G1 X113.225 Y133.96 E2.34906
G1 X112.725 Y133.821 E2.36632
G1 X112.435 Y133.733 E2.3764
G1 X112.006 Y133.593 E2.39141
G1 X111.791 Y133.518 E2.39898
G1 X111.301 Y133.334 E2.41639
G1 X111.043 Y133.23 E2.42564
G1 X110.559 Y133.021 E2.44318
G1 X110.246 Y132.877 E2.45463
G1 X109.63 Y132.57 E2.47753
G1 X109.355 Y132.422 E2.48791
G1 X108.761 Y132.078 E2.51074
G1 X108.419 Y131.863 E2.52418
G1 X108.081 Y131.643 E2.53759
G1 X107.658 Y131.353 E2.55465
G1 X107.494 Y131.235 E2.56137
G1 X107.009 Y130.865 E2.58166
G1 X106.76 Y130.664 E2.5923
G1 X106.31 Y130.281 E2.61196
G1 X106.12 Y130.11 E2.62046
G1 X105.734 Y129.745 E2.63813
G1 X105.499 Y129.512 E2.64914
G1 X105.014 Y129 E2.67259
G1 X104.614 Y128.549 E2.69264
G1 X104.008 Y127.802 E2.72464
G1 X103.701 Y127.388 E2.74178
G1 X103.148 Y126.568 E2.77467
G1 X102.974 Y126.283 E2.78578
G1 X102.723 Y125.85 E2.80243
G1 X102.557 Y125.548 E2.81389
G1 X102.244 Y124.933 E2.83684
G1 X102.092 Y124.61 E2.84871
G1 X101.805 Y123.944 E2.87283
G1 X101.743 Y123.786 E2.87848
G1 X101.53 Y123.195 E2.89937
G1 X101.292 Y122.469 E2.92478
G1 X101.104 Y121.831 E2.94691
G1 X100.912 Y120.973 E2.97615
G1 X100.78 Y120.25 E3.00059
G1 X100.641 Y119.216 E3.03529
G1 X100.606 Y118.809 E3.04888
G1 X100.569 Y118.142 E3.0711
G1 X100.562 Y117.862 E3.08042
G1 X100.56 Y117.428 E3.09485
G1 X100.563 Y117.22 E3.10177
G1 X100.579 Y116.742 E3.11768
G1 X100.625 Y116.082 E3.13968
G1 X100.647 Y115.862 E3.14704
G1 X100.728 Y115.234 E3.1681
G1 X100.826 Y114.616 E3.18891
G1 X100.893 Y114.237 E3.20171
G1 X100.915 Y114.124 E3.20554
G1 X101.025 Y113.62 E3.2227
G1 X101.084 Y113.378 E3.23098
G1 X101.343 Y112.484 E3.26194
G1 X101.536 Y111.909 E3.28211
G1 X101.771 Y111.274 E3.30463
G1 X101.857 Y111.062 E3.31224
G1 X102.166 Y110.368 E3.33751
G1 X102.358 Y109.975 E3.35205
G1 X102.853 Y109.072 E3.3863
G1 X103.284 Y108.366 E3.41382
G1 X103.919 Y107.437 E3.45124
G1 X104.059 Y107.253 E3.45893
G1 X104.435 Y106.786 E3.47887
G1 X104.726 Y106.444 E3.49381
G1 X105.303 Y105.816 E3.52218
G1 X105.648 Y105.469 E3.53845
G0 F6000 X105.932 Y105.751
G1 F1200 X106.472 Y105.245 E3.56306
G1 X106.822 Y104.939 E3.57853
G1 X107.578 Y104.337 E3.61067
G1 X107.996 Y104.034 E3.62784
G1 X108.763 Y103.527 E3.65842
G1 X109.193 Y103.269 E3.6751
G1 X109.79 Y102.936 E3.69784
G1 X110.015 Y102.82 E3.70625
G1 X110.316 Y102.671 E3.71743
G1 X110.545 Y102.562 E3.72586
G1 X110.98 Y102.367 E3.74172
G1 X111.262 Y102.248 E3.7519
G1 X111.726 Y102.065 E3.76849
G1 X111.843 Y102.022 E3.77263
G1 X112.495 Y101.806 E3.79548
G1 X113.043 Y101.644 E3.81448
G1 X113.661 Y101.481 E3.83574
G1 X113.899 Y101.426 E3.84387
G1 X114.348 Y101.333 E3.85912
G1 X114.59 Y101.288 E3.8673
G1 X115.162 Y101.197 E3.88657
G1 X115.416 Y101.164 E3.89509
G1 X115.769 Y101.125 E3.9069
G1 X116.248 Y101.079 E3.9229
G1 X116.726 Y101.043 E3.93885
G1 X117.501 Y101.027 E3.96463
G1 X117.938 Y101.034 E3.97917
G1 X118.366 Y101.049 E3.99341
G1 X118.826 Y101.081 E4.00875
G1 X119.115 Y101.107 E4.0184
G1 X119.713 Y101.178 E4.03843
G1 X120.106 Y101.236 E4.05164
G1 X120.678 Y101.336 E4.07095
G1 X121.021 Y101.406 E4.0826
G1 X121.563 Y101.532 E4.1011
G1 X121.775 Y101.587 E4.10839
G1 X122.602 Y101.838 E4.13713
G1 X123.147 Y102.028 E4.15633
G1 X123.81 Y102.284 E4.17997
G1 X124.261 Y102.476 E4.19627
G1 X124.757 Y102.702 E4.2144
G1 X124.964 Y102.803 E4.22206
G1 X125.848 Y103.288 E4.2556
G1 X126.188 Y103.496 E4.26885
G1 X126.749 Y103.864 E4.29117
G1 X127.112 Y104.119 E4.30592
G1 X127.666 Y104.536 E4.32899
G1 X128.071 Y104.862 E4.34628
G1 X128.616 Y105.332 E4.37021
G1 X128.956 Y105.646 E4.38561
G1 X129.552 Y106.242 E4.41364
G1 X129.757 Y106.464 E4.42369
G1 X130.08 Y106.831 E4.43995
G1 X130.239 Y107.02 E4.44817
G1 X130.567 Y107.429 E4.46561
G1 X130.735 Y107.65 E4.47484
G1 X131.008 Y108.027 E4.49032
G1 X131.087 Y108.141 E4.49493
G1 X131.397 Y108.614 E4.51374
G1 X131.764 Y109.209 E4.53699
G1 X132.332 Y110.259 E4.5767
G1 X132.477 Y110.567 E4.58802
G1 X132.649 Y110.95 E4.60199
G1 X132.751 Y111.191 E4.61069
G1 X132.924 Y111.628 E4.62632
G1 X133.072 Y112.026 E4.64045
G1 X133.309 Y112.74 E4.66547
G1 X133.389 Y113.013 E4.67493
G1 X133.509 Y113.456 E4.69019
G1 X133.637 Y113.975 E4.70797
G1 X133.824 Y114.918 E4.73995
G1 X133.868 Y115.207 E4.74967
G1 X133.912 Y115.526 E4.76038
G1 X133.94 Y115.757 E4.76812
G1 X134.007 Y116.566 E4.79512
G1 X134.028 Y117.042 E4.81097
G1 X134.037 Y117.686 E4.83239
G1 X134.025 Y118.083 E4.8456
G1 X133.997 Y118.66 E4.86481
G1 X133.942 Y119.332 E4.88724
G1 X133.917 Y119.554 E4.89467
G1 X133.868 Y119.931 E4.90731
G1 X133.795 Y120.385 E4.92261
G1 X133.708 Y120.849 E4.93831
G1 X133.679 Y120.993 E4.9432
G1 X133.574 Y121.46 E4.95912
G1 X133.521 Y121.673 E4.96642
G1 X133.408 Y122.091 E4.98082
G1 X133.324 Y122.378 E4.99076
G1 X133.201 Y122.77 E5.00443
G1 X133.146 Y122.934 E5.01018
G1 X132.978 Y123.399 E5.02663
G1 X132.867 Y123.685 E5.03683
G1 X132.665 Y124.169 E5.05427
G1 X132.52 Y124.494 E5.06611
G1 X132.128 Y125.282 E5.09538
G1 X131.902 Y125.693 E5.11098
G1 X131.456 Y126.432 E5.13969
G1 X131.101 Y126.969 E5.1611
G1 X130.554 Y127.723 E5.19209
G1 X130.332 Y128.002 E5.20394
G1 X130.009 Y128.388 E5.22068
G1 X129.832 Y128.59 E5.22962
G1 X129.425 Y129.029 E5.24953
G1 X129.213 Y129.245 E5.25959
G1 X128.862 Y129.586 E5.27587
G1 X128.665 Y129.769 E5.28481
G1 X128.264 Y130.124 E5.30263
G1 X127.997 Y130.348 E5.31422
G1 X127.557 Y130.697 E5.3329
G1 X127.456 Y130.773 E5.3371
G1 X126.978 Y131.113 E5.35661
G1 X126.428 Y131.481 E5.37862
G1 X125.683 Y131.936 E5.40766
G1 X125.361 Y132.115 E5.41991
G1 X124.858 Y132.377 E5.43877
G1 X124.612 Y132.497 E5.44788
G1 X123.791 Y132.856 E5.47768
G1 X123.176 Y133.094 E5.49961
G1 X122.378 Y133.366 E5.52765
G1 X121.972 Y133.487 E5.54175
G1 X121.55 Y133.604 E5.55631
G1 X120.65 Y133.796 E5.58692
G1 X119.736 Y133.909 E5.61755
G1 X118.917 Y133.943 E5.64481
G1 X117.609 Y133.945 E5.68832
G1 X116.113 Y133.944 E5.73807
G1 X115.193 Y133.904 E5.7687
G1 X114.28 Y133.784 E5.79933
G1 X113.517 Y133.621 E5.82528
G1 X113.323 Y133.572 E5.83194
G1 X112.841 Y133.438 E5.84857
G1 X112.551 Y133.35 E5.85865
G1 X112.138 Y133.216 E5.8731
G1 X111.923 Y133.141 E5.88067
G1 X111.451 Y132.963 E5.89745
G1 X111.193 Y132.859 E5.9067
G1 X110.726 Y132.658 E5.92361
G1 X110.413 Y132.514 E5.93507
G1 X109.82 Y132.218 E5.95711
G1 X109.545 Y132.07 E5.9675
G1 X108.972 Y131.738 E5.98953
G1 X108.638 Y131.528 E6.00265
G1 X108.3 Y131.308 E6.01606
G1 X107.891 Y131.028 E6.03255
G1 X107.727 Y130.91 E6.03927
G1 X107.26 Y130.554 E6.0588
G1 X107.011 Y130.353 E6.06944
G1 X106.578 Y129.984 E6.08836
G1 X106.388 Y129.813 E6.09687
G1 X106.016 Y129.461 E6.1139
G1 X105.781 Y129.228 E6.12491
G1 X105.314 Y128.735 E6.14749
G1 X104.914 Y128.284 E6.16754
G1 X104.33 Y127.564 E6.19838
G1 X104.023 Y127.15 E6.21552
G1 X103.49 Y126.36 E6.24722
G1 X103.316 Y126.075 E6.25832
G1 X103.074 Y125.657 E6.27439
G1 X102.908 Y125.355 E6.28585
G1 X102.606 Y124.762 E6.30798
G1 X102.454 Y124.439 E6.31985
G1 X102.178 Y123.798 E6.34307
G1 X102.116 Y123.64 E6.34871
G1 X101.91 Y123.07 E6.36887
G1 X101.672 Y122.344 E6.39428
G1 X101.491 Y121.728 E6.41564
G1 X101.305 Y120.901 E6.44383
G1 X101.173 Y120.178 E6.46827
G1 X101.04 Y119.182 E6.5017
G1 X101.005 Y118.775 E6.51528
G1 X100.969 Y118.132 E6.5367
G1 X100.962 Y117.852 E6.54602
G1 X100.96 Y117.434 E6.55992
G1 X100.97 Y116.96 E6.57569
G1 X100.978 Y116.758 E6.58241
G1 X101.023 Y116.122 E6.60362
G1 X101.045 Y115.902 E6.61097
G1 X101.123 Y115.297 E6.63126
G1 X101.221 Y114.679 E6.65207
G1 X101.285 Y114.313 E6.66443
G1 X101.307 Y114.2 E6.66826
G1 X101.414 Y113.715 E6.68478
G1 X101.473 Y113.473 E6.69306
G1 X101.722 Y112.611 E6.72291
G1 X101.915 Y112.036 E6.74308
G1 X102.141 Y111.424 E6.76478
G1 X102.227 Y111.212 E6.77239
G1 X102.526 Y110.544 E6.79673
G1 X102.718 Y110.151 E6.81128
G1 X103.195 Y109.281 E6.84428
G1 X103.626 Y108.575 E6.87179
G1 X104.237 Y107.679 E6.90786
G1 X104.377 Y107.495 E6.91555
G1 X104.74 Y107.045 E6.93478
G1 X105.031 Y106.703 E6.94971
G1 X105.587 Y106.098 E6.97704
G1 X105.932 Y105.751 E6.99332
G0 F6000 X106.216 Y106.033
G1 F1200 X106.735 Y105.546 E7.01699
G1 X107.085 Y105.24 E7.03245
G1 X107.813 Y104.661 E7.06339
G1 X108.231 Y104.358 E7.08056
G1 X108.969 Y103.87 E7.10999
G1 X109.399 Y103.612 E7.12667
G1 X109.973 Y103.292 E7.14853
G1 X110.198 Y103.176 E7.15694
G1 X110.488 Y103.032 E7.16771
G1 X110.717 Y102.923 E7.17615
G1 X111.135 Y102.735 E7.19139
G1 X111.417 Y102.616 E7.20157
G1 X111.864 Y102.44 E7.21755
G1 X111.981 Y102.397 E7.2217
G1 X112.608 Y102.189 E7.24367
G1 X113.156 Y102.027 E7.26268
G1 X113.751 Y101.871 E7.28313
G1 X113.989 Y101.816 E7.29126
G1 X114.421 Y101.726 E7.30594
G1 X114.663 Y101.681 E7.31412
G1 X115.214 Y101.594 E7.33268
G1 X115.468 Y101.561 E7.3412
G1 X115.807 Y101.523 E7.35254
G1 X116.286 Y101.477 E7.36855
G1 X116.749 Y101.443 E7.38399
G1 X117.494 Y101.427 E7.40877
G1 X117.931 Y101.434 E7.42331
G1 X118.348 Y101.449 E7.43719
G1 X118.79 Y101.479 E7.45192
G1 X119.079 Y101.505 E7.46157
G1 X119.654 Y101.573 E7.48083
G1 X120.047 Y101.631 E7.49404
G1 X120.598 Y101.728 E7.51265
G1 X120.941 Y101.798 E7.52429
G1 X121.462 Y101.919 E7.54208
G1 X121.674 Y101.974 E7.54937
G1 X122.471 Y102.216 E7.57707
G1 X123.016 Y102.406 E7.59627
G1 X123.653 Y102.652 E7.61898
G1 X124.104 Y102.844 E7.63528
G1 X124.582 Y103.062 E7.65276
G1 X124.789 Y103.163 E7.66042
G1 X125.639 Y103.629 E7.69266
G1 X125.979 Y103.837 E7.70592
G1 X126.519 Y104.192 E7.72741
G1 X126.882 Y104.447 E7.74216
G1 X127.415 Y104.847 E7.76433
G1 X127.82 Y105.173 E7.78162
G1 X128.344 Y105.626 E7.80466
G1 X128.684 Y105.94 E7.82005
G1 X129.258 Y106.513 E7.84703
G1 X129.463 Y106.735 E7.85708
G1 X129.774 Y107.089 E7.87275
G1 X129.933 Y107.278 E7.88097
G1 X130.248 Y107.671 E7.89772
G1 X130.416 Y107.892 E7.90695
G1 X130.68 Y108.255 E7.92188
G1 X130.759 Y108.369 E7.92649
G1 X131.056 Y108.824 E7.94456
G1 X131.423 Y109.419 E7.96782
G1 X131.97 Y110.429 E8.00602
G1 X132.115 Y110.737 E8.01734
G1 X132.28 Y111.106 E8.03079
G1 X132.382 Y111.347 E8.03949
G1 X132.549 Y111.768 E8.05455
G1 X132.697 Y112.166 E8.06868
G1 X132.925 Y112.853 E8.09275
G1 X133.005 Y113.126 E8.10221
G1 X133.12 Y113.552 E8.11689
G1 X133.248 Y114.071 E8.13467
G1 X133.429 Y114.978 E8.16543
G1 X133.473 Y115.267 E8.17515
G1 X133.515 Y115.575 E8.18549
G1 X133.543 Y115.806 E8.19323
G1 X133.607 Y116.583 E8.21916
G1 X133.628 Y117.059 E8.23501
G1 X133.637 Y117.679 E8.25563
G1 X133.625 Y118.063 E8.26841
G1 X133.597 Y118.64 E8.28763
G1 X133.545 Y119.287 E8.30921
G1 X133.52 Y119.509 E8.31664
G1 X133.472 Y119.872 E8.32882
G1 X133.401 Y120.313 E8.34368
G1 X133.316 Y120.77 E8.35914
G1 X133.287 Y120.914 E8.36403
G1 X133.186 Y121.363 E8.37933
G1 X133.133 Y121.576 E8.38663
G1 X133.024 Y121.978 E8.40049
G1 X132.94 Y122.265 E8.41043
G1 X132.822 Y122.643 E8.4236
G1 X132.767 Y122.807 E8.42936
G1 X132.605 Y123.255 E8.4452
G1 X132.494 Y123.541 E8.45541
G1 X132.3 Y124.006 E8.47216
G1 X132.155 Y124.331 E8.484
G1 X131.778 Y125.09 E8.51219
G1 X131.552 Y125.501 E8.52779
G1 X131.123 Y126.211 E8.55538
G1 X130.768 Y126.748 E8.57679
G1 X130.241 Y127.474 E8.60663
G1 X130.019 Y127.753 E8.61849
G1 X129.709 Y128.124 E8.63457
G1 X129.532 Y128.326 E8.6435
G1 X129.14 Y128.749 E8.66268
G1 X128.928 Y128.965 E8.67275
G1 X128.59 Y129.293 E8.68841
G1 X128.393 Y129.476 E8.69735
G1 X128.007 Y129.817 E8.71448
G1 X127.74 Y130.041 E8.72608
