;FLAVOR:Marlin
;TIME:9452
;Filament used: 6.56122m
;Layer height: 0.2
;MINX:5.376
;MINY:53.881
;MINZ:0.2
;MAXX:229.624
;MAXY:181.119
;MAXZ:1
;TARGET_MACHINE.NAME:Creality Ender-3
;Generated with Cura_SteamEngine 5.8.1
M140 S50
M105
M190 S50
M104 S200
M105
M109 S200
M82 ;absolute extrusion mode
; Ender 3 Custom Start G-code
G92 E0 ; Reset Extruder
G28 ; Home all axes
G1 Z2.0 F3000 ; Move Z Axis up little to prevent scratching of Heat Bed
G1 X0.1 Y20 Z0.3 F5000.0 ; Move to start position
G1 X0.1 Y200.0 Z0.3 F1500.0 E15 ; Draw the first line
G1 X0.4 Y200.0 Z0.3 F5000.0 ; Move to side a little
G1 X0.4 Y20 Z0.3 F1500.0 E30 ; Draw the second line
G92 E0 ; Reset Extruder
G1 Z2.0 F3000 ; Move Z Axis up little to prevent scratching of Heat Bed
G1 X5 Y20 Z0.3 F5000.0 ; Move over to prevent blob squish
G92 E0
G92 E0
G1 F2700 E-5
;LAYER_COUNT:5
;LAYER:0
M107
G0 F6000 X13.925 Y54.17 Z0.2
;TYPE:SKIRT
G1 F2700 E0
G1 F1200 X14.892 Y53.992 E0.0327
G1 X16.031 Y53.896 E0.07072
G1 X16.688 Y53.881 E0.09258
G1 X217.928 Y53.881 E6.78585
G1 X218.808 Y53.894 E6.81512
G1 X219.78 Y53.953 E6.84751
G1 X220.743 Y54.099 E6.8799
G1 X221.69 Y54.33 E6.91232
G1 X222.578 Y54.63 E6.9435
G1 X223.47 Y55.02 E6.97588
G1 X224.353 Y55.507 E7.00942
G1 X225.104 Y56.009 E7.03946
G1 X225.919 Y56.667 E7.0743
G1 X226.617 Y57.345 E7.10667
G1 X227.253 Y58.082 E7.13905
G1 X227.823 Y58.872 E7.17145
G1 X228.285 Y59.648 E7.20148
G1 X228.739 Y60.59 E7.23626
G1 X229.068 Y61.468 E7.26745
G1 X229.337 Y62.44 E7.30099
G1 X229.514 Y63.406 E7.33366
G1 X229.609 Y64.536 E7.37137
G1 X229.624 Y65.211 E7.39383
G1 X229.623 Y169.519 E10.86313
G1 X229.612 Y170.282 E10.88851
G1 X229.555 Y171.255 E10.92093
G1 X229.41 Y172.218 E10.95332
G1 X229.181 Y173.164 E10.98569
G1 X228.87 Y174.088 E11.01812
G1 X228.478 Y174.979 E11.05049
G1 X228.01 Y175.831 E11.08282
G1 X227.488 Y176.612 E11.11407
G1 X226.855 Y177.397 E11.14761
G1 X226.23 Y178.048 E11.17762
G1 X225.441 Y178.736 E11.21244
G1 X224.681 Y179.286 E11.24364
G1 X223.814 Y179.803 E11.27722
G1 X222.936 Y180.225 E11.30962
G1 X222.025 Y180.567 E11.34198
G1 X221.086 Y180.828 E11.3744
G1 X220.12 Y181.006 E11.40707
G1 X218.969 Y181.104 E11.44549
G1 X218.294 Y181.119 E11.46795
G1 X16.94 Y181.118 E18.16501
G1 X16.207 Y181.107 E18.18939
G1 X15.235 Y181.05 E18.22177
G1 X14.272 Y180.904 E18.25417
G1 X13.326 Y180.675 E18.28654
G1 X12.402 Y180.363 E18.31898
G1 X11.512 Y179.971 E18.35132
G1 X10.689 Y179.52 E18.38254
G1 X9.85 Y178.959 E18.41611
G1 X9.146 Y178.393 E18.44615
G1 X8.393 Y177.668 E18.48092
G1 X7.756 Y176.932 E18.51329
G1 X7.226 Y176.201 E18.54332
G1 X6.69 Y175.304 E18.57808
G1 X6.268 Y174.426 E18.61048
G1 X5.926 Y173.514 E18.64288
G1 X5.666 Y172.576 E18.67525
G1 X5.488 Y171.607 E18.70802
G1 X5.39 Y170.428 E18.74737
G1 X5.376 Y169.777 E18.76902
G1 X5.377 Y65.406 E22.24042
G1 X5.388 Y64.706 E22.2637
G1 X5.446 Y63.733 E22.29612
G1 X5.592 Y62.77 E22.32852
G1 X5.822 Y61.824 E22.3609
G1 X6.135 Y60.901 E22.39331
G1 X6.527 Y60.011 E22.42566
G1 X6.997 Y59.158 E22.45805
G1 X7.54 Y58.35 E22.49043
G1 X8.107 Y57.646 E22.5205
G1 X8.832 Y56.894 E22.55524
G1 X9.568 Y56.257 E22.58761
G1 X10.3 Y55.727 E22.61767
G1 X11.197 Y55.192 E22.65241
G1 X12.075 Y54.771 E22.6848
G1 X12.988 Y54.429 E22.71722
G1 X13.925 Y54.17 E22.74956
G0 F6000 X13.998 Y54.563
G1 F1200 X14.926 Y54.391 E22.78095
G1 X16.065 Y54.295 E22.81897
G1 X16.697 Y54.281 E22.83999
G1 X217.922 Y54.281 E29.53276
G1 X218.784 Y54.293 E29.56143
G1 X219.721 Y54.349 E29.59265
G1 X220.649 Y54.488 E29.62386
G1 X221.562 Y54.709 E29.65511
G1 X222.418 Y54.997 E29.68515
G1 X223.31 Y55.387 E29.71753
G1 X224.131 Y55.84 E29.74871
G1 X224.882 Y56.342 E29.77876
G1 X225.641 Y56.954 E29.81119
G1 X226.315 Y57.607 E29.8424
G1 X226.929 Y58.316 E29.8736
G1 X227.479 Y59.077 E29.90483
G1 X227.941 Y59.853 E29.93486
G1 X228.364 Y60.73 E29.96725
G1 X228.693 Y61.608 E29.99843
G1 X228.944 Y62.513 E30.02967
G1 X229.115 Y63.44 E30.06102
G1 X229.21 Y64.57 E30.09874
G1 X229.224 Y65.211 E30.12006
G1 X229.223 Y169.514 E33.5892
G1 X229.213 Y170.259 E33.61398
G1 X229.159 Y171.196 E33.64519
G1 X229.021 Y172.125 E33.67643
G1 X228.802 Y173.037 E33.70763
G1 X228.504 Y173.927 E33.73884
G1 X228.127 Y174.787 E33.77007
G1 X227.677 Y175.609 E33.80124
G1 X227.155 Y176.39 E33.83249
G1 X226.566 Y177.12 E33.86368
G1 X225.941 Y177.771 E33.8937
G1 X225.206 Y178.412 E33.92614
G1 X224.446 Y178.962 E33.95734
G1 X223.64 Y179.443 E33.98856
G1 X222.795 Y179.851 E34.01977
G1 X221.917 Y180.182 E34.05098
G1 X221.013 Y180.435 E34.0822
G1 X220.086 Y180.607 E34.11356
G1 X218.935 Y180.705 E34.15198
G1 X218.294 Y180.719 E34.1733
G1 X16.946 Y180.718 E40.87016
G1 X16.23 Y180.708 E40.89398
G1 X15.294 Y180.654 E40.92516
G1 X14.365 Y180.515 E40.95641
G1 X13.453 Y180.296 E40.9876
G1 X12.563 Y179.997 E41.01883
G1 X11.704 Y179.62 E41.05003
G1 X10.881 Y179.169 E41.08124
G1 X10.101 Y178.647 E41.11246
G1 X9.397 Y178.081 E41.14251
G1 X8.695 Y177.406 E41.1749
G1 X8.08 Y176.697 E41.20611
G1 X7.55 Y175.966 E41.23614
G1 X7.05 Y175.13 E41.26854
G1 X6.642 Y174.285 E41.29975
G1 X6.311 Y173.407 E41.33096
G1 X6.059 Y172.503 E41.36218
G1 X5.887 Y171.574 E41.3936
G1 X5.789 Y170.395 E41.43295
G1 X5.776 Y169.777 E41.45351
G1 X5.777 Y65.412 E44.9247
G1 X5.787 Y64.729 E44.94742
G1 X5.842 Y63.792 E44.97864
G1 X5.981 Y62.864 E45.00985
G1 X6.201 Y61.952 E45.04105
G1 X6.501 Y61.062 E45.07229
G1 X6.878 Y60.203 E45.10349
G1 X7.329 Y59.381 E45.13468
G1 X7.852 Y58.601 E45.16591
G1 X8.419 Y57.897 E45.19598
G1 X9.094 Y57.196 E45.22834
G1 X9.803 Y56.581 E45.25956
G1 X10.535 Y56.051 E45.28962
G1 X11.371 Y55.552 E45.322
G1 X12.216 Y55.145 E45.35319
G1 X13.095 Y54.814 E45.38443
G1 X13.998 Y54.563 E45.41561
G0 F6000 X14.072 Y54.956
G1 F1200 X14.96 Y54.79 E45.44565
G1 X16.099 Y54.694 E45.48367
G1 X16.706 Y54.681 E45.50386
G1 X217.917 Y54.681 E52.19617
G1 X218.761 Y54.692 E52.22424
G1 X219.663 Y54.745 E52.2543
G1 X220.556 Y54.877 E52.28432
G1 X221.434 Y55.088 E52.31435
G1 X222.29 Y55.376 E52.34439
G1 X223.117 Y55.738 E52.37442
G1 X223.909 Y56.173 E52.40447
G1 X224.66 Y56.675 E52.43452
G1 X225.363 Y57.242 E52.46456
G1 X226.013 Y57.869 E52.49459
G1 X226.605 Y58.551 E52.52463
G1 X227.135 Y59.282 E52.55466
G1 X227.597 Y60.058 E52.5847
G1 X227.99 Y60.871 E52.61473
G1 X228.308 Y61.716 E52.64476
G1 X228.551 Y62.586 E52.67481
G1 X228.716 Y63.474 E52.70485
G1 X228.811 Y64.604 E52.74256
G1 X228.824 Y65.211 E52.76276
G1 X228.823 Y169.509 E56.23172
G1 X228.814 Y170.236 E56.25591
G1 X228.763 Y171.138 E56.28595
G1 X228.632 Y172.032 E56.31601
G1 X228.423 Y172.91 E56.34602
G1 X228.137 Y173.767 E56.37607
G1 X227.776 Y174.595 E56.40612
G1 X227.344 Y175.387 E56.43612
G1 X226.843 Y176.139 E56.46618
G1 X226.277 Y176.843 E56.49622
G1 X225.652 Y177.494 E56.52624
G1 X224.971 Y178.088 E56.55629
G1 X224.24 Y178.619 E56.58634
G1 X223.466 Y179.083 E56.61636
G1 X222.653 Y179.477 E56.64641
G1 X221.809 Y179.797 E56.67643
G1 X220.939 Y180.042 E56.70649
G1 X220.052 Y180.208 E56.7365
G1 X218.901 Y180.306 E56.77492
G1 X218.294 Y180.319 E56.79512
G1 X16.951 Y180.318 E63.49181
G1 X16.253 Y180.309 E63.51503
G1 X15.352 Y180.258 E63.54505
G1 X14.458 Y180.126 E63.5751
G1 X13.58 Y179.917 E63.60512
G1 X12.723 Y179.63 E63.63518
G1 X11.896 Y179.269 E63.66519
G1 X11.103 Y178.836 E63.69525
G1 X10.352 Y178.335 E63.72527
G1 X9.648 Y177.769 E63.75532
G1 X8.997 Y177.143 E63.78535
G1 X8.404 Y176.462 E63.81539
G1 X7.874 Y175.731 E63.84542
G1 X7.41 Y174.956 E63.87546
G1 X7.016 Y174.143 E63.90551
G1 X6.696 Y173.299 E63.93553
G1 X6.452 Y172.429 E63.96559
G1 X6.286 Y171.541 E63.99563
G1 X6.189 Y170.386 E64.03418
G1 X6.176 Y169.777 E64.05444
G1 X6.177 Y65.417 E67.52547
G1 X6.186 Y64.752 E67.54759
G1 X6.238 Y63.85 E67.57764
G1 X6.37 Y62.957 E67.60767
G1 X6.58 Y62.079 E67.63769
G1 X6.867 Y61.222 E67.66775
G1 X7.229 Y60.395 E67.69778
G1 X7.662 Y59.603 E67.7278
G1 X8.164 Y58.852 E67.75784
G1 X8.731 Y58.148 E67.78791
G1 X9.357 Y57.498 E67.81792
G1 X10.038 Y56.905 E67.84796
G1 X10.77 Y56.375 E67.87802
G1 X11.545 Y55.912 E67.90804
G1 X12.358 Y55.519 E67.93808
G1 X13.203 Y55.199 E67.96813
G1 X14.072 Y54.956 E67.99814
G1 F2700 E62.99814
;MESH:oc_segments_lg_04.stl
G0 F6000 X35.911 Y124.233
G0 X43.875 Y145.351
;TYPE:WALL-INNER
G1 F2700 E67.99814
G1 F1200 X45.14 Y144.256 E68.05379
G1 X46.762 Y140.846 E68.17938
G1 X47.317 Y135.626 E68.35398
G1 X47.018 Y131.659 E68.4863
G1 X46.139 Y128.755 E68.58721
G1 X44.683 Y126.752 E68.66957
G1 X42.567 Y125.43 E68.75256
G1 X39.662 Y124.671 E68.85242
G1 X35.891 Y124.412 E68.97814
G1 X32.732 Y124.412 E69.08321
G1 X32.732 Y146.852 E69.82957
G1 X36.502 Y146.852 E69.95496
G1 X42.046 Y146.159 E70.14079
G1 X43.875 Y145.351 E70.20729
G0 F6000 X44.091 Y145.693
;TYPE:WALL-OUTER
G1 F1200 X45.465 Y144.504 E70.26773
G1 X47.152 Y140.956 E70.39839
G1 X47.719 Y135.632 E70.57647
G1 X47.414 Y131.585 E70.71146
G1 X46.502 Y128.575 E70.81606
G1 X44.961 Y126.454 E70.90326
G1 X42.727 Y125.058 E70.99088
G1 X39.727 Y124.275 E71.094
G1 X35.905 Y124.012 E71.22142
G1 X32.332 Y124.012 E71.34026
G1 X32.332 Y147.252 E72.11323
G1 X36.527 Y147.252 E72.25275
G1 X42.154 Y146.549 E72.44136
G1 X44.091 Y145.693 E72.5118
G0 F6000 X43.679 Y145.041
;TYPE:SKIN
G1 F1200 X41.946 Y145.805 E72.57479
G1 X36.475 Y146.492 E72.75819
G1 X33.092 Y146.492 E72.87071
G1 X33.092 Y124.772 E73.59312
G1 X35.865 Y124.772 E73.68535
G1 X39.599 Y125.027 E73.80983
G1 X42.423 Y125.766 E73.90692
G1 X44.429 Y127.018 E73.98557
G1 X45.81 Y128.915 E74.06361
G1 X46.658 Y131.721 E74.16111
G1 X46.951 Y135.624 E74.29129
G1 X46.408 Y140.744 E74.46253
G1 X44.845 Y144.032 E74.58362
G1 X43.679 Y145.041 E74.63491
G0 F6000 X43.85 Y145.239
G0 X42.002 Y146.002
G0 X36.492 Y146.691
G0 X33.292 Y146.752
G0 X33.292 Y145.863
G1 F1200 X33.721 Y146.292 E74.65508
G0 F6000 X34.286 Y146.292
G1 F1200 X33.292 Y145.298 E74.70184
G0 F6000 X33.292 Y144.732
G1 F1200 X34.852 Y146.292 E74.77522
G0 F6000 X35.418 Y146.292
G1 F1200 X33.292 Y144.166 E74.87522
G0 F6000 X33.292 Y143.601
G1 F1200 X35.983 Y146.292 E75.00179
G0 F6000 X36.54 Y146.283
G1 F1200 X33.292 Y143.035 E75.15457
G0 F6000 X33.292 Y142.469
G1 F1200 X37.042 Y146.219 E75.33096
G0 F6000 X37.545 Y146.156
G1 F1200 X33.292 Y141.904 E75.53098
G0 F6000 X33.292 Y141.338
G1 F1200 X38.047 Y146.093 E75.75464
G0 F6000 X38.549 Y146.03
G1 F1200 X33.292 Y140.772 E76.00194
G0 F6000 X33.292 Y140.207
G1 F1200 X39.052 Y145.967 E76.27287
G0 F6000 X39.555 Y145.904
G1 F1200 X33.292 Y139.641 E76.56746
G0 F6000 X33.292 Y139.075
G1 F1200 X40.057 Y145.84 E76.88567
G0 F6000 X40.56 Y145.777
G1 F1200 X33.292 Y138.509 E77.22753
G0 F6000 X33.292 Y137.944
G1 F1200 X41.062 Y145.714 E77.59301
G0 F6000 X41.565 Y145.651
G1 F1200 X33.292 Y137.378 E77.98215
G0 F6000 X33.292 Y136.812
G1 F1200 X42.029 Y145.549 E78.39311
G0 F6000 X42.421 Y145.376
G1 F1200 X33.292 Y136.247 E78.82251
G0 F6000 X33.292 Y135.681
G1 F1200 X42.814 Y145.203 E79.2704
G0 F6000 X43.207 Y145.03
G1 F1200 X33.292 Y135.115 E79.73677
G0 F6000 X33.292 Y134.55
G1 F1200 X43.593 Y144.851 E80.22129
G0 F6000 X43.896 Y144.588
G1 F1200 X33.292 Y133.984 E80.72007
G0 F6000 X33.292 Y133.418
G1 F1200 X44.199 Y144.325 E81.23311
G0 F6000 X44.502 Y144.063
G1 F1200 X33.292 Y132.853 E81.76039
G0 F6000 X33.292 Y132.287
G1 F1200 X44.757 Y143.752 E82.29967
G0 F6000 X44.939 Y143.368
G1 F1200 X33.292 Y131.721 E82.84751
G0 F6000 X33.292 Y131.156
G1 F1200 X45.121 Y142.985 E83.40391
G0 F6000 X45.304 Y142.602
G1 F1200 X33.292 Y130.59 E83.96891
G0 F6000 X33.292 Y130.024
G1 F1200 X45.486 Y142.218 E84.54248
G0 F6000 X45.668 Y141.835
G1 F1200 X33.292 Y129.459 E85.12461
G0 F6000 X33.292 Y128.893
G1 F1200 X45.851 Y141.452 E85.71535
G0 F6000 X46.033 Y141.069
G1 F1200 X33.292 Y128.327 E86.31467
G0 F6000 X33.292 Y127.761
G1 F1200 X46.214 Y140.683 E86.92248
G0 F6000 X46.268 Y140.172
G1 F1200 X33.292 Y127.196 E87.53283
G0 F6000 X33.292 Y126.63
G1 F1200 X46.323 Y139.661 E88.14577
G0 F6000 X46.377 Y139.149
G1 F1200 X33.292 Y126.064 E88.76125
G0 F6000 X33.292 Y125.499
G1 F1200 X46.431 Y138.637 E89.37924
G0 F6000 X46.485 Y138.126
G1 F1200 X33.332 Y124.973 E89.99792
G0 F6000 X33.897 Y124.973
G1 F1200 X46.54 Y137.615 E90.59258
G0 F6000 X46.593 Y137.103
G1 F1200 X34.463 Y124.973 E91.16314
G0 F6000 X35.029 Y124.973
G1 F1200 X46.648 Y136.592 E91.70967
G0 F6000 X46.702 Y136.081
G1 F1200 X35.594 Y124.973 E92.23215
G0 F6000 X36.182 Y124.995
G1 F1200 X46.746 Y135.559 E92.72905
G0 F6000 X46.7 Y134.947
G1 F1200 X36.789 Y125.036 E93.19523
G0 F6000 X37.396 Y125.077
G1 F1200 X46.654 Y134.335 E93.6307
G0 F6000 X46.608 Y133.724
G1 F1200 X38.003 Y125.118 E94.03548
G0 F6000 X38.61 Y125.16
G1 F1200 X46.562 Y133.111 E94.40949
G0 F6000 X46.516 Y132.5
G1 F1200 X39.218 Y125.202 E94.75277
G0 F6000 X39.891 Y125.31
G1 F1200 X46.47 Y131.888 E95.0622
G0 F6000 X46.267 Y131.12
G1 F1200 X40.658 Y125.511 E95.32603
G0 F6000 X41.424 Y125.712
G1 F1200 X46.023 Y130.31 E95.54233
G0 F6000 X45.778 Y129.5
G1 F1200 X42.191 Y125.912 E95.71107
G0 F6000 X42.309 Y125.467
G0 X43.792 Y126.315
G0 X43.549 Y126.704
G1 F1200 X45.037 Y128.193 E95.78109
G1 F2700 E90.78109
G0 F6000 X45.41 Y127.924
G0 X45.992 Y128.829
G0 X46.859 Y131.689
G0 X47.155 Y135.623
G0 X46.939 Y140.9
G0 X47.918 Y141.365
G0 X54.343 Y146.647
G0 X52.815 Y150.669
;TYPE:WALL-INNER
G1 F2700 E95.78109
G1 F1200 X48.598 Y153.211 E95.94486
G1 X43.175 Y154.7 E96.1319
G1 X36.589 Y155.195 E96.35157
G1 X22.101 Y155.196 E96.83344
G1 X21.859 Y155.113 E96.84195
G1 X21.654 Y154.913 E96.85148
G1 X21.564 Y154.713 E96.85877
G1 X21.564 Y83.03 E99.24296
G1 X21.654 Y82.831 E99.25022
G1 X21.859 Y82.63 E99.25977
G1 X22.101 Y82.548 E99.26827
G1 X32.184 Y82.55 E99.60363
G1 X32.499 Y82.672 E99.61487
G1 X32.695 Y82.939 E99.62589
G1 X32.733 Y83.148 E99.63295
G1 X32.732 Y116.068 E100.72787
G1 X39.44 Y116.068 E100.95098
G1 X48.681 Y82.939 E102.09492
G1 X48.761 Y82.79 E102.10055
G1 X48.915 Y82.645 E102.10758
G1 X49.193 Y82.55 E102.11735
G1 X58.974 Y82.55 E102.44267
G1 X59.195 Y82.652 E102.45077
G1 X59.328 Y82.776 E102.45682
G1 X59.438 Y82.998 E102.46506
G1 X59.444 Y83.273 E102.4742
G1 X49.432 Y118.636 E103.69661
G1 X51.919 Y119.822 E103.78826
G1 X54.287 Y121.92 E103.89348
G1 X56.045 Y124.667 E104.00195
G1 X57.24 Y127.903 E104.11669
G1 X58.139 Y135.629 E104.37539
G1 X57.546 Y141.896 E104.58476
G1 X55.767 Y146.87 E104.76046
G1 X52.815 Y150.669 E104.92048
G1 F2700 E99.92048
G0 F6000 X55.924 Y146.961
G0 X69.859 Y149.149
G0 X91.988 Y155.184
G1 F2700 E104.92048
G1 F1200 X85.845 Y155.812 E105.12586
G1 X78.945 Y155.048 E105.35676
G1 X73.682 Y152.714 E105.54825
G1 X70.004 Y149.043 E105.72109
G1 X67.639 Y144.118 E105.9028
G1 X66.416 Y138.112 E106.10666
G1 X66.021 Y131.356 E106.33175
G1 X66.02 Y106.072 E107.1727
G1 X66.419 Y99.718 E107.38445
G1 X67.637 Y93.887 E107.58257
G1 X70.008 Y88.908 E107.76599
G1 X73.623 Y85.088 E107.94092
G1 X73.776 Y84.984 E107.94707
G1 X78.93 Y82.564 E108.13645
G1 X85.852 Y81.752 E108.36826
G1 X92.265 Y82.453 E108.58283
G1 X97.139 Y84.588 E108.75981
G1 X100.595 Y88.096 E108.92359
G1 X102.828 Y92.651 E109.09232
G1 X104.044 Y98.172 E109.28035
G1 X104.445 Y104.396 E109.48779
G1 X104.444 Y109.777 E109.66676
G1 X104.305 Y110.086 E109.67803
G1 X104.099 Y110.244 E109.68667
G1 X103.902 Y110.298 E109.69346
G1 X94.299 Y110.298 E110.01286
G1 X94.082 Y110.205 E110.02071
G1 X93.866 Y109.959 E110.0316
G1 X93.81 Y109.755 E110.03863
G1 X93.808 Y104.434 E110.21561
G1 X93.368 Y97.09 E110.46031
G1 X92.641 Y94.406 E110.5528
G1 X91.338 Y92.419 E110.63183
G1 X89.231 Y91.229 E110.71231
G1 X85.93 Y90.809 E110.82299
G1 X82.999 Y91.124 E110.92104
G1 X80.81 Y92.036 E110.99991
G1 X79.233 Y93.632 E111.07453
G1 X78.135 Y96.121 E111.16502
G1 X77.494 Y99.723 E111.2867
G1 X77.276 Y104.518 E111.44635
G1 X77.276 Y132.775 E112.38618
G1 X77.802 Y140.374 E112.63953
G1 X78.694 Y143.157 E112.73673
G1 X80.168 Y145.137 E112.81883
G1 X82.466 Y146.407 E112.90616
G1 X85.943 Y146.847 E113.02273
G1 X89.305 Y146.449 E113.13533
G1 X91.442 Y145.31 E113.21587
G1 X92.705 Y143.497 E113.28936
G1 X93.368 Y140.921 E113.37783
G1 X93.808 Y134.012 E113.60809
G1 X93.81 Y128.961 E113.77609
G1 X93.89 Y128.711 E113.78482
G1 X93.979 Y128.595 E113.78968
G1 X94.183 Y128.459 E113.79783
G1 X94.359 Y128.417 E113.80385
