;FLAVOR:Marlin
;TIME:7223
;Filament used: 4.92644m
;Layer height: 0.2
;MINX:12.057
;MINY:53.881
;MINZ:0.2
;MAXX:222.783
;MAXY:181.119
;MAXZ:1
;TARGET_MACHINE.NAME:Creality Ender-3
;Generated with Cura_SteamEngine 5.8.1
M140 S50
M105
M190 S50
M104 S200
M105
M109 S200
M82 ;absolute extrusion mode
; Ender 3 Custom Start G-code
G92 E0 ; Reset Extruder
G28 ; Home all axes
G1 Z2.0 F3000 ; Move Z Axis up little to prevent scratching of Heat Bed
G1 X0.1 Y20 Z0.3 F5000.0 ; Move to start position
G1 X0.1 Y200.0 Z0.3 F1500.0 E15 ; Draw the first line
G1 X0.4 Y200.0 Z0.3 F5000.0 ; Move to side a little
G1 X0.4 Y20 Z0.3 F1500.0 E30 ; Draw the second line
G92 E0 ; Reset Extruder
G1 Z2.0 F3000 ; Move Z Axis up little to prevent scratching of Heat Bed
G1 X5 Y20 Z0.3 F5000.0 ; Move over to prevent blob squish
G92 E0
G92 E0
G1 F2700 E-5
;LAYER_COUNT:5
;LAYER:0
M107
G0 F6000 X19.685 Y54.423 Z0.2
;TYPE:SKIRT
G1 F2700 E0
G1 F1200 X20.589 Y54.173 E0.0312
G1 X21.591 Y53.99 E0.06507
G1 X22.762 Y53.894 E0.10415
G1 X23.369 Y53.881 E0.12435
G1 X211.113 Y53.881 E6.36874
G1 X211.985 Y53.894 E6.39774
G1 X212.959 Y53.953 E6.4302
G1 X213.92 Y54.1 E6.46253
G1 X214.867 Y54.331 E6.49495
G1 X215.755 Y54.631 E6.52613
G1 X216.68 Y55.037 E6.55973
G1 X217.472 Y55.472 E6.58978
G1 X218.338 Y56.054 E6.62448
G1 X219.095 Y56.668 E6.6569
G1 X219.793 Y57.346 E6.68927
G1 X220.429 Y58.083 E6.72165
G1 X220.999 Y58.874 E6.75407
G1 X221.461 Y59.65 E6.78411
G1 X221.913 Y60.591 E6.81883
G1 X222.254 Y61.503 E6.85122
G1 X222.513 Y62.443 E6.88365
G1 X222.687 Y63.4 E6.916
G1 X222.777 Y64.369 E6.94837
G1 X222.783 Y65.272 E6.9784
G1 X222.674 Y66.493 E7.01917
G1 X222.508 Y67.609 E7.0567
G1 X205.386 Y171.221 E10.54958
G1 X205.23 Y172.084 E10.57875
G1 X205.014 Y173.034 E10.61116
G1 X204.714 Y173.959 E10.6435
G1 X204.363 Y174.791 E10.67353
G1 X203.873 Y175.714 E10.70829
G1 X203.34 Y176.531 E10.74074
G1 X202.738 Y177.296 E10.77311
G1 X202.12 Y177.955 E10.80316
G1 X201.341 Y178.65 E10.83788
G1 X200.558 Y179.23 E10.87029
G1 X199.728 Y179.738 E10.90266
G1 X198.92 Y180.142 E10.93271
G1 X197.948 Y180.524 E10.96744
G1 X197.081 Y180.78 E10.99751
G1 X196.056 Y180.985 E11.03228
G1 X195.105 Y181.087 E11.06409
G1 X194.609 Y181.106 E11.0806
G1 X193.853 Y181.119 E11.10575
G1 X23.606 Y181.118 E16.76818
G1 X22.873 Y181.106 E16.79257
G1 X21.901 Y181.047 E16.82496
G1 X20.938 Y180.901 E16.85735
G1 X19.991 Y180.67 E16.88977
G1 X19.103 Y180.37 E16.92095
G1 X18.211 Y179.98 E16.95333
G1 X17.328 Y179.493 E16.98687
G1 X16.577 Y178.991 E17.01691
G1 X15.762 Y178.333 E17.05175
G1 X15.064 Y177.655 E17.08411
G1 X14.428 Y176.918 E17.11649
G1 X13.858 Y176.128 E17.14889
G1 X13.396 Y175.352 E17.17893
G1 X12.942 Y174.41 E17.21371
G1 X12.613 Y173.532 E17.2449
G1 X12.344 Y172.559 E17.27847
G1 X12.167 Y171.592 E17.31117
G1 X12.071 Y170.427 E17.35005
G1 X12.057 Y169.777 E17.37167
G1 X12.058 Y65.39 E20.8436
G1 X12.07 Y64.689 E20.86692
G1 X12.13 Y63.716 E20.89934
G1 X12.277 Y62.755 E20.93168
G1 X12.508 Y61.807 E20.96413
G1 X12.81 Y60.918 E20.99536
G1 X13.217 Y59.996 E21.02888
G1 X13.688 Y59.144 E21.06126
G1 X14.233 Y58.335 E21.0937
G1 X14.824 Y57.607 E21.12489
G1 X15.526 Y56.882 E21.15845
G1 X16.236 Y56.268 E21.18967
G1 X17.055 Y55.678 E21.22325
G1 X17.894 Y55.182 E21.25566
G1 X18.708 Y54.791 E21.2857
G1 X19.685 Y54.423 E21.32042
G0 F6000 X19.792 Y54.809
G1 F1200 X20.696 Y54.559 E21.35162
G1 X21.624 Y54.389 E21.383
G1 X22.771 Y54.294 E21.42128
G1 X23.378 Y54.281 E21.44147
G1 X211.107 Y54.281 E27.68536
G1 X211.961 Y54.293 E27.71377
G1 X212.899 Y54.349 E27.74502
G1 X213.826 Y54.489 E27.7762
G1 X214.739 Y54.71 E27.80745
G1 X215.595 Y54.998 E27.83749
G1 X216.487 Y55.388 E27.86987
G1 X217.279 Y55.823 E27.89992
G1 X218.087 Y56.365 E27.93228
G1 X218.817 Y56.955 E27.9635
G1 X219.491 Y57.608 E27.99471
G1 X220.105 Y58.317 E28.02591
G1 X220.655 Y59.079 E28.05716
G1 X221.117 Y59.855 E28.0872
G1 X221.539 Y60.732 E28.11957
G1 X221.869 Y61.61 E28.15077
G1 X222.12 Y62.515 E28.18201
G1 X222.289 Y63.438 E28.21321
G1 X222.377 Y64.372 E28.24442
G1 X222.383 Y65.275 E28.27445
G1 X222.278 Y66.434 E28.31316
G1 X222.113 Y67.544 E28.35048
G1 X204.992 Y171.15 E31.84317
G1 X204.84 Y171.996 E31.87175
G1 X204.633 Y172.911 E31.90296
G1 X204.345 Y173.804 E31.93416
G1 X203.994 Y174.636 E31.9642
G1 X203.538 Y175.496 E31.99657
G1 X203.026 Y176.284 E32.02783
G1 X202.446 Y177.022 E32.05905
G1 X201.828 Y177.681 E32.0891
G1 X201.102 Y178.329 E32.12146
G1 X200.349 Y178.889 E32.15268
G1 X199.549 Y179.38 E32.1839
G1 X198.741 Y179.784 E32.21394
G1 X197.835 Y180.14 E32.24632
G1 X196.968 Y180.396 E32.27639
G1 X196.013 Y180.587 E32.30878
G1 X195.089 Y180.687 E32.33969
G1 X194.599 Y180.707 E32.356
G1 X193.853 Y180.719 E32.38082
G1 X23.612 Y180.718 E38.04306
G1 X22.897 Y180.707 E38.06684
G1 X21.96 Y180.651 E38.09806
G1 X21.032 Y180.512 E38.12927
G1 X20.119 Y180.291 E38.16051
G1 X19.263 Y180.003 E38.19055
G1 X18.371 Y179.613 E38.22293
G1 X17.55 Y179.16 E38.25412
G1 X16.799 Y178.658 E38.28416
G1 X16.04 Y178.046 E38.31659
G1 X15.366 Y177.393 E38.34781
G1 X14.752 Y176.684 E38.379
G1 X14.202 Y175.923 E38.41023
G1 X13.74 Y175.147 E38.44027
G1 X13.317 Y174.27 E38.47265
G1 X12.988 Y173.392 E38.50384
G1 X12.737 Y172.487 E38.53507
G1 X12.566 Y171.559 E38.56646
G1 X12.47 Y170.394 E38.60534
G1 X12.457 Y169.777 E38.62586
G1 X12.458 Y65.396 E42.09759
G1 X12.469 Y64.713 E42.12031
G1 X12.526 Y63.776 E42.15153
G1 X12.666 Y62.849 E42.18271
G1 X12.887 Y61.936 E42.21396
G1 X13.189 Y61.047 E42.24519
G1 X13.567 Y60.189 E42.27637
G1 X14.02 Y59.367 E42.30759
G1 X14.544 Y58.587 E42.33884
G1 X15.135 Y57.859 E42.37003
G1 X15.788 Y57.185 E42.40124
G1 X16.498 Y56.571 E42.43246
G1 X17.259 Y56.022 E42.46367
G1 X18.067 Y55.543 E42.49491
G1 X18.881 Y55.152 E42.52495
G1 X19.792 Y54.809 E42.55732
G0 F6000 X19.899 Y55.194
G1 F1200 X20.769 Y54.952 E42.58736
G1 X21.657 Y54.788 E42.61739
G1 X22.78 Y54.694 E42.65488
G1 X23.387 Y54.681 E42.67507
G1 X211.102 Y54.681 E48.9185
G1 X211.938 Y54.692 E48.9463
G1 X212.84 Y54.745 E48.97636
G1 X213.733 Y54.878 E49.00638
G1 X214.611 Y55.089 E49.03642
G1 X215.467 Y55.377 E49.06646
G1 X216.294 Y55.739 E49.09648
G1 X217.086 Y56.174 E49.12654
G1 X217.836 Y56.676 E49.15655
G1 X218.539 Y57.243 E49.18659
G1 X219.189 Y57.87 E49.21663
G1 X219.781 Y58.552 E49.24667
G1 X220.311 Y59.284 E49.27673
G1 X220.773 Y60.06 E49.30676
G1 X221.165 Y60.873 E49.33678
G1 X221.484 Y61.718 E49.36682
G1 X221.727 Y62.588 E49.39687
G1 X221.891 Y63.476 E49.4269
G1 X221.977 Y64.375 E49.45694
G1 X221.983 Y65.278 E49.48697
G1 X221.882 Y66.375 E49.52362
G1 X221.718 Y67.479 E49.56074
G1 X204.598 Y171.08 E53.05325
G1 X204.45 Y171.908 E53.08123
G1 X204.252 Y172.789 E53.11126
G1 X203.976 Y173.649 E53.1413
G1 X203.625 Y174.481 E53.17134
G1 X203.202 Y175.279 E53.20138
G1 X202.711 Y176.037 E53.23141
G1 X202.154 Y176.748 E53.26145
G1 X201.536 Y177.407 E53.2915
G1 X200.863 Y178.008 E53.32151
G1 X200.139 Y178.548 E53.35155
G1 X199.37 Y179.022 E53.3816
G1 X198.562 Y179.426 E53.41165
G1 X197.722 Y179.756 E53.44166
G1 X196.855 Y180.012 E53.47173
G1 X195.97 Y180.189 E53.50175
G1 X195.072 Y180.287 E53.53179
G1 X194.593 Y180.307 E53.54774
G1 X193.853 Y180.319 E53.57235
G1 X23.618 Y180.318 E59.23439
G1 X22.92 Y180.308 E59.25761
G1 X22.018 Y180.255 E59.28766
G1 X21.125 Y180.123 E59.31769
G1 X20.247 Y179.912 E59.34772
G1 X19.391 Y179.624 E59.37776
G1 X18.564 Y179.262 E59.40779
G1 X17.772 Y178.827 E59.43784
G1 X17.021 Y178.325 E59.46788
G1 X16.318 Y177.758 E59.49792
G1 X15.668 Y177.131 E59.52796
G1 X15.076 Y176.449 E59.558
G1 X14.546 Y175.718 E59.58803
G1 X14.084 Y174.942 E59.61807
G1 X13.691 Y174.129 E59.6481
G1 X13.373 Y173.284 E59.67813
G1 X13.13 Y172.414 E59.70818
G1 X12.965 Y171.526 E59.73822
G1 X12.87 Y170.385 E59.7763
G1 X12.857 Y169.777 E59.79652
G1 X12.858 Y65.402 E63.26805
G1 X12.868 Y64.737 E63.29017
G1 X12.922 Y63.835 E63.32023
G1 X13.055 Y62.942 E63.35025
G1 X13.266 Y62.064 E63.38029
G1 X13.555 Y61.208 E63.41034
G1 X13.918 Y60.381 E63.44038
G1 X14.352 Y59.59 E63.47039
G1 X14.855 Y58.839 E63.50045
G1 X15.423 Y58.137 E63.53048
G1 X16.05 Y57.487 E63.56052
G1 X16.732 Y56.895 E63.59056
G1 X17.464 Y56.366 E63.6206
G1 X18.24 Y55.904 E63.65063
G1 X19.054 Y55.513 E63.68067
G1 X19.899 Y55.194 E63.71071
G1 F2700 E58.71071
;MESH:oc_segments_lg_02.stl
G0 F6000 X44.036 Y93.703
G0 X51.982 Y112.877
;TYPE:WALL-INNER
G1 F2700 E63.71071
G1 F1200 X53.543 Y111.627 E63.77722
G1 X54.589 Y109.795 E63.84739
G1 X55.435 Y103.604 E64.05522
G1 X54.95 Y99.317 E64.19871
G1 X53.55 Y96.308 E64.30909
G1 X51.063 Y94.516 E64.41105
G1 X46.898 Y93.888 E64.55114
G1 X44.22 Y93.888 E64.64021
G1 X44.22 Y113.94 E65.30715
G1 X46.836 Y113.94 E65.39415
G1 X49.784 Y113.669 E65.49262
G1 X51.982 Y112.877 E65.57033
G0 F6000 X52.18 Y113.231
;TYPE:WALL-OUTER
G1 F1200 X53.853 Y111.891 E65.64162
G1 X54.975 Y109.926 E65.71688
G1 X55.838 Y103.609 E65.92893
G1 X55.34 Y99.207 E66.07628
G1 X53.868 Y96.044 E66.19231
G1 X51.218 Y94.135 E66.30094
G1 X46.928 Y93.488 E66.44524
G1 X43.82 Y93.488 E66.54861
G1 X43.82 Y114.34 E67.24215
G1 X46.854 Y114.34 E67.34307
G1 X49.872 Y114.063 E67.44387
G1 X52.18 Y113.231 E67.52547
G0 F6000 X51.8 Y112.559
;TYPE:SKIN
G1 F1200 X49.704 Y113.315 E67.59958
G1 X46.826 Y113.58 E67.6957
G1 X44.58 Y113.58 E67.77041
G1 X44.581 Y94.249 E68.41336
G1 X46.869 Y94.249 E68.48946
G1 X50.922 Y94.859 E68.62578
G1 X53.26 Y96.544 E68.72163
G1 X54.596 Y99.419 E68.82707
G1 X55.07 Y103.601 E68.96706
G1 X54.239 Y109.674 E69.17093
G1 X53.265 Y111.383 E69.23636
G1 X51.8 Y112.559 E69.29884
G0 F6000 X51.887 Y112.805
G0 X49.749 Y113.511
G0 X47.383 Y113.728
G0 X44.78 Y113.84
G0 X44.78 Y113.228
G1 F1200 X44.932 Y113.38 E69.30599
G0 F6000 X45.497 Y113.38
G1 F1200 X44.78 Y112.662 E69.33974
G0 F6000 X44.78 Y112.096
G1 F1200 X46.063 Y113.38 E69.40011
G0 F6000 X46.629 Y113.38
G1 F1200 X44.78 Y111.531 E69.48708
G0 F6000 X44.78 Y110.965
G1 F1200 X47.162 Y113.347 E69.59912
G0 F6000 X47.68 Y113.3
G1 F1200 X44.78 Y110.399 E69.73555
G0 F6000 X44.78 Y109.833
G1 F1200 X48.199 Y113.252 E69.89637
G0 F6000 X48.716 Y113.204
G1 F1200 X44.78 Y109.268 E70.08151
G0 F6000 X44.78 Y108.702
G1 F1200 X49.234 Y113.157 E70.29104
G0 F6000 X49.734 Y113.09
G1 F1200 X44.78 Y108.136 E70.52406
G0 F6000 X44.78 Y107.571
G1 F1200 X50.149 Y112.941 E70.77662
G0 F6000 X50.565 Y112.791
G1 F1200 X44.78 Y107.005 E71.04875
G0 F6000 X44.78 Y106.439
G1 F1200 X50.981 Y112.641 E71.34045
G0 F6000 X51.397 Y112.491
G1 F1200 X44.78 Y105.874 E71.6517
G0 F6000 X44.78 Y105.308
G1 F1200 X51.785 Y112.313 E71.98119
G0 F6000 X52.099 Y112.062
G1 F1200 X44.78 Y104.742 E72.32548
G0 F6000 X44.78 Y104.177
G1 F1200 X52.413 Y111.81 E72.68451
G0 F6000 X52.727 Y111.558
G1 F1200 X44.78 Y103.611 E73.05831
G0 F6000 X44.78 Y103.045
G1 F1200 X53.041 Y111.306 E73.44688
G0 F6000 X53.271 Y110.971
G1 F1200 X44.78 Y102.48 E73.84628
G0 F6000 X44.78 Y101.914
G1 F1200 X53.476 Y110.611 E74.25533
G0 F6000 X53.681 Y110.25
G1 F1200 X44.78 Y101.348 E74.67403
G0 F6000 X44.78 Y100.783
G1 F1200 X53.887 Y109.89 E75.1024
G0 F6000 X54.062 Y109.499
G1 F1200 X44.78 Y100.217 E75.53899
G0 F6000 X44.78 Y99.651
G1 F1200 X54.13 Y109.001 E75.97879
G0 F6000 X54.198 Y108.503
G1 F1200 X44.78 Y99.085 E76.42178
G0 F6000 X44.78 Y98.52
G1 F1200 X54.266 Y108.006 E76.86797
G0 F6000 X54.334 Y107.509
G1 F1200 X44.78 Y97.954 E77.31739
G0 F6000 X44.78 Y97.388
G1 F1200 X54.402 Y107.011 E77.77
G0 F6000 X54.47 Y106.513
G1 F1200 X44.78 Y96.823 E78.22579
G0 F6000 X44.78 Y96.257
G1 F1200 X54.538 Y106.015 E78.68478
G0 F6000 X54.606 Y105.518
G1 F1200 X44.78 Y95.691 E79.14698
G0 F6000 X44.78 Y95.126
G1 F1200 X54.674 Y105.02 E79.61237
G0 F6000 X54.742 Y104.522
G1 F1200 X44.78 Y94.56 E80.08095
G0 F6000 X45.234 Y94.449
G1 F1200 X54.81 Y104.025 E80.53138
G0 F6000 X54.858 Y103.507
G1 F1200 X45.8 Y94.449 E80.95744
G0 F6000 X46.366 Y94.449
G1 F1200 X54.786 Y102.869 E81.35349
G0 F6000 X54.714 Y102.231
G1 F1200 X46.946 Y94.463 E81.71887
G0 F6000 X47.612 Y94.564
G1 F1200 X54.642 Y101.594 E82.04954
G0 F6000 X54.57 Y100.956
G1 F1200 X48.278 Y94.664 E82.3455
G0 F6000 X48.944 Y94.764
G1 F1200 X54.497 Y100.317 E82.60669
G0 F6000 X54.425 Y99.679
G1 F1200 X49.609 Y94.864 E82.8332
G0 F6000 X50.275 Y94.964
G1 F1200 X54.069 Y98.758 E83.01166
G0 F6000 X54.488 Y98.563
G0 X53.996 Y97.506
G0 X53.577 Y97.701
G1 F1200 X51.138 Y95.261 E83.1264
G1 F2700 E78.1264
G0 F6000 X51.407 Y94.888
G0 X53.42 Y96.415
G0 X54.793 Y99.362
G0 X55.272 Y103.602
G0 X54.433 Y109.742
G0 X53.418 Y111.519
G0 X52.054 Y112.613
G0 X49.827 Y113.847
G0 X49.927 Y114.925
G0 X49.836 Y124.461
G0 X52.554 Y140.104
;TYPE:WALL-INNER
G1 F2700 E83.1264
G1 F1200 X53.671 Y138.567 E83.1896
G1 X54.402 Y136.644 E83.25802
G1 X54.647 Y134.227 E83.33882
G1 X53.974 Y129.331 E83.5032
G1 X53.149 Y127.658 E83.56524
G1 X51.793 Y126.44 E83.62586
G1 X49.703 Y125.716 E83.69943
G1 X46.667 Y125.465 E83.80075
G1 X44.221 Y125.465 E83.88211
G1 X44.22 Y142.104 E84.43552
G1 X46.313 Y142.104 E84.50513
G1 X48.914 Y141.876 E84.59198
G1 X50.962 Y141.201 E84.6637
G1 X52.554 Y140.104 E84.728
G0 F6000 X52.838 Y140.394
;TYPE:WALL-OUTER
G1 F1200 X54.026 Y138.759 E84.79522
G1 X54.795 Y136.737 E84.86717
G1 X55.05 Y134.22 E84.95132
G1 X54.362 Y129.212 E85.11945
G1 X53.473 Y127.412 E85.18622
G1 X52 Y126.088 E85.25209
G1 X49.786 Y125.322 E85.33001
G1 X46.683 Y125.065 E85.43357
G1 X43.821 Y125.065 E85.52876
G1 X43.82 Y142.504 E86.10879
G1 X46.331 Y142.504 E86.1923
G1 X48.995 Y142.27 E86.28125
G1 X51.142 Y141.563 E86.35643
G1 X52.838 Y140.394 E86.42494
G0 F6000 X52.298 Y139.838
;TYPE:SKIN
G1 F1200 X50.798 Y140.871 E86.48552
G1 X48.831 Y141.518 E86.55439
G1 X46.303 Y141.744 E86.63881
G1 X44.58 Y141.744 E86.69611
G1 X44.58 Y125.824 E87.22562
G1 X46.659 Y125.824 E87.29476
G1 X49.622 Y126.07 E87.39365
G1 X51.604 Y126.756 E87.46341
G1 X52.853 Y127.88 E87.5193
G1 X53.626 Y129.44 E87.5772
G1 X54.282 Y134.228 E87.73794
G1 X54.047 Y136.561 E87.81593
G1 X53.35 Y138.391 E87.88106
G1 X52.298 Y139.838 E87.94056
G0 F6000 X52.51 Y139.993
G0 X50.889 Y141.055
G0 X48.881 Y141.718
G0 X46.306 Y141.943
G0 X44.392 Y141.932
G0 X44.321 Y140.946
G0 X44.78 Y140.947
G1 F1200 X45.377 Y141.544 E87.96864
G0 F6000 X45.943 Y141.544
G1 F1200 X44.78 Y140.381 E88.02335
G0 F6000 X44.78 Y139.816
G1 F1200 X46.492 Y141.527 E88.10385
G0 F6000 X47.011 Y141.48
G1 F1200 X44.78 Y139.25 E88.20877
G0 F6000 X44.78 Y138.684
G1 F1200 X47.53 Y141.433 E88.3381
G0 F6000 X48.049 Y141.387
G1 F1200 X44.78 Y138.118 E88.49186
G0 F6000 X44.78 Y137.553
G1 F1200 X48.568 Y141.341 E88.67004
G0 F6000 X49.034 Y141.24
G1 F1200 X44.78 Y136.987 E88.87011
G0 F6000 X44.78 Y136.421
G1 F1200 X49.459 Y141.1 E89.09019
G0 F6000 X49.885 Y140.96
G1 F1200 X44.78 Y135.856 E89.33029
G0 F6000 X44.78 Y135.29
G1 F1200 X50.311 Y140.82 E89.59043
G0 F6000 X50.73 Y140.674
G1 F1200 X44.78 Y134.724 E89.8703
G0 F6000 X44.78 Y134.159
G1 F1200 X51.065 Y140.443 E90.1659
G0 F6000 X51.4 Y140.213
G1 F1200 X44.78 Y133.593 E90.47729
G0 F6000 X44.78 Y133.027
G1 F1200 X51.735 Y139.982 E90.80443
G0 F6000 X52.071 Y139.752
G1 F1200 X44.78 Y132.462 E91.14735
G0 F6000 X44.78 Y131.896
G1 F1200 X52.334 Y139.449 E91.50265
G0 F6000 X52.572 Y139.122
G1 F1200 X44.78 Y131.33 E91.86916
G0 F6000 X44.78 Y130.765
G1 F1200 X52.81 Y138.794 E92.24684
G0 F6000 X53.049 Y138.467
G1 F1200 X44.78 Y130.199 E92.63577
G0 F6000 X44.78 Y129.633
G1 F1200 X53.247 Y138.1 E93.03403
G0 F6000 X53.404 Y137.691
G1 F1200 X44.78 Y129.067 E93.43968
G0 F6000 X44.78 Y128.502
G1 F1200 X53.56 Y137.281 E93.85264
G0 F6000 X53.715 Y136.871
G1 F1200 X44.78 Y127.936 E94.27291
G0 F6000 X44.78 Y127.37
G1 F1200 X53.858 Y136.448 E94.69991
G0 F6000 X53.91 Y135.934
G1 F1200 X44.78 Y126.805 E95.12934
G0 F6000 X44.78 Y126.239
G1 F1200 X53.961 Y135.42 E95.56118
G0 F6000 X54.013 Y134.906
G1 F1200 X45.131 Y126.024 E95.97896
G0 F6000 X45.697 Y126.024
G1 F1200 X54.065 Y134.393 E96.37259
G0 F6000 X54.019 Y133.781
G1 F1200 X46.262 Y126.024 E96.73746
G0 F6000 X46.844 Y126.04
G1 F1200 X53.93 Y133.126 E97.07076
G0 F6000 X53.84 Y132.47
G1 F1200 X47.462 Y126.092 E97.37076
G0 F6000 X48.078 Y126.143
G1 F1200 X53.75 Y131.815 E97.63756
G0 F6000 X53.66 Y131.159
G1 F1200 X48.696 Y126.195 E97.87105
G0 F6000 X49.312 Y126.245
