;FLAVOR:Marlin
;TIME:8982
;Filament used: 6.20707m
;Layer height: 0.2
;MINX:0.672
;MINY:53.881
;MINZ:0.2
;MAXX:234.488
;MAXY:181.119
;MAXZ:1
;TARGET_MACHINE.NAME:Creality Ender-3
;Generated with Cura_SteamEngine 5.8.1
M140 S50
M105
M190 S50
M104 S200
M105
M109 S200
M82 ;absolute extrusion mode
; Ender 3 Custom Start G-code
G92 E0 ; Reset Extruder
G28 ; Home all axes
G1 Z2.0 F3000 ; Move Z Axis up little to prevent scratching of Heat Bed
G1 X0.1 Y20 Z0.3 F5000.0 ; Move to start position
G1 X0.1 Y200.0 Z0.3 F1500.0 E15 ; Draw the first line
G1 X0.4 Y200.0 Z0.3 F5000.0 ; Move to side a little
G1 X0.4 Y20 Z0.3 F1500.0 E30 ; Draw the second line
G92 E0 ; Reset Extruder
G1 Z2.0 F3000 ; Move Z Axis up little to prevent scratching of Heat Bed
G1 X5 Y20 Z0.3 F5000.0 ; Move over to prevent blob squish
G92 E0
G92 E0
G1 F2700 E-5
;LAYER_COUNT:5
;LAYER:0
M107
G0 F6000 X24.605 Y54.827 Z0.2
;TYPE:SKIRT
G1 F2700 E0
G1 F1200 X25.514 Y54.472 E0.03246
G1 X26.449 Y54.202 E0.06483
G1 X27.405 Y54.013 E0.09724
G1 X28.356 Y53.911 E0.12905
G1 X28.867 Y53.891 E0.14606
G1 X29.435 Y53.882 E0.16495
G1 X222.792 Y53.881 E6.59603
G1 X223.672 Y53.894 E6.62531
G1 X224.644 Y53.953 E6.65769
G1 X225.607 Y54.099 E6.69009
G1 X226.554 Y54.33 E6.72251
G1 X227.442 Y54.63 E6.75368
G1 X228.334 Y55.02 E6.78606
G1 X229.217 Y55.507 E6.8196
G1 X229.968 Y56.009 E6.84965
G1 X230.783 Y56.667 E6.88449
G1 X231.481 Y57.345 E6.91685
G1 X232.117 Y58.082 E6.94923
G1 X232.687 Y58.872 E6.98163
G1 X233.149 Y59.648 E7.01167
G1 X233.603 Y60.59 E7.04645
G1 X233.932 Y61.468 E7.07763
G1 X234.201 Y62.44 E7.11118
G1 X234.378 Y63.406 E7.14384
G1 X234.473 Y64.536 E7.18156
G1 X234.488 Y65.211 E7.20402
G1 X234.487 Y169.519 E10.67331
G1 X234.476 Y170.282 E10.69869
G1 X234.419 Y171.255 E10.73111
G1 X234.274 Y172.218 E10.7635
G1 X234.045 Y173.164 E10.79587
G1 X233.734 Y174.088 E10.8283
G1 X233.342 Y174.979 E10.86068
G1 X232.874 Y175.831 E10.89301
G1 X232.352 Y176.612 E10.92425
G1 X231.719 Y177.397 E10.95779
G1 X231.094 Y178.048 E10.98781
G1 X230.305 Y178.736 E11.02263
G1 X229.545 Y179.286 E11.05383
G1 X228.678 Y179.803 E11.0874
G1 X227.8 Y180.225 E11.1198
G1 X226.889 Y180.567 E11.15217
G1 X225.95 Y180.828 E11.18458
G1 X224.984 Y181.006 E11.21725
G1 X223.833 Y181.104 E11.25568
G1 X223.158 Y181.119 E11.27813
G1 X12.209 Y181.118 E18.29432
G1 X11.486 Y181.107 E18.31837
G1 X10.513 Y181.049 E18.35079
G1 X9.549 Y180.904 E18.38322
G1 X8.603 Y180.674 E18.4156
G1 X7.681 Y180.362 E18.44797
G1 X6.79 Y179.97 E18.48035
G1 X5.937 Y179.5 E18.51274
G1 X5.129 Y178.957 E18.54512
G1 X4.425 Y178.391 E18.57516
G1 X3.672 Y177.666 E18.60993
G1 X3.035 Y176.93 E18.6423
G1 X2.504 Y176.199 E18.67235
G1 X1.969 Y175.302 E18.70709
G1 X1.547 Y174.423 E18.73952
G1 X1.206 Y173.512 E18.77188
G1 X0.946 Y172.574 E18.80425
G1 X0.77 Y171.617 E18.83661
G1 X0.679 Y170.647 E18.86902
G1 X0.672 Y169.744 E18.89905
G1 X0.78 Y168.518 E18.93999
G1 X0.945 Y167.401 E18.97754
G1 X18.076 Y63.73 E22.47241
G1 X18.225 Y62.908 E22.5002
G1 X18.442 Y61.959 E22.53258
G1 X18.73 Y61.066 E22.56378
G1 X19.125 Y60.136 E22.59739
G1 X19.585 Y59.278 E22.62977
G1 X20.118 Y58.463 E22.66216
G1 X20.72 Y57.698 E22.69454
G1 X21.338 Y57.04 E22.72456
G1 X22.119 Y56.344 E22.75936
G1 X22.902 Y55.765 E22.79175
G1 X23.733 Y55.258 E22.82412
G1 X24.605 Y54.827 E22.85647
G0 F6000 X24.751 Y55.199
G1 F1200 X25.626 Y54.856 E22.88773
G1 X26.527 Y54.594 E22.91894
G1 X27.448 Y54.411 E22.95017
G1 X28.372 Y54.311 E22.98109
G1 X28.873 Y54.291 E22.99776
G1 X29.435 Y54.282 E23.01646
G1 X222.786 Y54.281 E29.44734
G1 X223.648 Y54.293 E29.47601
G1 X224.585 Y54.349 E29.50723
G1 X225.513 Y54.488 E29.53844
G1 X226.426 Y54.709 E29.56968
G1 X227.282 Y54.997 E29.59972
G1 X228.174 Y55.387 E29.6321
G1 X228.995 Y55.84 E29.66329
G1 X229.746 Y56.342 E29.69333
G1 X230.505 Y56.954 E29.72576
G1 X231.179 Y57.607 E29.75698
G1 X231.793 Y58.316 E29.78817
G1 X232.343 Y59.077 E29.8194
G1 X232.805 Y59.853 E29.84944
G1 X233.228 Y60.73 E29.88182
G1 X233.557 Y61.608 E29.91301
G1 X233.808 Y62.513 E29.94425
G1 X233.979 Y63.44 E29.9756
G1 X234.074 Y64.57 E30.01331
G1 X234.088 Y65.211 E30.03464
G1 X234.087 Y169.514 E33.50377
G1 X234.077 Y170.259 E33.52855
G1 X234.023 Y171.196 E33.55977
G1 X233.885 Y172.125 E33.59101
G1 X233.666 Y173.037 E33.6222
G1 X233.368 Y173.927 E33.65342
G1 X232.991 Y174.787 E33.68465
G1 X232.541 Y175.609 E33.71582
G1 X232.019 Y176.39 E33.74706
G1 X231.43 Y177.12 E33.77826
G1 X230.805 Y177.771 E33.80828
G1 X230.07 Y178.412 E33.84071
G1 X229.31 Y178.962 E33.87192
G1 X228.504 Y179.443 E33.90313
G1 X227.659 Y179.851 E33.93434
G1 X226.781 Y180.182 E33.96555
G1 X225.877 Y180.435 E33.99677
G1 X224.95 Y180.607 E34.02813
G1 X223.799 Y180.705 E34.06655
G1 X223.158 Y180.719 E34.08788
G1 X12.215 Y180.718 E41.10387
G1 X11.509 Y180.708 E41.12736
G1 X10.572 Y180.653 E41.15857
G1 X9.643 Y180.515 E41.18981
G1 X8.731 Y180.295 E41.22101
G1 X7.842 Y179.996 E41.25221
G1 X6.982 Y179.619 E41.28344
G1 X6.16 Y179.168 E41.31463
G1 X5.38 Y178.645 E41.34586
G1 X4.676 Y178.079 E41.37591
G1 X3.974 Y177.404 E41.4083
G1 X3.359 Y176.695 E41.43951
G1 X2.828 Y175.964 E41.46956
G1 X2.329 Y175.128 E41.50195
G1 X1.921 Y174.282 E41.53319
G1 X1.591 Y173.405 E41.56435
G1 X1.339 Y172.501 E41.59557
G1 X1.168 Y171.579 E41.62675
G1 X1.079 Y170.644 E41.65799
G1 X1.072 Y169.741 E41.68803
G1 X1.176 Y168.576 E41.72693
G1 X1.34 Y167.466 E41.76425
G1 X18.47 Y63.801 E45.25892
G1 X18.615 Y62.997 E45.28609
G1 X18.823 Y62.082 E45.3173
G1 X19.111 Y61.189 E45.34851
G1 X19.478 Y60.324 E45.37976
G1 X19.92 Y59.496 E45.41098
G1 X20.432 Y58.71 E45.44218
G1 X21.012 Y57.972 E45.4734
G1 X21.63 Y57.314 E45.50342
G1 X22.357 Y56.665 E45.53583
G1 X23.111 Y56.106 E45.56705
G1 X23.911 Y55.616 E45.59825
G1 X24.751 Y55.199 E45.62945
G0 F6000 X24.898 Y55.571
G1 F1200 X25.738 Y55.24 E45.65948
G1 X26.605 Y54.986 E45.68952
G1 X27.491 Y54.809 E45.71958
G1 X28.388 Y54.711 E45.74959
G1 X28.879 Y54.691 E45.76593
G1 X29.435 Y54.682 E45.78443
G1 X222.781 Y54.681 E52.21514
G1 X223.625 Y54.692 E52.24321
G1 X224.527 Y54.745 E52.27327
G1 X225.42 Y54.877 E52.30329
G1 X226.298 Y55.088 E52.33332
G1 X227.154 Y55.376 E52.36336
G1 X227.981 Y55.738 E52.39339
G1 X228.773 Y56.173 E52.42344
G1 X229.524 Y56.675 E52.45349
G1 X230.227 Y57.242 E52.48353
G1 X230.877 Y57.869 E52.51357
G1 X231.469 Y58.551 E52.5436
G1 X231.999 Y59.282 E52.57363
G1 X232.461 Y60.058 E52.60367
G1 X232.854 Y60.871 E52.63371
G1 X233.172 Y61.716 E52.66373
G1 X233.415 Y62.586 E52.69378
G1 X233.58 Y63.474 E52.72382
G1 X233.675 Y64.604 E52.76154
G1 X233.688 Y65.211 E52.78173
G1 X233.687 Y169.509 E56.25069
G1 X233.678 Y170.236 E56.27488
G1 X233.627 Y171.138 E56.30493
G1 X233.496 Y172.032 E56.33498
G1 X233.287 Y172.91 E56.365
G1 X233.001 Y173.767 E56.39504
G1 X232.64 Y174.595 E56.42509
G1 X232.208 Y175.387 E56.45509
G1 X231.707 Y176.139 E56.48515
G1 X231.141 Y176.843 E56.51519
G1 X230.516 Y177.494 E56.54521
G1 X229.835 Y178.088 E56.57526
G1 X229.104 Y178.619 E56.60531
G1 X228.33 Y179.083 E56.63533
G1 X227.517 Y179.477 E56.66538
G1 X226.673 Y179.797 E56.6954
G1 X225.803 Y180.042 E56.72546
G1 X224.916 Y180.208 E56.75548
G1 X223.765 Y180.306 E56.7939
G1 X223.158 Y180.319 E56.81409
G1 X12.22 Y180.318 E63.82992
G1 X11.532 Y180.309 E63.8528
G1 X10.63 Y180.257 E63.88285
G1 X9.736 Y180.126 E63.9129
G1 X8.858 Y179.916 E63.94293
G1 X8.002 Y179.629 E63.97296
G1 X7.174 Y179.268 E64.003
G1 X6.382 Y178.835 E64.03302
G1 X5.631 Y178.333 E64.06307
G1 X4.927 Y177.767 E64.09311
G1 X4.276 Y177.141 E64.12315
G1 X3.683 Y176.46 E64.15318
G1 X3.152 Y175.729 E64.18324
G1 X2.689 Y174.954 E64.21326
G1 X2.295 Y174.141 E64.24331
G1 X1.976 Y173.297 E64.27332
G1 X1.732 Y172.427 E64.30337
G1 X1.566 Y171.54 E64.33339
G1 X1.479 Y170.641 E64.36343
G1 X1.472 Y169.738 E64.39346
G1 X1.572 Y168.634 E64.43033
G1 X1.735 Y167.531 E64.46742
G1 X18.864 Y63.872 E67.96188
G1 X19.005 Y63.085 E67.98847
G1 X19.204 Y62.204 E68.01851
G1 X19.48 Y61.344 E68.04856
G1 X19.831 Y60.512 E68.07859
G1 X20.255 Y59.714 E68.10864
G1 X20.747 Y58.957 E68.13867
G1 X21.304 Y58.246 E68.16871
G1 X21.922 Y57.588 E68.19874
G1 X22.596 Y56.986 E68.2288
G1 X23.321 Y56.447 E68.25884
G1 X24.09 Y55.974 E68.28887
G1 X24.898 Y55.571 E68.3189
G1 F2700 E63.3189
;MESH:oc_segments_lg_03.stl
G0 F6000 X35.807 Y83.515
G0 X61.535 Y152.068
;TYPE:WALL-INNER
G1 F2700 E68.3189
G1 F1200 X56.112 Y154.099 E68.51151
G1 X48.985 Y154.767 E68.74959
G1 X41.622 Y154.03 E68.99571
G1 X36.002 Y151.84 E69.19632
G1 X35.822 Y151.73 E69.20334
G1 X31.785 Y148.162 E69.38254
G1 X29.092 Y143.276 E69.56809
G1 X27.616 Y137.376 E69.77038
G1 X27.133 Y130.507 E69.9994
G1 X27.133 Y104.877 E70.85186
G1 X27.617 Y98.111 E71.07747
G1 X29.092 Y92.19 E71.28043
G1 X31.731 Y87.444 E71.46104
G1 X31.855 Y87.289 E71.46764
G1 X35.89 Y83.674 E71.64783
G1 X41.632 Y81.441 E71.85274
G1 X48.986 Y80.7 E72.09858
G1 X56.195 Y81.397 E72.33947
G1 X61.641 Y83.499 E72.53363
G1 X65.569 Y86.905 E72.70655
G1 X68.083 Y91.306 E72.87512
G1 X69.503 Y96.553 E73.05592
G1 X69.967 Y102.335 E73.24885
G1 X69.968 Y108.585 E73.45672
G1 X69.886 Y108.813 E73.46478
G1 X69.763 Y108.961 E73.47118
G1 X69.623 Y109.052 E73.47673
G1 X69.426 Y109.106 E73.48353
G1 X53.982 Y109.108 E73.9972
G1 X53.722 Y109.005 E74.0065
G1 X53.518 Y108.768 E74.0169
G1 X53.466 Y108.599 E74.02278
G1 X53.46 Y101.099 E74.27223
G1 X53.207 Y97.089 E74.40587
G1 X52 Y94.038 E74.515
G1 X50.865 Y93.295 E74.56012
G1 X48.986 Y93.019 E74.62329
G1 X47.175 Y93.274 E74.68411
G1 X45.944 Y93.979 E74.7313
G1 X44.501 Y96.868 E74.8387
G1 X44.164 Y101.084 E74.97938
G1 X44.164 Y134.364 E76.08627
G1 X44.42 Y138.361 E76.21949
G1 X45.791 Y141.424 E76.3311
G1 X47.062 Y142.242 E76.38137
G1 X48.989 Y142.537 E76.44621
G1 X50.924 Y142.243 E76.51131
G1 X52.079 Y141.443 E76.55804
G1 X53.207 Y138.552 E76.66126
G1 X53.46 Y134.628 E76.79204
G1 X53.466 Y127.485 E77.02962
G1 X53.61 Y127.178 E77.04089
G1 X53.84 Y127.017 E77.05023
G1 X54.031 Y126.976 E77.05673
G1 X69.426 Y126.978 E77.56877
G1 X69.693 Y127.071 E77.57817
G1 X69.886 Y127.271 E77.58742
G1 X69.968 Y127.491 E77.59523
G1 X69.967 Y133.745 E77.80324
G1 X69.5 Y139.488 E77.99488
G1 X68.083 Y144.607 E78.17154
G1 X65.493 Y148.879 E78.3377
G1 X61.535 Y152.068 E78.50676
G1 F2700 E73.50676
G0 F6000 X65.638 Y148.99
G0 X77.143 Y148.99
G0 X93.822 Y153.757
G1 F2700 E78.50676
G1 F1200 X93.655 Y153.798 E78.51248
G1 X77.882 Y153.798 E79.03709
G1 X77.575 Y153.677 E79.04806
G1 X77.442 Y153.536 E79.05451
G1 X77.342 Y153.26 E79.06428
G1 X77.341 Y82.318 E81.42382
G1 X77.45 Y82.008 E81.43475
G1 X77.584 Y81.872 E81.4411
G1 X77.883 Y81.758 E81.45174
G1 X109.923 Y81.758 E82.51739
G1 X110.177 Y81.843 E82.5263
G1 X110.328 Y81.975 E82.53297
G1 X110.42 Y82.128 E82.53891
G1 X110.464 Y82.356 E82.54663
G1 X110.464 Y93.015 E82.90115
G1 X110.345 Y93.296 E82.9113
G1 X110.181 Y93.446 E82.9187
G1 X109.935 Y93.532 E82.92736
G1 X94.196 Y93.536 E83.45084
G1 X94.194 Y153.253 E85.43704
G1 X94.096 Y153.533 E85.44691
G1 X93.822 Y153.757 E85.45868
G1 F2700 E80.45868
G0 F6000 X94.339 Y153.443
G0 X116.007 Y153.585
G0 X117.546 Y153.798
G1 F2700 E85.45868
G1 F1200 X116.629 Y153.798 E85.48918
G1 X116.462 Y153.757 E85.4949
G1 X116.281 Y153.642 E85.50203
G1 X116.164 Y153.495 E85.50828
G1 X116.089 Y153.24 E85.51712
G1 X116.088 Y82.356 E87.87473
G1 X116.132 Y82.128 E87.88245
G1 X116.224 Y81.975 E87.88839
G1 X116.425 Y81.816 E87.89691
G1 X116.629 Y81.758 E87.90397
G1 X148.818 Y81.758 E88.97458
G1 X149.04 Y81.86 E88.9827
G1 X149.173 Y81.985 E88.98878
G1 X149.299 Y82.308 E89.00031
G1 X149.297 Y93.007 E89.35616
G1 X149.161 Y93.322 E89.36757
G1 X148.945 Y93.485 E89.37657
G1 X148.748 Y93.535 E89.38333
G1 X132.944 Y93.536 E89.90897
G1 X132.944 Y113.504 E90.57311
G1 X144.722 Y113.505 E90.96485
G1 X144.897 Y113.545 E90.97082
G1 X145.073 Y113.653 E90.97769
G1 X145.205 Y113.82 E90.98477
G1 X145.274 Y114.043 E90.99253
G1 X145.274 Y125.012 E91.35736
G1 X145.231 Y125.183 E91.36323
G1 X145.1 Y125.378 E91.37104
G1 X144.927 Y125.498 E91.37804
G1 X144.729 Y125.55 E91.38485
G1 X132.944 Y125.552 E91.77682
G1 X132.944 Y141.932 E92.32162
G1 X148.56 Y141.933 E92.84101
G1 X148.761 Y141.98 E92.84788
G1 X148.966 Y142.125 E92.85623
G1 X149.056 Y142.253 E92.86143
G1 X149.12 Y142.459 E92.86861
G1 X149.123 Y153.282 E93.22858
G1 X148.999 Y153.568 E93.23895
G1 X148.802 Y153.733 E93.2475
G1 X148.583 Y153.798 E93.2551
G1 X117.546 Y153.798 E94.28739
G1 F2700 E89.28739
G0 F6000 X117.534 Y169.335
G0 X117.537 Y169.516
G1 F2700 E94.28739
G1 F1200 X222.888 Y169.516 E97.79138
G1 X222.888 Y65.48 E101.25163
G1 X29.545 Y65.48 E107.68225
G1 X12.352 Y169.515 E111.1894
G1 X117.537 Y169.516 E114.68786
G1 F2700 E109.68786
G0 F6000 X117.536 Y169.415
G0 X167.712 Y169.335
G0 X172.939 Y155.229
G0 X167.714 Y152.714
G1 F2700 E114.68786
G1 F1200 X164.034 Y149.038 E114.86087
G1 X161.667 Y144.117 E115.04249
G1 X160.452 Y138.153 E115.24493
G1 X160.052 Y131.338 E115.47198
G1 X160.053 Y106.034 E116.3136
G1 X160.453 Y99.7 E116.52469
G1 X161.671 Y93.891 E116.7221
G1 X164.038 Y88.907 E116.90561
G1 X167.701 Y85.035 E117.08289
G1 X172.969 Y82.563 E117.27644
G1 X179.88 Y81.752 E117.50788
G1 X186.297 Y82.453 E117.72258
G1 X191.165 Y84.587 E117.89936
G1 X194.618 Y88.082 E118.06277
G1 X196.855 Y92.649 E118.23191
G1 X198.076 Y98.172 E118.42004
G1 X198.475 Y104.357 E118.62618
G1 X198.476 Y109.767 E118.80612
G1 X198.365 Y110.049 E118.8162
G1 X198.252 Y110.169 E118.82168
G1 X197.953 Y110.296 E118.83249
G1 X188.327 Y110.298 E119.15265
G1 X188.11 Y110.205 E119.1605
G1 X187.894 Y109.96 E119.17137
G1 X187.838 Y109.755 E119.17843
G1 X187.836 Y104.434 E119.35541
G1 X187.4 Y97.09 E119.6001
G1 X186.67 Y94.406 E119.69262
G1 X185.37 Y92.419 E119.77159
G1 X183.259 Y91.229 E119.85219
G1 X179.958 Y90.809 E119.96287
G1 X177.031 Y91.124 E120.06078
G1 X174.842 Y92.036 E120.13966
G1 X173.265 Y93.632 E120.21428
G1 X172.167 Y96.121 E120.30476
G1 X171.526 Y99.723 E120.42645
G1 X171.308 Y104.518 E120.5861
G1 X171.308 Y132.775 E121.52593
G1 X171.83 Y140.373 E121.77923
G1 X172.725 Y143.157 E121.8765
G1 X174.196 Y145.137 E121.95854
G1 X176.494 Y146.407 E122.04586
G1 X179.975 Y146.847 E122.16256
G1 X183.333 Y146.449 E122.27503
G1 X185.47 Y145.31 E122.35558
G1 X186.734 Y143.497 E122.42909
G1 X187.4 Y140.921 E122.51758
G1 X187.836 Y134.013 E122.7478
G1 X187.838 Y128.961 E122.91583
G1 X187.918 Y128.711 E122.92456
G1 X188.11 Y128.511 E122.93378
G1 X188.387 Y128.417 E122.94351
G1 X197.901 Y128.416 E123.25995
G1 X198.128 Y128.471 E123.26771
G1 X198.365 Y128.667 E123.27794
G1 X198.476 Y128.949 E123.28802
G1 X198.475 Y134.709 E123.4796
G1 X198.024 Y140.74 E123.68075
G1 X196.669 Y145.913 E123.85861
G1 X194.334 Y150.128 E124.01888
G1 X190.787 Y153.257 E124.1762
G1 X186.016 Y155.184 E124.34733
G1 X179.877 Y155.812 E124.55258
G1 X172.963 Y155.047 E124.78395
G1 X167.714 Y152.714 E124.975
G1 F2700 E119.975
G0 F6000 X173.018 Y154.894
G0 X179.88 Y155.657
G0 X185.986 Y155.028
G0 X190.886 Y153.41
G0 X207.135 Y153.41
G0 X207.452 Y154.958
G1 F2700 E124.975
G1 F1200 X207.334 Y154.654 E124.98584
G1 X207.332 Y83.119 E127.36511
G1 X207.379 Y82.913 E127.37214
G1 X207.562 Y82.674 E127.38215
G1 X207.88 Y82.55 E127.3935
G1 X217.812 Y82.554 E127.72384
G1 X218.025 Y82.63 E127.73136
G1 X218.23 Y82.83 E127.74089
G1 X218.32 Y83.03 E127.74818
G1 X218.32 Y154.714 E130.1324
G1 X218.23 Y154.914 E130.1397
G1 X218.025 Y155.114 E130.14922
G1 X217.812 Y155.19 E130.15674
G1 X207.872 Y155.193 E130.48735
G1 X207.602 Y155.098 E130.49687
G1 X207.452 Y154.958 E130.50369
G0 F6000 X207.794 Y154.742
;TYPE:WALL-OUTER
G1 F1200 X207.732 Y154.616 E130.50836
G1 X207.737 Y83.101 E132.88696
G1 X207.808 Y82.99 E132.89134
G1 X207.914 Y82.948 E132.89514
G1 X217.803 Y82.95 E133.22405
G1 X217.92 Y83.106 E133.23053
G1 X217.918 Y154.631 E135.60946
G1 X217.859 Y154.741 E135.61362
G1 X217.769 Y154.796 E135.61712
G1 X207.892 Y154.793 E135.94563
G1 X207.794 Y154.742 E135.94931
G1 F2700 E130.94931
G0 F6000 X207.794 Y155.098
G0 X207.504 Y155.026
G0 X207.514 Y154.479
G0 X207.135 Y152.589
G0 X194.477 Y150.242
G0 X167.943 Y152.379
G1 F2700 E135.94931
G1 F1200 X164.375 Y148.813 E136.11709
G1 X162.046 Y143.989 E136.29526
G1 X160.849 Y138.102 E136.49507
