;FLAVOR:Marlin
;TIME:8372
;Filament used: 5.80053m
;Layer height: 0.2
;MINX:13.644
;MINY:53.881
;MINZ:0.2
;MAXX:221.356
;MAXY:181.119
;MAXZ:1
;TARGET_MACHINE.NAME:Creality Ender-3
;Generated with Cura_SteamEngine 5.8.1
M140 S50
M105
M190 S50
M104 S200
M105
M109 S200
M82 ;absolute extrusion mode
; Ender 3 Custom Start G-code
G92 E0 ; Reset Extruder
G28 ; Home all axes
G1 Z2.0 F3000 ; Move Z Axis up little to prevent scratching of Heat Bed
G1 X0.1 Y20 Z0.3 F5000.0 ; Move to start position
G1 X0.1 Y200.0 Z0.3 F1500.0 E15 ; Draw the first line
G1 X0.4 Y200.0 Z0.3 F5000.0 ; Move to side a little
G1 X0.4 Y20 Z0.3 F1500.0 E30 ; Draw the second line
G92 E0 ; Reset Extruder
G1 Z2.0 F3000 ; Move Z Axis up little to prevent scratching of Heat Bed
G1 X5 Y20 Z0.3 F5000.0 ; Move over to prevent blob squish
G92 E0
G92 E0
G1 F2700 E-5
;LAYER_COUNT:5
;LAYER:0
M107
G0 F6000 X20.343 Y54.771 Z0.2
;TYPE:SKIRT
G1 F2700 E0
G1 F1200 X21.256 Y54.429 E0.03243
G1 X22.193 Y54.17 E0.06476
G1 X23.16 Y53.992 E0.09746
G1 X24.299 Y53.896 E0.13548
G1 X24.956 Y53.881 E0.15734
G1 X209.66 Y53.881 E6.30062
G1 X210.54 Y53.894 E6.32989
G1 X211.512 Y53.953 E6.36228
G1 X212.475 Y54.099 E6.39467
G1 X213.422 Y54.33 E6.4271
G1 X214.31 Y54.63 E6.45827
G1 X215.202 Y55.02 E6.49065
G1 X216.085 Y55.507 E6.52419
G1 X216.836 Y56.009 E6.55423
G1 X217.651 Y56.667 E6.58907
G1 X218.349 Y57.345 E6.62144
G1 X218.985 Y58.082 E6.65382
G1 X219.555 Y58.872 E6.68622
G1 X220.017 Y59.648 E6.71625
G1 X220.471 Y60.59 E6.75103
G1 X220.8 Y61.468 E6.78222
G1 X221.069 Y62.44 E6.81576
G1 X221.246 Y63.406 E6.84843
G1 X221.341 Y64.536 E6.88614
G1 X221.356 Y65.211 E6.9086
G1 X221.355 Y169.519 E10.3779
G1 X221.344 Y170.282 E10.40328
G1 X221.287 Y171.255 E10.4357
G1 X221.142 Y172.218 E10.46809
G1 X220.913 Y173.164 E10.50046
G1 X220.602 Y174.088 E10.53289
G1 X220.21 Y174.979 E10.56526
G1 X219.742 Y175.831 E10.59759
G1 X219.22 Y176.612 E10.62884
G1 X218.587 Y177.397 E10.66238
G1 X217.962 Y178.048 E10.69239
G1 X217.173 Y178.736 E10.72721
G1 X216.413 Y179.286 E10.75841
G1 X215.546 Y179.803 E10.79199
G1 X214.668 Y180.225 E10.82439
G1 X213.757 Y180.567 E10.85675
G1 X212.818 Y180.828 E10.88917
G1 X211.852 Y181.006 E10.92184
G1 X210.701 Y181.104 E10.96026
G1 X210.026 Y181.119 E10.98272
G1 X25.208 Y181.118 E17.12979
G1 X24.475 Y181.107 E17.15417
G1 X23.503 Y181.05 E17.18656
G1 X22.54 Y180.904 E17.21895
G1 X21.594 Y180.675 E17.25132
G1 X20.67 Y180.363 E17.28376
G1 X19.78 Y179.971 E17.31611
G1 X18.957 Y179.52 E17.34732
G1 X18.118 Y178.959 E17.38089
G1 X17.414 Y178.393 E17.41093
G1 X16.661 Y177.668 E17.4457
G1 X16.024 Y176.932 E17.47807
G1 X15.494 Y176.201 E17.50811
G1 X14.958 Y175.304 E17.54286
G1 X14.536 Y174.426 E17.57526
G1 X14.194 Y173.514 E17.60766
G1 X13.934 Y172.576 E17.64003
G1 X13.756 Y171.607 E17.6728
G1 X13.658 Y170.428 E17.71215
G1 X13.644 Y169.777 E17.73381
G1 X13.645 Y65.406 E21.2052
G1 X13.656 Y64.706 E21.22848
G1 X13.714 Y63.733 E21.2609
G1 X13.86 Y62.77 E21.2933
G1 X14.09 Y61.824 E21.32568
G1 X14.403 Y60.901 E21.3581
G1 X14.795 Y60.011 E21.39044
G1 X15.265 Y59.158 E21.42283
G1 X15.808 Y58.35 E21.45521
G1 X16.375 Y57.646 E21.48528
G1 X17.1 Y56.894 E21.52002
G1 X17.836 Y56.257 E21.5524
G1 X18.568 Y55.727 E21.58245
G1 X19.465 Y55.192 E21.61719
G1 X20.343 Y54.771 E21.64958
G0 F6000 X20.484 Y55.145
G1 F1200 X21.363 Y54.814 E21.68082
G1 X22.266 Y54.563 E21.71199
G1 X23.194 Y54.391 E21.74338
G1 X24.333 Y54.295 E21.7814
G1 X24.965 Y54.281 E21.80242
G1 X209.654 Y54.281 E27.9452
G1 X210.516 Y54.293 E27.97388
G1 X211.453 Y54.349 E28.0051
G1 X212.381 Y54.488 E28.03631
G1 X213.294 Y54.709 E28.06755
G1 X214.15 Y54.997 E28.09759
G1 X215.042 Y55.387 E28.12997
G1 X215.863 Y55.84 E28.16116
G1 X216.614 Y56.342 E28.1912
G1 X217.373 Y56.954 E28.22363
G1 X218.047 Y57.607 E28.25484
G1 X218.661 Y58.316 E28.28604
G1 X219.211 Y59.077 E28.31727
G1 X219.673 Y59.853 E28.34731
G1 X220.096 Y60.73 E28.37969
G1 X220.425 Y61.608 E28.41088
G1 X220.676 Y62.513 E28.44211
G1 X220.847 Y63.44 E28.47347
G1 X220.942 Y64.57 E28.51118
G1 X220.956 Y65.211 E28.53251
G1 X220.955 Y169.514 E32.00164
G1 X220.945 Y170.259 E32.02642
G1 X220.891 Y171.196 E32.05764
G1 X220.753 Y172.125 E32.08887
G1 X220.534 Y173.037 E32.12007
G1 X220.236 Y173.927 E32.15129
G1 X219.859 Y174.787 E32.18252
G1 X219.409 Y175.609 E32.21369
G1 X218.887 Y176.39 E32.24493
G1 X218.298 Y177.12 E32.27613
G1 X217.673 Y177.771 E32.30614
G1 X216.938 Y178.412 E32.33858
G1 X216.178 Y178.962 E32.36978
G1 X215.372 Y179.443 E32.401
G1 X214.527 Y179.851 E32.43221
G1 X213.649 Y180.182 E32.46342
G1 X212.745 Y180.435 E32.49464
G1 X211.818 Y180.607 E32.526
G1 X210.667 Y180.705 E32.56442
G1 X210.026 Y180.719 E32.58575
G1 X25.214 Y180.718 E38.73262
G1 X24.498 Y180.708 E38.75643
G1 X23.562 Y180.654 E38.78762
G1 X22.633 Y180.515 E38.81886
G1 X21.721 Y180.296 E38.85006
G1 X20.831 Y179.997 E38.88128
G1 X19.972 Y179.62 E38.91248
G1 X19.149 Y179.169 E38.9437
G1 X18.369 Y178.647 E38.97491
G1 X17.665 Y178.081 E39.00496
G1 X16.963 Y177.406 E39.03735
G1 X16.348 Y176.697 E39.06857
G1 X15.818 Y175.966 E39.0986
G1 X15.318 Y175.13 E39.131
G1 X14.91 Y174.285 E39.16221
G1 X14.579 Y173.407 E39.19342
G1 X14.327 Y172.503 E39.22463
G1 X14.155 Y171.574 E39.25605
G1 X14.057 Y170.395 E39.2954
G1 X14.044 Y169.777 E39.31596
G1 X14.045 Y65.412 E42.78716
G1 X14.055 Y64.729 E42.80987
G1 X14.11 Y63.792 E42.84109
G1 X14.249 Y62.864 E42.8723
G1 X14.469 Y61.952 E42.90351
G1 X14.769 Y61.062 E42.93474
G1 X15.146 Y60.203 E42.96594
G1 X15.597 Y59.381 E42.99713
G1 X16.12 Y58.601 E43.02836
G1 X16.687 Y57.897 E43.05843
G1 X17.362 Y57.196 E43.0908
G1 X18.071 Y56.581 E43.12201
G1 X18.803 Y56.051 E43.15207
G1 X19.639 Y55.552 E43.18445
G1 X20.484 Y55.145 E43.21565
G0 F6000 X20.626 Y55.519
G1 F1200 X21.471 Y55.199 E43.2457
G1 X22.34 Y54.956 E43.27571
G1 X23.228 Y54.79 E43.30576
G1 X24.367 Y54.694 E43.34378
G1 X24.974 Y54.681 E43.36397
G1 X209.649 Y54.681 E49.50629
G1 X210.493 Y54.692 E49.53436
G1 X211.395 Y54.745 E49.56441
G1 X212.288 Y54.877 E49.59444
G1 X213.166 Y55.088 E49.62447
G1 X214.022 Y55.376 E49.65451
G1 X214.849 Y55.738 E49.68453
G1 X215.641 Y56.173 E49.71459
G1 X216.392 Y56.675 E49.74463
G1 X217.095 Y57.242 E49.77467
G1 X217.745 Y57.869 E49.80471
G1 X218.337 Y58.551 E49.83475
G1 X218.867 Y59.282 E49.86478
G1 X219.329 Y60.058 E49.89482
G1 X219.722 Y60.871 E49.92485
G1 X220.04 Y61.716 E49.95488
G1 X220.283 Y62.586 E49.98492
G1 X220.448 Y63.474 E50.01496
G1 X220.543 Y64.604 E50.05268
G1 X220.556 Y65.211 E50.07287
G1 X220.555 Y169.509 E53.54184
G1 X220.546 Y170.236 E53.56602
G1 X220.495 Y171.138 E53.59607
G1 X220.364 Y172.032 E53.62612
G1 X220.155 Y172.91 E53.65614
G1 X219.869 Y173.767 E53.68619
G1 X219.508 Y174.595 E53.71623
G1 X219.076 Y175.387 E53.74624
G1 X218.575 Y176.139 E53.77629
G1 X218.009 Y176.843 E53.80634
G1 X217.384 Y177.494 E53.83635
G1 X216.703 Y178.088 E53.86641
G1 X215.972 Y178.619 E53.89646
G1 X215.198 Y179.083 E53.92647
G1 X214.385 Y179.477 E53.95652
G1 X213.541 Y179.797 E53.98654
G1 X212.671 Y180.042 E54.01661
G1 X211.784 Y180.208 E54.04662
G1 X210.633 Y180.306 E54.08504
G1 X210.026 Y180.319 E54.10523
G1 X25.219 Y180.318 E60.25194
G1 X24.521 Y180.309 E60.27516
G1 X23.62 Y180.258 E60.30517
G1 X22.726 Y180.126 E60.33523
G1 X21.848 Y179.917 E60.36525
G1 X20.991 Y179.63 E60.39531
G1 X20.164 Y179.269 E60.42532
G1 X19.371 Y178.836 E60.45537
G1 X18.62 Y178.335 E60.4854
G1 X17.916 Y177.769 E60.51544
G1 X17.265 Y177.143 E60.54548
G1 X16.672 Y176.462 E60.57552
G1 X16.142 Y175.731 E60.60555
G1 X15.678 Y174.956 E60.63559
G1 X15.284 Y174.143 E60.66564
G1 X14.964 Y173.299 E60.69566
G1 X14.72 Y172.429 E60.72571
G1 X14.554 Y171.541 E60.75576
G1 X14.457 Y170.386 E60.79431
G1 X14.444 Y169.777 E60.81457
G1 X14.445 Y65.417 E64.2856
G1 X14.454 Y64.752 E64.30772
G1 X14.506 Y63.85 E64.33777
G1 X14.638 Y62.957 E64.36779
G1 X14.848 Y62.079 E64.39782
G1 X15.135 Y61.222 E64.42788
G1 X15.497 Y60.395 E64.4579
G1 X15.93 Y59.603 E64.48793
G1 X16.432 Y58.852 E64.51797
G1 X16.999 Y58.148 E64.54804
G1 X17.625 Y57.498 E64.57805
G1 X18.306 Y56.905 E64.60809
G1 X19.038 Y56.375 E64.63814
G1 X19.813 Y55.912 E64.66817
G1 X20.626 Y55.519 E64.6982
G1 F2700 E59.6982
;MESH:oc_segments_lg_01.stl
G0 F6000 X179.812 Y138.657
G0 X181.354 Y141.505
;TYPE:WALL-INNER
G1 F2700 E64.6982
G1 F1200 X182.53 Y142.266 E64.74479
G1 X184.303 Y142.537 E64.80445
G1 X186.204 Y142.264 E64.86832
G1 X187.42 Y141.501 E64.91607
G1 X188.787 Y138.608 E65.02249
G1 X189.12 Y134.821 E65.14894
G1 X189.12 Y100.735 E66.28264
G1 X188.787 Y96.948 E66.40908
G1 X187.42 Y94.055 E66.51551
G1 X186.204 Y93.292 E66.56325
G1 X184.299 Y93.019 E66.62726
G1 X182.391 Y93.292 E66.69137
G1 X181.187 Y94.047 E66.73863
G1 X179.908 Y96.934 E66.84366
G1 X179.653 Y100.753 E66.97096
G1 X179.652 Y134.821 E68.10407
G1 X179.989 Y138.608 E68.23052
G1 X181.354 Y141.505 E68.33704
G0 F6000 X181.041 Y141.779
;TYPE:WALL-OUTER
G1 F1200 X182.385 Y142.648 E68.39027
G1 X184.301 Y142.941 E68.45473
G1 X186.345 Y142.648 E68.52341
G1 X187.732 Y141.777 E68.57789
G1 X189.179 Y138.714 E68.69056
G1 X189.52 Y134.839 E68.81994
G1 X189.52 Y100.717 E69.95484
G1 X189.179 Y96.842 E70.08422
G1 X187.732 Y93.779 E70.19689
G1 X186.345 Y92.908 E70.25137
G1 X184.299 Y92.615 E70.32011
G1 X182.251 Y92.908 E70.38892
G1 X180.871 Y93.773 E70.44309
G1 X179.514 Y96.837 E70.55455
G1 X179.253 Y100.739 E70.68462
G1 X179.252 Y134.839 E71.81879
G1 X179.597 Y138.714 E71.94818
G1 X181.041 Y141.779 E72.06087
G0 F6000 X181.637 Y141.255
;TYPE:SKIN
G1 F1200 X180.341 Y138.51 E72.16184
G1 X180.012 Y134.819 E72.28509
G1 X180.013 Y100.775 E73.41739
G1 X180.262 Y97.021 E73.54253
G1 X181.47 Y94.294 E73.64173
G1 X182.523 Y93.636 E73.68303
G1 X184.297 Y93.383 E73.74263
G1 X186.073 Y93.637 E73.8023
G1 X187.14 Y94.307 E73.8442
G1 X188.435 Y97.046 E73.94497
G1 X188.76 Y100.737 E74.06821
G1 X188.76 Y134.819 E75.20178
G1 X188.435 Y138.51 E75.32502
G1 X187.14 Y141.249 E75.42579
G1 X186.073 Y141.916 E75.46764
G1 X184.305 Y142.169 E75.52704
G1 X182.661 Y141.92 E75.58235
G1 X181.637 Y141.255 E75.62296
G0 F6000 X181.745 Y141.015
G1 F1200 X181.946 Y141.217 E75.63244
G0 F6000 X181.694 Y141.604
G0 X182.5 Y142.061
G0 X183.451 Y142.304
G0 X183.076 Y141.781
G1 F1200 X181.239 Y139.944 E75.71884
G0 F6000 X180.822 Y140.139
G0 X180.316 Y139.067
G0 X180.733 Y138.872
G1 F1200 X183.742 Y141.882 E75.8604
G0 F6000 X184.382 Y141.956
G1 F1200 X180.503 Y138.077 E76.04286
G0 F6000 X180.447 Y137.455
G1 F1200 X184.877 Y141.885 E76.25123
G0 F6000 X185.372 Y141.814
G1 F1200 X180.392 Y136.834 E76.48547
G0 F6000 X180.337 Y136.214
G1 F1200 X185.867 Y141.743 E76.74556
G0 F6000 X186.255 Y141.566
G1 F1200 X180.281 Y135.592 E77.02656
G0 F6000 X180.226 Y134.971
G1 F1200 X186.603 Y141.348 E77.32652
G0 F6000 X186.951 Y141.13
G1 F1200 X180.212 Y134.391 E77.6435
G0 F6000 X180.212 Y133.826
G1 F1200 X187.149 Y140.762 E77.96977
G0 F6000 X187.33 Y140.378
G1 F1200 X180.212 Y133.26 E78.30458
G0 F6000 X180.212 Y132.694
G1 F1200 X187.512 Y139.994 E78.64795
G0 F6000 X187.694 Y139.61
G1 F1200 X180.212 Y132.129 E78.99986
G0 F6000 X180.212 Y131.563
G1 F1200 X187.875 Y139.226 E79.3603
G0 F6000 X188.057 Y138.843
G1 F1200 X180.212 Y130.997 E79.72933
G0 F6000 X180.212 Y130.432
G1 F1200 X188.239 Y138.459 E80.10689
G0 F6000 X188.285 Y137.939
G1 F1200 X180.212 Y129.866 E80.48662
G0 F6000 X180.212 Y129.3
G1 F1200 X188.331 Y137.419 E80.86852
G0 F6000 X188.376 Y136.899
G1 F1200 X180.212 Y128.734 E81.25255
G0 F6000 X180.212 Y128.169
G1 F1200 X188.422 Y136.379 E81.63872
G0 F6000 X188.468 Y135.859
G1 F1200 X180.212 Y127.603 E82.02706
G0 F6000 X180.212 Y127.037
G1 F1200 X188.514 Y135.34 E82.41758
G0 F6000 X188.559 Y134.819
G1 F1200 X180.212 Y126.472 E82.8102
G0 F6000 X180.212 Y125.906
G1 F1200 X188.56 Y134.254 E83.20287
G0 F6000 X188.56 Y133.688
G1 F1200 X180.212 Y125.34 E83.59553
G0 F6000 X180.212 Y124.775
G1 F1200 X188.56 Y133.123 E83.98819
G0 F6000 X188.56 Y132.557
G1 F1200 X180.212 Y124.209 E84.38086
G0 F6000 X180.212 Y123.643
G1 F1200 X188.56 Y131.991 E84.77352
G0 F6000 X188.56 Y131.426
G1 F1200 X180.212 Y123.078 E85.16619
G0 F6000 X180.212 Y122.512
G1 F1200 X188.56 Y130.86 E85.55885
G0 F6000 X188.56 Y130.294
G1 F1200 X180.212 Y121.946 E85.95152
G0 F6000 X180.212 Y121.381
G1 F1200 X188.56 Y129.729 E86.34418
G0 F6000 X188.56 Y129.163
G1 F1200 X180.212 Y120.815 E86.73684
G0 F6000 X180.212 Y120.249
G1 F1200 X188.56 Y128.597 E87.12951
G0 F6000 X188.56 Y128.032
G1 F1200 X180.212 Y119.683 E87.5222
G0 F6000 X180.212 Y119.118
G1 F1200 X188.56 Y127.466 E87.91486
G0 F6000 X188.56 Y126.9
G1 F1200 X180.212 Y118.552 E88.30753
G0 F6000 X180.212 Y117.986
G1 F1200 X188.56 Y126.335 E88.70021
G0 F6000 X188.56 Y125.769
G1 F1200 X180.212 Y117.421 E89.09288
G0 F6000 X180.212 Y116.855
G1 F1200 X188.56 Y125.203 E89.48554
G0 F6000 X188.56 Y124.637
G1 F1200 X180.212 Y116.289 E89.87821
G0 F6000 X180.212 Y115.724
G1 F1200 X188.56 Y124.072 E90.27087
G0 F6000 X188.56 Y123.506
G1 F1200 X180.212 Y115.158 E90.66353
G0 F6000 X180.212 Y114.592
G1 F1200 X188.56 Y122.94 E91.0562
G0 F6000 X188.56 Y122.375
G1 F1200 X180.212 Y114.027 E91.44886
G0 F6000 X180.212 Y113.461
G1 F1200 X188.56 Y121.809 E91.84153
G0 F6000 X188.56 Y121.243
G1 F1200 X180.212 Y112.895 E92.23419
G0 F6000 X180.212 Y112.33
G1 F1200 X188.56 Y120.678 E92.62686
G0 F6000 X188.56 Y120.112
G1 F1200 X180.212 Y111.764 E93.01952
G0 F6000 X180.212 Y111.198
G1 F1200 X188.56 Y119.546 E93.41219
G0 F6000 X188.56 Y118.981
G1 F1200 X180.212 Y110.633 E93.80485
G0 F6000 X180.212 Y110.067
G1 F1200 X188.56 Y118.415 E94.19751
G0 F6000 X188.56 Y117.849
G1 F1200 X180.212 Y109.501 E94.59018
G0 F6000 X180.212 Y108.935
G1 F1200 X188.56 Y117.284 E94.98287
G0 F6000 X188.56 Y116.718
G1 F1200 X180.212 Y108.37 E95.37553
G0 F6000 X180.212 Y107.804
G1 F1200 X188.56 Y116.152 E95.76819
G0 F6000 X188.56 Y115.587
G1 F1200 X180.212 Y107.238 E96.16088
G0 F6000 X180.212 Y106.673
G1 F1200 X188.56 Y115.021 E96.55355
G0 F6000 X188.56 Y114.455
G1 F1200 X180.212 Y106.107 E96.94621
G0 F6000 X180.212 Y105.541
G1 F1200 X188.56 Y113.889 E97.33888
G0 F6000 X188.56 Y113.324
G1 F1200 X180.212 Y104.976 E97.73154
G0 F6000 X180.212 Y104.41
G1 F1200 X188.56 Y112.758 E98.1242
G0 F6000 X188.56 Y112.192
G1 F1200 X180.212 Y103.844 E98.51687
G0 F6000 X180.212 Y103.279
G1 F1200 X188.56 Y111.627 E98.90953
G0 F6000 X188.56 Y111.061
G1 F1200 X180.212 Y102.713 E99.3022
G0 F6000 X180.212 Y102.147
G1 F1200 X188.56 Y110.495 E99.69486
G0 F6000 X188.56 Y109.93
G1 F1200 X180.212 Y101.582 E100.08753
G0 F6000 X180.212 Y101.016
G1 F1200 X188.56 Y109.364 E100.48019
G0 F6000 X188.56 Y108.798
G1 F1200 X180.233 Y100.471 E100.87187
G0 F6000 X180.268 Y99.941
G1 F1200 X188.56 Y108.233 E101.2619
G0 F6000 X188.56 Y107.667
G1 F1200 X180.303 Y99.41 E101.65028
G0 F6000 X180.338 Y98.88
G1 F1200 X188.56 Y107.101 E102.03699
G0 F6000 X188.56 Y106.536
G1 F1200 X180.374 Y98.349 E102.42206
G0 F6000 X180.409 Y97.819
G1 F1200 X188.56 Y105.97 E102.80546
G0 F6000 X188.56 Y105.404
G1 F1200 X180.444 Y97.289 E103.18719
G0 F6000 X180.561 Y96.84
G1 F1200 X188.56 Y104.838 E103.56341
G0 F6000 X188.56 Y104.273
G1 F1200 X180.734 Y96.447 E103.93152
G0 F6000 X180.908 Y96.056
G1 F1200 X188.56 Y103.707 E104.29143
G0 F6000 X188.56 Y103.141
G1 F1200 X181.082 Y95.663 E104.64317
G0 F6000 X181.256 Y95.271
G1 F1200 X188.56 Y102.576 E104.98675
G0 F6000 X188.56 Y102.01
G1 F1200 X181.429 Y94.879 E105.32217
G0 F6000 X181.603 Y94.487
G1 F1200 X188.56 Y101.444 E105.64941
G0 F6000 X188.56 Y100.879
G1 F1200 X181.927 Y94.245 E105.96143
G0 F6000 X182.274 Y94.028
G1 F1200 X188.518 Y100.271 E106.2551
G0 F6000 X188.464 Y99.651
G1 F1200 X182.635 Y93.822 E106.52928
G0 F6000 X183.13 Y93.752
G1 F1200 X188.409 Y99.031 E106.77759
G0 F6000 X188.355 Y98.411
G1 F1200 X183.625 Y93.681 E107.00007
G0 F6000 X184.12 Y93.61
G1 F1200 X188.3 Y97.791 E107.19671
G0 F6000 X188.245 Y97.17
G1 F1200 X184.721 Y93.646 E107.36247
G0 F6000 X185.381 Y93.74
G1 F1200 X187.79 Y96.149 E107.47578
G0 F6000 X188.206 Y95.954
G0 X187.698 Y94.88
G0 X187.282 Y95.075
G1 F1200 X186.091 Y93.884 E107.5318
G1 F2700 E102.5318
G0 F6000 X186.338 Y93.495
G0 X184.299 Y93.181
G0 X182.449 Y93.447
G0 X181.315 Y94.158
G0 X180.067 Y96.974
