;FLAVOR:Marlin
;TIME:20327
;Filament used: 10.5843m
;Layer height: 0.2
;MINX:80.553
;MINY:102.165
;MINZ:0.2
;MAXX:154.448
;MAXY:131.967
;MAXZ:102.8
;Generated with Cura_SteamEngine 4.13.0
M140 S60
M105
M190 S60
M104 S200
M105
M109 S200
M82 ;absolute extrusion mode
; Ender 3 Custom Start G-code
G92 E0 ; Reset Extruder
G28 ; Home all axes
G1 Z2.0 F3000 ; Move Z Axis up little to prevent scratching of Heat Bed
G1 X0.1 Y20 Z0.3 F5000.0 ; Move to start position
G1 X0.1 Y200.0 Z0.3 F1500.0 E15 ; Draw the first line
G1 X0.4 Y200.0 Z0.3 F5000.0 ; Move to side a little
G1 X0.4 Y20 Z0.3 F1500.0 E30 ; Draw the second line
G92 E0 ; Reset Extruder
G1 Z2.0 F3000 ; Move Z Axis up little to prevent scratching of Heat Bed
G1 X5 Y20 Z0.3 F5000.0 ; Move over to prevent blob squish
G92 E0
G92 E0
G1 F1500 E-6.5
;LAYER_COUNT:515
;LAYER:0
M107
G0 F6000 X84.449 Y104.884 Z0.2
;TYPE:SKIRT
G1 F1500 E0
G1 F1200 X85.189 Y104.309 E0.03117
G1 X85.976 Y103.799 E0.06236
G1 X86.804 Y103.357 E0.09358
G1 X87.666 Y102.988 E0.12476
G1 X88.987 Y102.581 E0.17074
G1 X89.095 Y102.555 E0.17443
G1 X90.016 Y102.374 E0.20565
G1 X90.614 Y102.3 E0.22569
G1 X91.205 Y102.243 E0.24544
G1 X91.586 Y102.213 E0.25815
G1 X91.83 Y102.198 E0.26628
G1 X92.108 Y102.184 E0.27554
G1 X92.302 Y102.177 E0.282
G1 X92.586 Y102.171 E0.29145
G1 X92.991 Y102.167 E0.30492
G1 X137.483 Y102.165 E1.78473
G1 X141.976 Y102.168 E1.93417
G1 X142.648 Y102.177 E1.95652
G1 X143.048 Y102.19 E1.96983
G1 X143.309 Y102.203 E1.97852
G1 X143.76 Y102.234 E1.99356
G1 X144.188 Y102.273 E2.00785
G1 X145.538 Y102.482 E2.05329
G1 X145.776 Y102.534 E2.06139
G1 X146.683 Y102.773 E2.09259
G1 X147.566 Y103.088 E2.12377
G1 X148.419 Y103.478 E2.15496
G1 X149.236 Y103.938 E2.18615
G1 X150.011 Y104.467 E2.21736
G1 X150.738 Y105.06 E2.24856
G1 X151.411 Y105.712 E2.27973
G1 X152.027 Y106.42 E2.31094
G1 X152.58 Y107.177 E2.34212
G1 X153.066 Y107.979 E2.37331
G1 X153.483 Y108.819 E2.4045
G1 X153.826 Y109.692 E2.4357
G1 X154.094 Y110.591 E2.4669
G1 X154.285 Y111.509 E2.49809
G1 X154.396 Y112.441 E2.52931
G1 X154.426 Y113.053 E2.54969
G1 X154.446 Y114.021 E2.58189
G1 X154.448 Y114.246 E2.58937
G1 X154.448 Y120.265 E2.78956
G1 X154.438 Y120.998 E2.81395
G1 X154.385 Y121.934 E2.84513
G1 X154.253 Y122.863 E2.87634
G1 X154.042 Y123.777 E2.90754
G1 X153.754 Y124.669 E2.93871
G1 X153.391 Y125.534 E2.96991
G1 X152.956 Y126.365 E3.00111
G1 X152.451 Y127.155 E3.03229
G1 X151.881 Y127.9 E3.06349
G1 X151.25 Y128.594 E3.09469
G1 X150.561 Y129.231 E3.1259
G1 X149.821 Y129.807 E3.15709
G1 X149.035 Y130.318 E3.18827
G1 X148.208 Y130.76 E3.21946
G1 X147.346 Y131.131 E3.25067
G1 X146.076 Y131.527 E3.29492
G1 X145.914 Y131.567 E3.30047
G1 X144.995 Y131.753 E3.33166
G1 X144.34 Y131.837 E3.35362
G1 X143.753 Y131.894 E3.37323
G1 X143.4 Y131.922 E3.38501
G1 X143.199 Y131.935 E3.39171
G1 X142.83 Y131.953 E3.404
G1 X142.446 Y131.962 E3.41677
G1 X141.956 Y131.967 E3.43307
G1 X93.05 Y131.966 E5.05969
G1 X92.345 Y131.956 E5.08314
G1 X92.021 Y131.947 E5.09392
G1 X91.792 Y131.937 E5.10155
G1 X91.268 Y131.901 E5.11902
G1 X90.788 Y131.857 E5.13505
G1 X89.474 Y131.656 E5.17926
G1 X89.256 Y131.609 E5.18668
G1 X88.348 Y131.372 E5.21789
G1 X87.464 Y131.059 E5.24908
G1 X86.61 Y130.672 E5.28027
G1 X85.792 Y130.214 E5.31145
G1 X85.016 Y129.687 E5.34265
G1 X84.287 Y129.096 E5.37386
G1 X83.612 Y128.446 E5.40503
G1 X82.994 Y127.74 E5.43623
G1 X82.439 Y126.984 E5.46743
G1 X81.95 Y126.183 E5.49864
G1 X81.531 Y125.344 E5.52983
G1 X81.186 Y124.473 E5.56099
G1 X80.915 Y123.574 E5.59222
G1 X80.722 Y122.657 E5.62339
G1 X80.608 Y121.726 E5.65459
G1 X80.576 Y121.079 E5.67613
G1 X80.555 Y120.042 E5.71063
G1 X80.553 Y119.821 E5.71798
G1 X80.553 Y113.792 E5.91851
G1 X80.563 Y113.113 E5.94109
G1 X80.617 Y112.177 E5.97227
G1 X80.75 Y111.248 E6.00349
G1 X80.962 Y110.335 E6.03466
G1 X81.251 Y109.442 E6.06588
G1 X81.615 Y108.578 E6.09706
G1 X82.051 Y107.748 E6.12825
G1 X82.557 Y106.958 E6.15945
G1 X83.128 Y106.214 E6.19064
G1 X83.76 Y105.521 E6.22184
G1 X84.449 Y104.884 E6.25305
G0 F6000 X84.837 Y105.081
G1 F1200 X85.574 Y104.529 E6.28367
G1 X86.355 Y104.042 E6.31429
G1 X87.176 Y103.625 E6.34491
G1 X88.03 Y103.281 E6.37554
G1 X89.081 Y102.969 E6.412
G1 X89.189 Y102.943 E6.41569
G1 X90.093 Y102.767 E6.44633
G1 X90.652 Y102.698 E6.46506
G1 X91.243 Y102.641 E6.48481
G1 X91.611 Y102.612 E6.49708
G1 X91.855 Y102.597 E6.50522
G1 X92.317 Y102.577 E6.5206
G1 X92.59 Y102.571 E6.52968
G1 X92.991 Y102.567 E6.54302
G1 X137.483 Y102.565 E8.02283
G1 X141.971 Y102.568 E8.1721
G1 X142.643 Y102.577 E8.19445
G1 X143.028 Y102.589 E8.20726
G1 X143.289 Y102.602 E8.21595
G1 X143.724 Y102.633 E8.23046
G1 X144.152 Y102.672 E8.24475
G1 X145.453 Y102.872 E8.28853
G1 X145.691 Y102.924 E8.29664
G1 X146.581 Y103.16 E8.32726
G1 X147.447 Y103.471 E8.35786
G1 X148.283 Y103.857 E8.38849
G1 X149.082 Y104.314 E8.41911
G1 X149.839 Y104.838 E8.44973
G1 X150.547 Y105.427 E8.48036
G1 X151.202 Y106.074 E8.51098
G1 X151.798 Y106.776 E8.54161
G1 X152.331 Y107.526 E8.57221
G1 X152.796 Y108.321 E8.60284
G1 X153.191 Y109.152 E8.63345
G1 X153.513 Y110.015 E8.66408
G1 X153.758 Y110.902 E8.69469
G1 X153.925 Y111.808 E8.72533
G1 X154.026 Y113.061 E8.76714
G1 X154.046 Y114.029 E8.79934
G1 X154.048 Y114.246 E8.80656
G1 X154.048 Y120.26 E9.00659
G1 X154.038 Y120.993 E9.03097
G1 X153.985 Y121.912 E9.06159
G1 X153.853 Y122.823 E9.0922
G1 X153.643 Y123.719 E9.12281
G1 X153.355 Y124.594 E9.15345
G1 X152.993 Y125.44 E9.18406
G1 X152.558 Y126.252 E9.21469
G1 X152.055 Y127.023 E9.24531
G1 X151.487 Y127.747 E9.27592
G1 X150.858 Y128.419 E9.30653
G1 X150.173 Y129.034 E9.33715
G1 X149.437 Y129.588 E9.36779
G1 X148.656 Y130.075 E9.3984
G1 X147.836 Y130.493 E9.42902
G1 X146.982 Y130.838 E9.45965
G1 X145.98 Y131.139 E9.49445
G1 X145.818 Y131.179 E9.5
G1 X144.915 Y131.361 E9.53064
G1 X144.301 Y131.438 E9.55122
G1 X143.714 Y131.495 E9.57083
G1 X143.374 Y131.523 E9.58218
G1 X143.173 Y131.536 E9.58888
G1 X142.818 Y131.553 E9.6007
G1 X142.442 Y131.562 E9.61321
G1 X141.956 Y131.567 E9.62937
G1 X93.056 Y131.566 E11.2558
G1 X92.351 Y131.556 E11.27925
G1 X92.039 Y131.547 E11.28963
G1 X91.81 Y131.537 E11.29725
G1 X91.304 Y131.503 E11.31412
G1 X90.824 Y131.459 E11.33015
G1 X89.558 Y131.265 E11.37275
G1 X89.34 Y131.218 E11.38017
G1 X88.449 Y130.985 E11.4108
G1 X87.582 Y130.676 E11.44141
G1 X86.745 Y130.292 E11.47204
G1 X85.945 Y129.838 E11.50263
G1 X85.186 Y129.315 E11.53329
G1 X84.477 Y128.729 E11.56389
G1 X83.82 Y128.084 E11.59451
G1 X83.222 Y127.383 E11.62515
G1 X82.687 Y126.634 E11.65577
G1 X82.219 Y125.841 E11.68639
G1 X81.822 Y125.011 E11.717
G1 X81.498 Y124.149 E11.74762
G1 X81.251 Y123.262 E11.77825
G1 X81.081 Y122.357 E11.80888
G1 X80.976 Y121.071 E11.85179
G1 X80.955 Y120.034 E11.88629
G1 X80.953 Y119.821 E11.89337
G1 X80.953 Y113.798 E12.0937
G1 X80.963 Y113.119 E12.11628
G1 X81.017 Y112.2 E12.1469
G1 X81.15 Y111.289 E12.17752
G1 X81.361 Y110.393 E12.20814
G1 X81.65 Y109.519 E12.23876
G1 X82.013 Y108.673 E12.26938
G1 X82.449 Y107.861 E12.30003
G1 X82.953 Y107.091 E12.33064
G1 X83.522 Y106.367 E12.36127
G1 X84.152 Y105.696 E12.39188
G1 X84.837 Y105.081 E12.4225
G0 F6000 X85.225 Y105.282
G1 F1200 X85.957 Y104.753 E12.45254
G1 X86.732 Y104.291 E12.48255
G1 X87.546 Y103.899 E12.5126
G1 X88.391 Y103.58 E12.54264
G1 X89.175 Y103.358 E12.56974
G1 X89.283 Y103.332 E12.57343
G1 X90.169 Y103.16 E12.60345
G1 X90.691 Y103.096 E12.62094
G1 X91.282 Y103.039 E12.64069
G1 X91.635 Y103.011 E12.65247
G1 X91.879 Y102.996 E12.6606
G1 X92.331 Y102.977 E12.67565
G1 X92.594 Y102.971 E12.6844
G1 X92.991 Y102.967 E12.6976
G1 X137.483 Y102.965 E14.17741
G1 X141.966 Y102.968 E14.32652
G1 X142.638 Y102.977 E14.34887
G1 X143.008 Y102.989 E14.36118
G1 X143.269 Y103.002 E14.36987
G1 X143.688 Y103.031 E14.38384
G1 X144.116 Y103.07 E14.39814
G1 X145.367 Y103.263 E14.44024
G1 X145.605 Y103.315 E14.44834
G1 X146.478 Y103.547 E14.47838
G1 X147.327 Y103.855 E14.50842
G1 X148.146 Y104.236 E14.53847
G1 X148.927 Y104.689 E14.5685
G1 X149.665 Y105.209 E14.59852
G1 X150.355 Y105.793 E14.62859
G1 X150.99 Y106.435 E14.65862
G1 X151.566 Y107.13 E14.68864
G1 X152.078 Y107.874 E14.71868
G1 X152.522 Y108.661 E14.74874
G1 X152.895 Y109.483 E14.77876
G1 X153.194 Y110.335 E14.80879
G1 X153.416 Y111.211 E14.83885
G1 X153.56 Y112.102 E14.86887
G1 X153.626 Y113.069 E14.90111
G1 X153.646 Y114.037 E14.93331
G1 X153.648 Y114.246 E14.94026
G1 X153.648 Y120.254 E15.14009
G1 X153.638 Y120.987 E15.16447
G1 X153.586 Y121.889 E15.19452
G1 X153.454 Y122.782 E15.22454
G1 X153.244 Y123.66 E15.25457
G1 X152.956 Y124.517 E15.28464
G1 X152.595 Y125.344 E15.31465
G1 X152.161 Y126.136 E15.34469
G1 X151.659 Y126.887 E15.37474
G1 X151.093 Y127.591 E15.40478
G1 X150.466 Y128.241 E15.43482
G1 X149.785 Y128.834 E15.46485
G1 X149.054 Y129.364 E15.49488
G1 X148.278 Y129.827 E15.52494
G1 X147.465 Y130.22 E15.55497
G1 X146.62 Y130.539 E15.58501
G1 X145.884 Y130.751 E15.61049
G1 X145.722 Y130.791 E15.61604
G1 X144.837 Y130.968 E15.64606
G1 X144.263 Y131.04 E15.6653
G1 X143.676 Y131.097 E15.68491
G1 X143.348 Y131.124 E15.69586
G1 X143.147 Y131.137 E15.70256
G1 X142.806 Y131.153 E15.71391
G1 X142.438 Y131.162 E15.72615
G1 X141.956 Y131.167 E15.74219
G1 X93.061 Y131.166 E17.36844
G1 X92.356 Y131.156 E17.39189
G1 X92.056 Y131.147 E17.40187
G1 X91.827 Y131.137 E17.4095
G1 X91.341 Y131.104 E17.4257
G1 X90.861 Y131.06 E17.44173
G1 X89.642 Y130.874 E17.48275
G1 X89.424 Y130.827 E17.49016
G1 X88.551 Y130.598 E17.52018
G1 X87.701 Y130.292 E17.55023
G1 X86.881 Y129.913 E17.58027
G1 X86.099 Y129.462 E17.6103
G1 X85.359 Y128.944 E17.64034
G1 X84.668 Y128.362 E17.67039
G1 X84.031 Y127.722 E17.70042
G1 X83.453 Y127.028 E17.73046
G1 X82.939 Y126.286 E17.76049
G1 X82.493 Y125.501 E17.79051
G1 X82.118 Y124.679 E17.82057
G1 X81.816 Y123.828 E17.8506
G1 X81.592 Y122.953 E17.88064
G1 X81.446 Y122.062 E17.91067
G1 X81.376 Y121.063 E17.94398
G1 X81.355 Y120.026 E17.97848
G1 X81.353 Y119.821 E17.98529
G1 X81.353 Y113.804 E18.18542
G1 X81.363 Y113.125 E18.20801
G1 X81.416 Y112.223 E18.23806
G1 X81.549 Y111.33 E18.26809
G1 X81.76 Y110.452 E18.29812
G1 X82.049 Y109.596 E18.32817
G1 X82.411 Y108.769 E18.3582
G1 X82.846 Y107.977 E18.38825
G1 X83.348 Y107.227 E18.41827
G1 X83.916 Y106.524 E18.44833
G1 X84.543 Y105.874 E18.47837
G1 X85.225 Y105.282 E18.5084
G1 F1500 E12.0084
;MESH:Card Holder PrintInPlace with money clip.STL
G0 F6000 X92.42 Y112.507
G0 X92.504 Y113.586
G0 X142.667 Y113.962
G0 X142.849 Y120.338
;TYPE:WALL-INNER
G1 F1500 E18.5084
G1 F1200 X142.479 Y120.367 E18.52075
G1 X92.519 Y120.367 E20.18242
G1 X92.153 Y120.338 E20.19464
G1 X92.152 Y113.796 E20.41222
G1 X92.519 Y113.767 E20.42447
G1 X137.478 Y113.765 E21.91981
G1 X142.479 Y113.767 E22.08614
G1 X142.848 Y113.795 E22.09845
G1 X142.849 Y120.338 E22.31607
G0 F6000 X143.249 Y120.708
;TYPE:WALL-OUTER
G1 F1200 X142.497 Y120.767 E22.34116
G1 X92.501 Y120.767 E24.00404
G1 X91.753 Y120.708 E24.02899
G1 X91.752 Y113.426 E24.27119
G1 X92.501 Y113.367 E24.29618
G1 X137.478 Y113.365 E25.79212
G1 X142.497 Y113.367 E25.95905
G1 X143.241 Y113.424 E25.98387
G1 X143.248 Y113.426 E25.98411
G1 X143.249 Y120.708 E26.22632
G0 F6000 X142.976 Y120.456
G0 X142.739 Y119.977
G0 X142.459 Y119.977
;TYPE:SKIN
G1 F1200 X92.543 Y119.977 E27.88653
G1 X92.542 Y114.157 E28.0801
G1 X137.478 Y114.155 E29.57468
G1 X142.458 Y114.157 E29.74032
G1 X142.459 Y119.977 E29.93389
G0 F6000 X142.739 Y119.977
G0 X142.739 Y114.579
G0 X142.298 Y114.579
G1 F1200 X142.035 Y114.317 E29.94624
G0 F6000 X141.47 Y114.317
G1 F1200 X142.298 Y115.145 E29.98518
G0 F6000 X142.298 Y115.71
G1 F1200 X140.904 Y114.317 E30.05073
G0 F6000 X140.338 Y114.316
G1 F1200 X142.298 Y116.276 E30.14292
G0 F6000 X142.298 Y116.842
G1 F1200 X139.772 Y114.316 E30.26174
G0 F6000 X139.206 Y114.316
G1 F1200 X142.298 Y117.408 E30.40717
G0 F6000 X142.298 Y117.974
G1 F1200 X138.64 Y114.315 E30.57926
G0 F6000 X138.074 Y114.315
G1 F1200 X142.298 Y118.54 E30.77797
G0 F6000 X142.298 Y119.105
G1 F1200 X137.508 Y114.315 E31.00327
G0 F6000 X136.943 Y114.315
G1 F1200 X142.298 Y119.671 E31.25518
G0 F6000 X141.878 Y119.816
G1 F1200 X136.377 Y114.315 E31.51393
G0 F6000 X135.811 Y114.315
G1 F1200 X141.312 Y119.816 E31.77268
G0 F6000 X140.746 Y119.816
G1 F1200 X135.246 Y114.315 E32.03141
G0 F6000 X134.68 Y114.315
G1 F1200 X140.181 Y119.816 E32.29016
G0 F6000 X139.615 Y119.816
G1 F1200 X134.114 Y114.315 E32.54891
G0 F6000 X133.549 Y114.315
G1 F1200 X139.049 Y119.816 E32.80763
G0 F6000 X138.484 Y119.816
G1 F1200 X132.983 Y114.315 E33.06638
G0 F6000 X132.417 Y114.315
G1 F1200 X137.918 Y119.816 E33.32513
G0 F6000 X137.352 Y119.816
G1 F1200 X131.852 Y114.315 E33.58386
G0 F6000 X131.286 Y114.315
G1 F1200 X136.786 Y119.816 E33.84259
G0 F6000 X136.221 Y119.816
G1 F1200 X130.72 Y114.315 E34.10134
G0 F6000 X130.155 Y114.315
G1 F1200 X135.655 Y119.816 E34.36006
G0 F6000 X135.089 Y119.816
G1 F1200 X129.589 Y114.315 E34.61879
G0 F6000 X129.023 Y114.315
G1 F1200 X134.524 Y119.816 E34.87754
G0 F6000 X133.958 Y119.816
G1 F1200 X128.457 Y114.315 E35.13629
G0 F6000 X127.892 Y114.315
G1 F1200 X133.392 Y119.816 E35.39502
G0 F6000 X132.827 Y119.816
G1 F1200 X127.326 Y114.315 E35.65377
G0 F6000 X126.76 Y114.315
G1 F1200 X132.261 Y119.816 E35.91252
G0 F6000 X131.695 Y119.816
G1 F1200 X126.195 Y114.315 E36.17125
G0 F6000 X125.629 Y114.315
G1 F1200 X131.13 Y119.816 E36.43
G0 F6000 X130.564 Y119.816
G1 F1200 X125.063 Y114.315 E36.68875
G0 F6000 X124.498 Y114.315
G1 F1200 X129.998 Y119.816 E36.94747
G0 F6000 X129.433 Y119.816
G1 F1200 X123.932 Y114.315 E37.20622
G0 F6000 X123.366 Y114.315
G1 F1200 X128.867 Y119.816 E37.46497
G0 F6000 X128.301 Y119.816
G1 F1200 X122.801 Y114.315 E37.7237
G0 F6000 X122.235 Y114.315
G1 F1200 X127.736 Y119.816 E37.98245
G0 F6000 X127.17 Y119.816
G1 F1200 X121.669 Y114.315 E38.2412
G0 F6000 X121.104 Y114.315
G1 F1200 X126.604 Y119.816 E38.49993
G0 F6000 X126.038 Y119.816
G1 F1200 X120.538 Y114.315 E38.75865
G0 F6000 X119.972 Y114.315
G1 F1200 X125.473 Y119.816 E39.0174
G0 F6000 X124.907 Y119.816
G1 F1200 X119.407 Y114.315 E39.27613
G0 F6000 X118.841 Y114.315
G1 F1200 X124.341 Y119.816 E39.53486
G0 F6000 X123.776 Y119.816
G1 F1200 X118.275 Y114.315 E39.79361
G0 F6000 X117.709 Y114.315
G1 F1200 X123.21 Y119.816 E40.05236
G0 F6000 X122.644 Y119.816
G1 F1200 X117.144 Y114.315 E40.31108
G0 F6000 X116.578 Y114.315
G1 F1200 X122.079 Y119.816 E40.56983
G0 F6000 X121.513 Y119.816
G1 F1200 X116.012 Y114.315 E40.82858
G0 F6000 X115.447 Y114.315
G1 F1200 X120.947 Y119.816 E41.08731
G0 F6000 X120.382 Y119.816
G1 F1200 X114.882 Y114.316 E41.34601
G0 F6000 X114.316 Y114.316
G1 F1200 X119.816 Y119.816 E41.60472
G0 F6000 X119.25 Y119.816
G1 F1200 X113.75 Y114.316 E41.86342
G0 F6000 X113.185 Y114.316
G1 F1200 X118.685 Y119.816 E42.12212
G0 F6000 X118.119 Y119.816
G1 F1200 X112.619 Y114.316 E42.38083
G0 F6000 X112.053 Y114.316
G1 F1200 X117.553 Y119.816 E42.63953
G0 F6000 X116.987 Y119.816
G1 F1200 X111.488 Y114.316 E42.89821
G0 F6000 X110.922 Y114.316
G1 F1200 X116.422 Y119.816 E43.15691
G0 F6000 X115.856 Y119.816
G1 F1200 X110.356 Y114.316 E43.41562
G0 F6000 X109.791 Y114.316
G1 F1200 X115.29 Y119.816 E43.67429
G0 F6000 X114.725 Y119.816
G1 F1200 X109.225 Y114.316 E43.933
G0 F6000 X108.659 Y114.316
G1 F1200 X114.159 Y119.816 E44.1917
G0 F6000 X113.593 Y119.816
G1 F1200 X108.093 Y114.316 E44.4504
G0 F6000 X107.528 Y114.316
G1 F1200 X113.028 Y119.816 E44.70911
G0 F6000 X112.462 Y119.816
G1 F1200 X106.962 Y114.316 E44.96781
G0 F6000 X106.396 Y114.316
G1 F1200 X111.896 Y119.816 E45.22651
G0 F6000 X111.331 Y119.816
G1 F1200 X105.831 Y114.316 E45.48522
G0 F6000 X105.265 Y114.316
G1 F1200 X110.765 Y119.816 E45.74392
G0 F6000 X110.199 Y119.816
G1 F1200 X104.699 Y114.316 E46.00262
G0 F6000 X104.134 Y114.316
G1 F1200 X109.634 Y119.816 E46.26133
G0 F6000 X109.068 Y119.816
G1 F1200 X103.568 Y114.316 E46.52003
G0 F6000 X103.002 Y114.316
G1 F1200 X108.502 Y119.816 E46.77873
G0 F6000 X107.937 Y119.816
G1 F1200 X102.437 Y114.316 E47.03744
G0 F6000 X101.871 Y114.316
G1 F1200 X107.371 Y119.816 E47.29614
G0 F6000 X106.805 Y119.816
G1 F1200 X101.305 Y114.316 E47.55484
G0 F6000 X100.74 Y114.316
