;FLAVOR:Marlin
;TIME:4105
;Filament used: 2.33807m
;Layer height: 0.2
;MINX:70.056
;MINY:63.022
;MINZ:0.2
;MAXX:164.934
;MAXY:171.965
;MAXZ:7
;Generated with Cura_SteamEngine 4.13.0
M140 S60
M105
M190 S60
M104 S200
M105
M109 S200
M82 ;absolute extrusion mode
; Ender 3 Custom Start G-code
G92 E0 ; Reset Extruder
G28 ; Home all axes
G1 Z2.0 F3000 ; Move Z Axis up little to prevent scratching of Heat Bed
G1 X0.1 Y20 Z0.3 F5000.0 ; Move to start position
G1 X0.1 Y200.0 Z0.3 F1500.0 E15 ; Draw the first line
G1 X0.4 Y200.0 Z0.3 F5000.0 ; Move to side a little
G1 X0.4 Y20 Z0.3 F1500.0 E30 ; Draw the second line
G92 E0 ; Reset Extruder
G1 Z2.0 F3000 ; Move Z Axis up little to prevent scratching of Heat Bed
G1 X5 Y20 Z0.3 F5000.0 ; Move over to prevent blob squish
G92 E0
G92 E0
G1 F1500 E-6.5
;LAYER_COUNT:35
;LAYER:0
M107
G0 F6000 X81.114 Y81.819 Z0.2
;TYPE:SKIRT
G1 F1500 E0
G1 F1200 X82.069 Y80.968 E0.04254
G1 X83.065 Y80.18 E0.08479
G1 X85.073 Y78.547 E0.17087
G1 X86.95 Y76.929 E0.25329
G1 X88.82 Y75.223 E0.33748
G1 X90.639 Y73.466 E0.4216
G1 X92.379 Y71.688 E0.50434
G1 X94.102 Y69.826 E0.58872
G1 X95.103 Y68.679 E0.63935
G1 X95.232 Y68.543 E0.64559
G1 X96.025 Y67.63 E0.68581
G1 X96.778 Y66.844 E0.72201
G1 X97.012 Y66.623 E0.73272
G1 X97.332 Y66.332 E0.7471
G1 X97.717 Y65.996 E0.7641
G1 X98.449 Y65.41 E0.79528
G1 X99.229 Y64.889 E0.82648
G1 X100.05 Y64.436 E0.85767
G1 X101.334 Y63.895 E0.90401
G1 X101.627 Y63.793 E0.91433
G1 X101.999 Y63.671 E0.92735
G1 X102.485 Y63.521 E0.94427
G1 X103.392 Y63.283 E0.97546
G1 X104.316 Y63.123 E1.00665
G1 X105.545 Y63.034 E1.04763
G1 X106.201 Y63.023 E1.06945
G1 X106.521 Y63.022 E1.0801
G1 X107.411 Y63.033 E1.1097
G1 X107.653 Y63.038 E1.11775
G1 X108.381 Y63.063 E1.14198
G1 X108.996 Y63.102 E1.16247
G1 X109.294 Y63.129 E1.17243
G1 X109.693 Y63.172 E1.18577
G1 X109.983 Y63.209 E1.1955
G1 X110.518 Y63.291 E1.2135
G1 X111.274 Y63.425 E1.23904
G1 X113.787 Y63.837 E1.32373
G1 X116.271 Y64.172 E1.4071
G1 X118.794 Y64.439 E1.49148
G1 X121.294 Y64.633 E1.57488
G1 X123.811 Y64.757 E1.6587
G1 X126.334 Y64.81 E1.74264
G1 X128.858 Y64.791 E1.82659
G1 X131.38 Y64.701 E1.91052
G1 X133.861 Y64.542 E1.99321
G1 X136.385 Y64.308 E2.07752
G1 X138.879 Y64.006 E2.16108
G1 X141.383 Y63.63 E2.24529
G1 X143.486 Y63.259 E2.31632
G1 X143.702 Y63.219 E2.32362
G1 X144.631 Y63.086 E2.35484
G1 X145.546 Y63.033 E2.38532
G1 X146.232 Y63.022 E2.40814
G1 X146.533 Y63.022 E2.41815
G1 X147.499 Y63.033 E2.45028
G1 X147.812 Y63.041 E2.4607
G1 X148.489 Y63.068 E2.48323
G1 X149.078 Y63.107 E2.50287
G1 X149.27 Y63.125 E2.50928
G1 X149.59 Y63.16 E2.51999
G1 X149.906 Y63.199 E2.53058
G1 X150.831 Y63.353 E2.56177
G1 X151.74 Y63.586 E2.59298
G1 X152.625 Y63.895 E2.62415
G1 X153.838 Y64.466 E2.66875
G1 X154.125 Y64.623 E2.67963
G1 X154.499 Y64.837 E2.69396
G1 X154.928 Y65.094 E2.71059
G1 X155.711 Y65.61 E2.74178
G1 X156.448 Y66.19 E2.77297
G1 X157.132 Y66.832 E2.80417
G1 X158.015 Y67.851 E2.84902
G1 X158.203 Y68.097 E2.85932
G1 X158.453 Y68.437 E2.87336
G1 X158.752 Y68.861 E2.89061
G1 X159.259 Y69.649 E2.92178
G1 X159.697 Y70.479 E2.95299
G1 X160.063 Y71.342 E2.98417
G1 X160.354 Y72.234 E3.01538
G1 X160.479 Y72.722 E3.03213
G1 X160.522 Y72.908 E3.03848
G1 X160.71 Y73.942 E3.07343
G1 X160.868 Y75.135 E3.11346
G1 X160.895 Y75.356 E3.12087
G1 X161.594 Y81.603 E3.32994
G1 X164.811 Y112.159 E4.35185
G1 X164.889 Y113.015 E4.38044
G1 X164.934 Y113.952 E4.41164
G1 X164.875 Y115.146 E4.4514
G1 X164.847 Y115.415 E4.4604
G1 X164.805 Y115.762 E4.47202
G1 X164.625 Y117.078 E4.5162
G1 X164.515 Y117.806 E4.54069
G1 X164.335 Y118.727 E4.5719
G1 X164.078 Y119.629 E4.6031
G1 X163.863 Y120.219 E4.62398
G1 X163.769 Y120.456 E4.63246
G1 X163.64 Y120.768 E4.64369
G1 X162.931 Y122.407 E4.70309
G1 X162.87 Y122.568 E4.70881
G1 X162.365 Y123.725 E4.7508
G1 X161.415 Y126.081 E4.83529
G1 X160.563 Y128.392 E4.91721
G1 X159.742 Y130.823 E5.00256
G1 X159.013 Y133.194 E5.08506
G1 X158.35 Y135.596 E5.16794
G1 X157.742 Y138.069 E5.25264
G1 X157.2 Y140.563 E5.33753
G1 X156.75 Y142.99 E5.41962
G1 X156.352 Y145.508 E5.50441
G1 X156.033 Y147.987 E5.58754
G1 X155.749 Y150.881 E5.68426
G1 X155.735 Y151.047 E5.6898
G1 X155.705 Y151.35 E5.69993
G1 X155.64 Y151.934 E5.71947
G1 X155.608 Y152.2 E5.72838
G1 X155.493 Y153.045 E5.75675
G1 X155.358 Y153.928 E5.78646
G1 X155.175 Y154.848 E5.81766
G1 X154.915 Y155.749 E5.84885
G1 X154.723 Y156.275 E5.86747
G1 X154.627 Y156.519 E5.87619
G1 X154.483 Y156.869 E5.88878
G1 X153.482 Y159.174 E5.97236
G1 X153.212 Y159.771 E5.99415
G1 X152.789 Y160.608 E6.02535
G1 X152.297 Y161.406 E6.05653
G1 X151.972 Y161.844 E6.07467
G1 X151.834 Y162.042 E6.08269
G1 X151.55 Y162.406 E6.09805
G1 X150.113 Y164.174 E6.17383
G1 X149.559 Y164.837 E6.20256
G1 X148.927 Y165.53 E6.23376
G1 X148.237 Y166.166 E6.26497
G1 X147.763 Y166.546 E6.28518
G1 X147.562 Y166.698 E6.29356
G1 X147.274 Y166.908 E6.30541
G1 X145.238 Y168.345 E6.3883
G1 X144.672 Y168.732 E6.4111
G1 X143.876 Y169.228 E6.4423
G1 X143.04 Y169.654 E6.47351
G1 X142.511 Y169.88 E6.49264
G1 X142.276 Y169.973 E6.50104
G1 X141.925 Y170.105 E6.51352
G1 X139.759 Y170.878 E6.59001
G1 X138.889 Y171.173 E6.62056
G1 X137.988 Y171.435 E6.65177
G1 X137.069 Y171.619 E6.68294
G1 X136.458 Y171.696 E6.70343
G1 X136.013 Y171.738 E6.71829
G1 X135.648 Y171.765 E6.73047
G1 X133.455 Y171.914 E6.80357
G1 X132.712 Y171.954 E6.82832
G1 X131.775 Y171.965 E6.85949
G1 X130.839 Y171.895 E6.89071
G1 X130.245 Y171.809 E6.91067
G1 X128.814 Y171.561 E6.95897
G1 X127.896 Y171.393 E6.99001
G1 X125.399 Y171.009 E7.07404
G1 X122.918 Y170.7 E7.1572
G1 X120.43 Y170.461 E7.24033
G1 X117.914 Y170.29 E7.32421
G1 X115.357 Y170.19 E7.40932
G1 X112.867 Y170.162 E7.49214
G1 X110.382 Y170.205 E7.5748
G1 X107.826 Y170.322 E7.65991
G1 X105.334 Y170.506 E7.74302
G1 X102.827 Y170.763 E7.82684
G1 X100.344 Y171.089 E7.91013
G1 X98.5 Y171.395 E7.9723
G1 X97.075 Y171.618 E8.02027
G1 X96.458 Y171.696 E8.04096
G1 X96.013 Y171.738 E8.05582
G1 X95.648 Y171.765 E8.068
G1 X93.455 Y171.914 E8.1411
G1 X92.712 Y171.954 E8.16585
G1 X91.775 Y171.965 E8.19702
G1 X90.839 Y171.895 E8.22824
G1 X90.24 Y171.808 E8.24837
G1 X89.779 Y171.725 E8.26395
G1 X89.424 Y171.655 E8.27598
G1 X87.185 Y171.188 E8.35206
G1 X86.517 Y171.038 E8.37483
G1 X85.611 Y170.793 E8.40604
G1 X84.73 Y170.473 E8.43722
G1 X84.207 Y170.241 E8.45625
G1 X83.967 Y170.127 E8.46508
G1 X83.629 Y169.959 E8.47764
G1 X81.435 Y168.822 E8.55983
G1 X80.824 Y168.494 E8.58289
G1 X80.018 Y168.015 E8.61408
G1 X79.255 Y167.47 E8.64526
G1 X78.762 Y167.062 E8.66655
G1 X78.426 Y166.763 E8.68151
G1 X78.136 Y166.496 E8.69462
G1 X76.533 Y164.998 E8.76759
G1 X76.024 Y164.508 E8.79109
G1 X75.377 Y163.829 E8.82229
G1 X74.79 Y163.098 E8.85347
G1 X74.461 Y162.625 E8.87263
G1 X74.296 Y162.374 E8.88262
G1 X74.103 Y162.069 E8.89463
G1 X73.226 Y160.634 E8.95056
G1 X72.83 Y159.98 E8.97599
G1 X72.466 Y159.361 E8.99987
G1 X72.025 Y158.533 E9.03108
G1 X71.657 Y157.67 E9.06228
G1 X71.452 Y157.078 E9.08312
G1 X71.301 Y156.588 E9.10017
G1 X71.209 Y156.268 E9.11125
G1 X70.616 Y154.15 E9.1844
G1 X70.431 Y153.45 E9.20848
G1 X70.23 Y152.534 E9.23967
G1 X70.108 Y151.604 E9.27087
G1 X70.071 Y150.975 E9.29183
G1 X70.063 Y150.713 E9.30054
G1 X70.056 Y150.179 E9.31831
G1 X70.057 Y132.911 E9.89264
G1 X70.068 Y132.204 E9.91616
G1 X70.123 Y131.268 E9.94735
G1 X70.257 Y130.339 E9.97856
G1 X70.369 Y129.816 E9.99635
G1 X70.419 Y129.607 E10.0035
G1 X70.5 Y129.289 E10.01442
G1 X70.596 Y128.935 E10.02661
G1 X71.2 Y126.786 E10.10086
G1 X71.403 Y126.099 E10.12469
G1 X71.494 Y125.805 E10.13492
G1 X71.655 Y125.31 E10.15224
G1 X72.427 Y122.825 E10.23878
G1 X73.105 Y120.406 E10.32234
G1 X73.711 Y117.977 E10.40561
G1 X74.254 Y115.513 E10.48953
G1 X74.726 Y113.023 E10.57382
G1 X75.123 Y110.564 E10.65666
G1 X75.453 Y108.07 E10.74034
G1 X75.714 Y105.546 E10.82473
G1 X75.902 Y103.045 E10.90815
G1 X76.02 Y100.528 E10.99196
G1 X76.066 Y98.048 E11.07446
G1 X76.037 Y96.045 E11.14109
G1 X76.026 Y94.613 E11.18872
G1 X76.027 Y93.557 E11.22384
G1 X76.038 Y92.851 E11.24732
G1 X76.093 Y91.914 E11.27854
G1 X76.227 Y90.986 E11.30973
G1 X76.508 Y89.838 E11.34904
G1 X76.57 Y89.633 E11.35616
G1 X76.663 Y89.338 E11.36645
G1 X76.815 Y88.885 E11.38234
G1 X77.078 Y88.123 E11.40915
G1 X77.322 Y87.443 E11.43318
G1 X77.676 Y86.574 E11.46439
G1 X78.103 Y85.739 E11.49558
G1 X78.732 Y84.754 E11.53445
G1 X78.853 Y84.585 E11.54137
G1 X79.069 Y84.295 E11.55339
G1 X79.302 Y83.991 E11.56613
G1 X79.855 Y83.282 E11.59604
G1 X80.289 Y82.739 E11.61916
G1 X81.114 Y81.819 E11.66026
G0 F6000 X81.397 Y82.102
G1 F1200 X82.318 Y81.282 E11.70127
G1 X83.29 Y80.514 E11.74248
G1 X85.32 Y78.862 E11.82953
G1 X87.235 Y77.212 E11.9136
G1 X89.085 Y75.524 E11.9969
G1 X90.902 Y73.768 E12.08094
G1 X92.693 Y71.938 E12.16611
G1 X94.381 Y70.114 E12.24876
G1 X95.404 Y68.942 E12.30051
G1 X95.532 Y68.808 E12.30667
G1 X96.327 Y67.892 E12.34701
G1 X97.053 Y67.135 E12.3819
G1 X97.287 Y66.914 E12.3926
G1 X97.595 Y66.634 E12.40645
G1 X97.98 Y66.298 E12.42344
G1 X98.699 Y65.723 E12.45406
G1 X99.466 Y65.213 E12.4847
G1 X100.274 Y64.771 E12.51533
G1 X101.465 Y64.273 E12.55827
G1 X101.758 Y64.171 E12.56859
G1 X102.117 Y64.053 E12.58115
G1 X102.603 Y63.903 E12.59807
G1 X103.494 Y63.67 E12.6287
G1 X104.401 Y63.516 E12.6593
G1 X105.551 Y63.433 E12.69765
G1 X106.207 Y63.422 E12.71947
G1 X106.516 Y63.422 E12.72975
G1 X107.406 Y63.433 E12.75935
G1 X107.639 Y63.438 E12.7671
G1 X108.367 Y63.463 E12.79133
G1 X108.959 Y63.5 E12.81106
G1 X109.257 Y63.527 E12.82101
G1 X109.643 Y63.569 E12.83393
G1 X109.933 Y63.606 E12.84365
G1 X110.447 Y63.685 E12.86095
G1 X111.122 Y63.805 E12.88375
G1 X113.741 Y64.234 E12.97202
G1 X116.247 Y64.572 E13.05612
G1 X118.757 Y64.838 E13.14007
G1 X121.277 Y65.033 E13.22414
G1 X123.785 Y65.157 E13.30766
G1 X126.329 Y65.21 E13.39229
G1 X128.876 Y65.191 E13.47701
G1 X131.385 Y65.101 E13.56051
G1 X133.888 Y64.941 E13.64393
G1 X136.433 Y64.705 E13.72894
G1 X138.915 Y64.404 E13.8121
G1 X141.472 Y64.021 E13.89809
G1 X143.549 Y63.654 E13.96824
G1 X143.776 Y63.612 E13.97592
G1 X144.687 Y63.483 E14.00652
G1 X145.552 Y63.433 E14.03534
G1 X146.238 Y63.422 E14.05816
G1 X146.529 Y63.422 E14.06784
G1 X147.495 Y63.433 E14.09997
G1 X147.796 Y63.44 E14.10998
G1 X148.473 Y63.467 E14.13252
G1 X149.04 Y63.505 E14.15142
G1 X149.232 Y63.523 E14.15783
G1 X149.541 Y63.557 E14.16817
G1 X149.857 Y63.596 E14.17876
G1 X150.765 Y63.748 E14.20938
G1 X151.657 Y63.979 E14.24003
G1 X152.525 Y64.286 E14.27065
G1 X153.646 Y64.817 E14.31191
G1 X153.933 Y64.974 E14.32279
G1 X154.293 Y65.18 E14.33658
G1 X154.722 Y65.437 E14.35322
G1 X155.491 Y65.944 E14.38385
G1 X156.213 Y66.516 E14.41449
G1 X156.882 Y67.148 E14.4451
G1 X157.697 Y68.094 E14.48663
G1 X157.885 Y68.34 E14.49693
G1 X158.126 Y68.667 E14.51044
G1 X158.425 Y69.091 E14.52769
G1 X158.922 Y69.866 E14.55832
G1 X159.35 Y70.681 E14.58893
G1 X159.706 Y71.53 E14.61955
G1 X160.09 Y72.812 E14.66407
G1 X160.133 Y72.998 E14.67041
G1 X160.313 Y73.994 E14.70408
G1 X160.471 Y75.187 E14.7441
G1 X160.497 Y75.4 E14.75124
G1 X161.196 Y81.645 E14.96025
G1 X164.428 Y112.355 E15.98731
G1 X164.491 Y113.051 E16.01055
G1 X164.534 Y113.971 E16.04118
G1 X164.477 Y115.104 E16.07892
G1 X164.449 Y115.373 E16.08791
G1 X164.409 Y115.708 E16.09913
G1 X164.229 Y117.019 E16.14315
G1 X164.119 Y117.747 E16.16763
G1 X163.942 Y118.65 E16.19824
G1 X163.687 Y119.535 E16.22887
G1 X163.491 Y120.071 E16.24785
G1 X163.397 Y120.308 E16.25633
G1 X163.273 Y120.609 E16.26716
G1 X162.586 Y122.196 E16.32468
G1 X162.503 Y122.408 E16.33225
G1 X161.999 Y123.564 E16.37419
G1 X161.045 Y125.929 E16.45901
G1 X160.185 Y128.262 E16.54171
G1 X159.367 Y130.683 E16.62671
G1 X158.63 Y133.082 E16.71018
G1 X157.956 Y135.524 E16.79444
G1 X157.348 Y137.994 E16.87904
G1 X156.811 Y140.471 E16.96334
G1 X156.348 Y142.962 E17.04761
G1 X155.959 Y145.432 E17.13078
G1 X155.637 Y147.93 E17.21455
G1 X155.347 Y150.881 E17.31317
G1 X155.308 Y151.306 E17.32737
G1 X155.243 Y151.89 E17.34691
G1 X155.211 Y152.146 E17.35549
G1 X155.069 Y153.181 E17.39024
G1 X154.963 Y153.867 E17.41333
G1 X154.783 Y154.77 E17.44395
G1 X154.525 Y155.653 E17.47455
G1 X154.351 Y156.129 E17.4914
G1 X154.255 Y156.373 E17.50012
G1 X154.116 Y156.71 E17.51225
G1 X153.184 Y158.859 E17.59016
G1 X152.847 Y159.606 E17.61741
G1 X152.432 Y160.428 E17.64804
G1 X151.947 Y161.21 E17.67865
G1 X151.652 Y161.604 E17.69502
G1 X151.514 Y161.802 E17.70304
G1 X151.237 Y162.157 E17.71802
G1 X149.803 Y163.922 E17.79366
G1 X149.253 Y164.58 E17.82218
G1 X148.631 Y165.26 E17.85283
G1 X147.953 Y165.882 E17.88344
G1 X147.522 Y166.227 E17.9018
G1 X147.321 Y166.379 E17.91018
G1 X147.044 Y166.581 E17.92158
G1 X145.012 Y168.015 E18.0043
G1 X144.446 Y168.402 E18.02711
G1 X143.664 Y168.888 E18.05773
G1 X142.843 Y169.305 E18.08836
G1 X142.364 Y169.508 E18.10566
G1 X142.129 Y169.601 E18.11407
G1 X141.791 Y169.728 E18.12607
G1 X139.625 Y170.501 E18.20257
G1 X138.761 Y170.794 E18.23291
G1 X137.877 Y171.05 E18.26352
G1 X136.973 Y171.229 E18.29417
G1 X136.418 Y171.298 E18.31277
G1 X135.982 Y171.339 E18.32734
G1 X135.621 Y171.366 E18.33938
G1 X133.434 Y171.515 E18.41229
G1 X132.691 Y171.555 E18.43704
G1 X131.77 Y171.564 E18.46767
G1 X130.852 Y171.494 E18.49829
G1 X130.313 Y171.415 E18.51641
G1 X128.886 Y171.167 E18.56458
G1 X127.963 Y170.998 E18.59579
G1 X125.467 Y170.615 E18.67978
G1 X122.97 Y170.303 E18.76348
G1 X120.463 Y170.062 E18.84725
G1 X117.921 Y169.89 E18.93199
G1 X115.378 Y169.79 E19.01663
G1 X112.864 Y169.762 E19.10025
G1 X110.357 Y169.805 E19.18365
G1 X107.812 Y169.921 E19.26838
G1 X105.3 Y170.107 E19.35216
G1 X102.771 Y170.366 E19.43672
G1 X100.311 Y170.689 E19.51924
G1 X98.438 Y171 E19.58239
G1 X97.013 Y171.223 E19.63036
G1 X96.418 Y171.298 E19.65031
G1 X95.982 Y171.339 E19.66487
G1 X95.621 Y171.366 E19.67691
G1 X93.434 Y171.515 E19.74982
G1 X92.691 Y171.555 E19.77457
G1 X91.77 Y171.564 E19.8052
G1 X90.852 Y171.494 E19.83582
G1 X90.309 Y171.414 E19.85408
G1 X89.857 Y171.333 E19.86935
G1 X89.505 Y171.263 E19.88129
G1 X87.437 Y170.833 E19.95154
G1 X86.605 Y170.647 E19.9799
G1 X85.716 Y170.407 E20.01053
G1 X84.851 Y170.09 E20.04117
G1 X84.379 Y169.88 E20.05835
G1 X84.139 Y169.766 E20.06719
G1 X83.813 Y169.604 E20.07929
G1 X81.624 Y168.469 E20.16131
G1 X81.013 Y168.141 E20.18437
G1 X80.222 Y167.671 E20.21497
G1 X79.474 Y167.134 E20.2456
G1 X79.027 Y166.761 E20.26496
G1 X78.697 Y166.468 E20.27964
G1 X78.409 Y166.204 E20.29263
G1 X76.811 Y164.71 E20.36539
G1 X76.302 Y164.22 E20.38889
G1 X75.667 Y163.553 E20.41952
G1 X75.092 Y162.834 E20.45015
G1 X74.795 Y162.406 E20.46747
G1 X74.63 Y162.155 E20.47746
G1 X74.444 Y161.86 E20.48906
G1 X73.568 Y160.427 E20.54492
G1 X73.175 Y159.777 E20.57019
G1 X72.811 Y159.158 E20.59407
G1 X72.379 Y158.345 E20.62469
G1 X72.019 Y157.497 E20.65533
G1 X71.834 Y156.958 E20.67429
G1 X71.754 Y156.703 E20.68318
G1 X71.594 Y156.159 E20.70204
G1 X71.045 Y154.203 E20.76961
G1 X70.818 Y153.347 E20.79906
G1 X70.621 Y152.448 E20.82967
G1 X70.504 Y151.535 E20.86029
G1 X70.471 Y150.963 E20.87934
G1 X70.463 Y150.701 E20.88806
G1 X70.456 Y150.179 E20.90542
G1 X70.457 Y132.917 E21.47956
G1 X70.468 Y132.21 E21.50308
G1 X70.523 Y131.291 E21.5337
G1 X70.656 Y130.38 E21.56432
G1 X70.758 Y129.909 E21.58035
G1 X70.808 Y129.7 E21.5875
G1 X70.886 Y129.393 E21.59803
G1 X70.982 Y129.043 E21.6101
G1 X71.584 Y126.899 E21.68417
G1 X71.787 Y126.212 E21.708
G1 X71.875 Y125.929 E21.71785
G1 X72.025 Y125.469 E21.73395
G1 X72.809 Y122.947 E21.82179
G1 X73.492 Y120.506 E21.90609
G1 X74.099 Y118.074 E21.98946
G1 X74.651 Y115.569 E22.07478
G1 X75.121 Y113.09 E22.1587
G1 X75.52 Y110.614 E22.24211
G1 X75.85 Y108.126 E22.32559
G1 X76.113 Y105.58 E22.41072
G1 X76.302 Y103.06 E22.49477
G1 X76.42 Y100.553 E22.57825
G1 X76.466 Y98.049 E22.66155
G1 X76.437 Y96.042 E22.72831
G1 X76.426 Y94.61 E22.77594
G1 X76.427 Y93.563 E22.81076
G1 X76.438 Y92.857 E22.83424
G1 X76.493 Y91.938 E22.86486
G1 X76.626 Y91.027 E22.89549
G1 X76.891 Y89.953 E22.93228
G1 X76.953 Y89.748 E22.9394
G1 X77.043 Y89.465 E22.94928
G1 X77.193 Y89.015 E22.96506
G1 X77.455 Y88.258 E22.9917
G1 X77.699 Y87.578 E23.01573
G1 X78.047 Y86.726 E23.04634
