;FLAVOR:Marlin
;TIME:1707
;Filament used: 0.692045m
;Layer height: 0.2
;MINX:98.898
;MINY:85.268
;MINZ:0.2
;MAXX:136.102
;MAXY:149.729
;MAXZ:6.4
;Generated with Cura_SteamEngine 4.13.0
M140 S60
M105
M190 S60
M104 S200
M105
M109 S200
M82 ;absolute extrusion mode
; Ender 3 Custom Start G-code
G92 E0 ; Reset Extruder
G28 ; Home all axes
G1 Z2.0 F3000 ; Move Z Axis up little to prevent scratching of Heat Bed
G1 X0.1 Y20 Z0.3 F5000.0 ; Move to start position
G1 X0.1 Y200.0 Z0.3 F1500.0 E15 ; Draw the first line
G1 X0.4 Y200.0 Z0.3 F5000.0 ; Move to side a little
G1 X0.4 Y20 Z0.3 F1500.0 E30 ; Draw the second line
G92 E0 ; Reset Extruder
G1 Z2.0 F3000 ; Move Z Axis up little to prevent scratching of Heat Bed
G1 X5 Y20 Z0.3 F5000.0 ; Move over to prevent blob squish
G92 E0
G92 E0
G1 F1500 E-6.5
;LAYER_COUNT:32
;LAYER:0
M107
G0 F6000 X106.348 Y89.489 Z0.2
;TYPE:SKIRT
G1 F1500 E0
G1 F1200 X106.534 Y89.277 E0.00938
G1 X107.515 Y88.293 E0.05559
G1 X107.541 Y88.27 E0.05675
G1 X108.269 Y87.679 E0.08794
G1 X109.045 Y87.152 E0.11914
G1 X109.546 Y86.861 E0.13841
G1 X109.809 Y86.717 E0.14838
G1 X110.65 Y86.302 E0.17957
G1 X111.524 Y85.96 E0.21079
G1 X112.423 Y85.694 E0.24197
G1 X113.268 Y85.517 E0.27068
G1 X113.613 Y85.459 E0.28232
G1 X114.544 Y85.343 E0.31352
G1 X115.437 Y85.307 E0.34325
G1 X116.357 Y85.307 E0.37385
G1 X118.057 Y85.283 E0.4304
G1 X118.203 Y85.287 E0.43525
G1 X119.374 Y85.268 E0.47421
G1 X120.311 Y85.293 E0.50538
G1 X121.446 Y85.431 E0.54341
G1 X121.784 Y85.49 E0.55482
G1 X122.7 Y85.69 E0.58601
G1 X123.595 Y85.968 E0.61718
G1 X124.629 Y86.398 E0.65442
G1 X124.826 Y86.492 E0.66168
G1 X125.655 Y86.932 E0.6929
G1 X126.562 Y87.526 E0.72896
G1 X126.731 Y87.649 E0.73591
G1 X127.465 Y88.233 E0.76711
G1 X128.147 Y88.877 E0.79831
G1 X128.771 Y89.577 E0.8295
G1 X129.198 Y90.134 E0.85284
G1 X129.36 Y90.36 E0.86209
G1 X129.874 Y91.145 E0.8933
G1 X130.318 Y91.971 E0.92449
G1 X130.569 Y92.527 E0.94478
G1 X130.648 Y92.716 E0.95159
G1 X130.973 Y93.596 E0.98279
G1 X131.197 Y94.398 E1.01049
G1 X131.225 Y94.515 E1.01449
G1 X131.301 Y94.857 E1.02614
G1 X131.442 Y95.545 E1.0495
G1 X135.606 Y117.178 E1.78222
G1 X135.729 Y117.88 E1.80593
G1 X135.769 Y118.088 E1.81297
G1 X135.839 Y118.491 E1.82658
G1 X135.919 Y119.011 E1.84408
G1 X135.979 Y119.465 E1.85931
G1 X136.009 Y119.734 E1.86831
G1 X136.051 Y120.187 E1.88344
G1 X136.075 Y120.615 E1.8977
G1 X136.094 Y121.117 E1.91441
G1 X136.102 Y121.533 E1.92825
G1 X136.102 Y121.774 E1.93626
G1 X136.092 Y122.234 E1.95157
G1 X136.084 Y122.425 E1.95792
G1 X136.06 Y122.828 E1.97135
G1 X136.026 Y123.26 E1.98576
G1 X135.984 Y123.686 E2
G1 X135.946 Y124.008 E2.01079
G1 X135.884 Y124.455 E2.0258
G1 X135.811 Y124.873 E2.03991
G1 X135.616 Y125.872 E2.07376
G1 X135.155 Y128.417 E2.15979
G1 X134.777 Y130.91 E2.24365
G1 X134.468 Y133.426 E2.32796
G1 X134.234 Y135.906 E2.41082
G1 X134.158 Y137.04 E2.44862
G1 X134.057 Y138.407 E2.49421
G1 X133.887 Y139.685 E2.53709
G1 X133.84 Y139.928 E2.54532
G1 X133.593 Y140.943 E2.58006
G1 X133.151 Y142.179 E2.62372
G1 X133.058 Y142.397 E2.63161
G1 X132.653 Y143.243 E2.6628
G1 X132.189 Y144.036 E2.69336
G1 X132.142 Y144.109 E2.69625
G1 X131.418 Y145.106 E2.73723
G1 X131.25 Y145.312 E2.74607
G1 X130.626 Y146.013 E2.77729
G1 X130.024 Y146.59 E2.80502
G1 X129.856 Y146.739 E2.81249
G1 X129.128 Y147.33 E2.84368
G1 X128.353 Y147.858 E2.87487
G1 X127.584 Y148.293 E2.90425
G1 X127.294 Y148.442 E2.9151
G1 X126.442 Y148.835 E2.9463
G1 X125.56 Y149.153 E2.97749
G1 X124.935 Y149.33 E2.99909
G1 X124.723 Y149.383 E3.00636
G1 X123.663 Y149.593 E3.0423
G1 X123.575 Y149.606 E3.04526
G1 X122.642 Y149.703 E3.07646
G1 X121.632 Y149.719 E3.11006
G1 X120.286 Y149.678 E3.15485
G1 X117.743 Y149.636 E3.23944
G1 X115.26 Y149.666 E3.32203
G1 X114.542 Y149.697 E3.34593
G1 X114.329 Y149.704 E3.35302
G1 X113.3 Y149.729 E3.38725
G1 X112.362 Y149.712 E3.41846
G1 X111.43 Y149.615 E3.44962
G1 X110.769 Y149.497 E3.47196
G1 X110.555 Y149.452 E3.47923
G1 X109.647 Y149.22 E3.5104
G1 X108.627 Y148.857 E3.54641
G1 X108.382 Y148.756 E3.55522
G1 X107.531 Y148.362 E3.58641
G1 X106.506 Y147.761 E3.62593
G1 X106.317 Y147.636 E3.63347
G1 X105.557 Y147.086 E3.66467
G1 X104.65 Y146.282 E3.70499
G1 X104.469 Y146.103 E3.71345
G1 X103.831 Y145.416 E3.74464
G1 X103.212 Y144.617 E3.77825
G1 X103.088 Y144.441 E3.78541
G1 X102.581 Y143.652 E3.81661
G1 X102.143 Y142.823 E3.84779
G1 X101.909 Y142.296 E3.86697
G1 X101.785 Y141.995 E3.8778
G1 X101.465 Y141.113 E3.909
G1 X101.222 Y140.208 E3.94017
G1 X101.095 Y139.55 E3.96246
G1 X101.041 Y139.214 E3.97378
G1 X100.928 Y138.219 E4.00709
G1 X100.79 Y136.238 E4.07313
G1 X100.559 Y133.699 E4.15793
G1 X100.257 Y131.177 E4.24241
G1 X99.887 Y128.682 E4.3263
G1 X99.448 Y126.212 E4.40974
G1 X99.184 Y124.841 E4.45618
G1 X99.061 Y124.045 E4.48297
G1 X99 Y123.526 E4.50035
G1 X98.955 Y123.047 E4.51635
G1 X98.939 Y122.829 E4.52362
G1 X98.919 Y122.487 E4.53502
G1 X98.908 Y122.226 E4.5437
G1 X98.898 Y121.763 E4.55911
G1 X98.898 Y121.522 E4.56712
G1 X98.906 Y121.107 E4.58093
G1 X98.925 Y120.604 E4.59767
G1 X98.951 Y120.159 E4.6125
G1 X98.975 Y119.853 E4.62271
G1 X99.073 Y119.012 E4.65087
G1 X99.127 Y118.667 E4.66248
G1 X99.192 Y118.295 E4.67504
G1 X99.28 Y117.835 E4.69062
G1 X99.437 Y116.957 E4.72028
G1 X103.538 Y95.689 E5.44069
G1 X103.724 Y94.791 E5.47119
G1 X104.005 Y93.714 E5.50821
G1 X104.036 Y93.616 E5.51163
G1 X104.357 Y92.735 E5.54282
G1 X104.644 Y92.098 E5.56606
G1 X104.737 Y91.908 E5.57309
G1 X105.185 Y91.084 E5.60429
G1 X105.701 Y90.301 E5.63548
G1 X106.348 Y89.489 E5.67001
G0 F6000 X106.649 Y89.753
G1 F1200 X106.835 Y89.541 E5.67939
G1 X107.78 Y88.593 E5.72391
G1 X107.806 Y88.57 E5.72506
G1 X108.521 Y87.99 E5.75569
G1 X109.284 Y87.475 E5.7863
G1 X109.738 Y87.211 E5.80377
G1 X110.001 Y87.067 E5.81374
G1 X110.827 Y86.661 E5.84436
G1 X111.685 Y86.327 E5.87498
G1 X112.569 Y86.07 E5.9056
G1 X113.335 Y85.912 E5.93161
G1 X113.68 Y85.854 E5.94325
G1 X114.593 Y85.741 E5.97385
G1 X115.437 Y85.707 E6.00194
G1 X116.362 Y85.707 E6.03271
G1 X118.062 Y85.683 E6.08925
G1 X118.207 Y85.687 E6.09408
G1 X119.38 Y85.668 E6.1331
G1 X120.301 Y85.693 E6.16374
G1 X121.377 Y85.825 E6.1998
G1 X121.715 Y85.884 E6.21121
G1 X122.614 Y86.081 E6.24182
G1 X123.493 Y86.356 E6.27245
G1 X124.457 Y86.759 E6.3072
G1 X124.654 Y86.853 E6.31446
G1 X125.467 Y87.285 E6.34508
G1 X126.327 Y87.85 E6.37931
G1 X126.496 Y87.973 E6.38626
G1 X127.216 Y88.546 E6.41687
G1 X127.883 Y89.18 E6.44747
G1 X128.494 Y89.87 E6.47813
G1 X128.873 Y90.367 E6.49892
G1 X129.035 Y90.593 E6.50816
G1 X129.539 Y91.364 E6.5388
G1 X129.973 Y92.176 E6.56942
G1 X130.2 Y92.681 E6.58784
G1 X130.279 Y92.87 E6.59465
G1 X130.597 Y93.734 E6.62527
G1 X130.808 Y94.491 E6.65141
G1 X130.836 Y94.608 E6.65541
G1 X130.909 Y94.938 E6.66665
G1 X131.049 Y95.62 E6.68981
G1 X135.213 Y117.253 E7.42253
G1 X135.25 Y117.455 E7.42936
G1 X135.338 Y117.966 E7.44661
G1 X135.376 Y118.163 E7.45328
G1 X135.444 Y118.552 E7.46642
G1 X135.524 Y119.072 E7.48392
G1 X135.582 Y119.509 E7.49858
G1 X135.612 Y119.778 E7.50758
G1 X135.652 Y120.218 E7.52228
G1 X135.675 Y120.63 E7.536
G1 X135.694 Y121.132 E7.55271
G1 X135.702 Y121.533 E7.56605
G1 X135.702 Y121.774 E7.57407
G1 X135.693 Y122.218 E7.58884
G1 X135.685 Y122.409 E7.59519
G1 X135.661 Y122.797 E7.60812
G1 X135.627 Y123.229 E7.62254
G1 X135.587 Y123.639 E7.63624
G1 X135.549 Y123.961 E7.64702
G1 X135.489 Y124.393 E7.66153
G1 X135.418 Y124.796 E7.67514
G1 X135.224 Y125.788 E7.70876
G1 X134.759 Y128.358 E7.79562
G1 X134.384 Y130.833 E7.87888
G1 X134.071 Y133.377 E7.96413
G1 X133.835 Y135.879 E8.04772
G1 X133.759 Y137.01 E8.08542
G1 X133.658 Y138.377 E8.13101
G1 X133.494 Y139.609 E8.17235
G1 X133.447 Y139.852 E8.18058
G1 X133.209 Y140.831 E8.21409
G1 X132.783 Y142.022 E8.25616
G1 X132.69 Y142.24 E8.26405
G1 X132.292 Y143.071 E8.29469
G1 X131.853 Y143.819 E8.32354
G1 X131.806 Y143.892 E8.32643
G1 X131.108 Y144.853 E8.36593
G1 X130.94 Y145.059 E8.37477
G1 X130.327 Y145.747 E8.40542
G1 X129.758 Y146.29 E8.43158
G1 X129.59 Y146.439 E8.43905
G1 X128.876 Y147.02 E8.46967
G1 X128.113 Y147.536 E8.5003
G1 X127.401 Y147.937 E8.52748
G1 X127.111 Y148.086 E8.53832
G1 X126.275 Y148.471 E8.56894
G1 X125.408 Y148.782 E8.59957
G1 X124.838 Y148.942 E8.61926
G1 X124.626 Y148.995 E8.62653
G1 X123.604 Y149.197 E8.66118
G1 X123.516 Y149.21 E8.66414
G1 X122.6 Y149.305 E8.69477
G1 X121.645 Y149.319 E8.72654
G1 X120.379 Y149.28 E8.76866
G1 X117.71 Y149.236 E8.85745
G1 X115.238 Y149.266 E8.93967
G1 X114.525 Y149.297 E8.96341
G1 X114.319 Y149.304 E8.97026
G1 X113.29 Y149.329 E9.0045
G1 X112.37 Y149.311 E9.0351
G1 X111.454 Y149.214 E9.06574
G1 X110.852 Y149.105 E9.08609
G1 X110.638 Y149.06 E9.09336
G1 X109.746 Y148.832 E9.12398
G1 X108.779 Y148.487 E9.15813
G1 X108.534 Y148.386 E9.16695
G1 X107.699 Y147.998 E9.19757
G1 X106.727 Y147.427 E9.23506
G1 X106.538 Y147.302 E9.2426
G1 X105.792 Y146.762 E9.27323
G1 X104.931 Y145.998 E9.31152
G1 X104.75 Y145.819 E9.31998
G1 X104.125 Y145.144 E9.35058
G1 X103.539 Y144.387 E9.38242
G1 X103.415 Y144.211 E9.38958
G1 X102.918 Y143.436 E9.4202
G1 X102.49 Y142.621 E9.45082
G1 X102.279 Y142.144 E9.46817
G1 X102.155 Y141.843 E9.479
G1 X101.842 Y140.977 E9.50962
G1 X101.605 Y140.087 E9.54026
G1 X101.49 Y139.487 E9.56058
G1 X101.436 Y139.151 E9.57189
G1 X101.327 Y138.192 E9.604
G1 X101.19 Y136.224 E9.66961
G1 X100.953 Y133.613 E9.75681
G1 X100.656 Y131.142 E9.83959
G1 X100.288 Y128.659 E9.92307
G1 X99.824 Y126.045 E10.01138
G1 X99.577 Y124.765 E10.05473
G1 X99.458 Y123.998 E10.08055
G1 X99.397 Y123.479 E10.09793
G1 X99.353 Y123.018 E10.11333
G1 X99.337 Y122.8 E10.1206
G1 X99.318 Y122.47 E10.1316
G1 X99.307 Y122.209 E10.14029
G1 X99.298 Y121.763 E10.15512
G1 X99.298 Y121.522 E10.16314
G1 X99.306 Y121.122 E10.17645
G1 X99.325 Y120.619 E10.19319
G1 X99.349 Y120.19 E10.20748
G1 X99.373 Y119.884 E10.21769
G1 X99.469 Y119.074 E10.24482
G1 X99.523 Y118.729 E10.25643
G1 X99.585 Y118.37 E10.26855
G1 X99.675 Y117.902 E10.2844
G1 X99.83 Y117.033 E10.31376
G1 X103.961 Y95.612 E11.03935
G1 X104.115 Y94.872 E11.06449
G1 X104.387 Y93.835 E11.10015
G1 X104.418 Y93.737 E11.10357
G1 X104.733 Y92.872 E11.13418
G1 X105.003 Y92.274 E11.15601
G1 X105.096 Y92.084 E11.16304
G1 X105.537 Y91.275 E11.19369
G1 X106.045 Y90.508 E11.22429
G1 X106.649 Y89.753 E11.25645
G0 F6000 X106.95 Y90.017
G1 F1200 X107.136 Y89.805 E11.26583
G1 X108.045 Y88.892 E11.30868
G1 X108.071 Y88.869 E11.30983
G1 X108.773 Y88.301 E11.33987
G1 X109.523 Y87.798 E11.3699
G1 X109.93 Y87.562 E11.38555
G1 X110.193 Y87.418 E11.39552
G1 X111.004 Y87.02 E11.42557
G1 X111.847 Y86.695 E11.45562
G1 X112.715 Y86.446 E11.48565
G1 X113.401 Y86.306 E11.50894
G1 X113.746 Y86.248 E11.52058
G1 X114.642 Y86.138 E11.5506
G1 X115.437 Y86.107 E11.57706
G1 X116.368 Y86.107 E11.60803
G1 X118.068 Y86.083 E11.66458
G1 X118.211 Y86.087 E11.66933
G1 X119.387 Y86.068 E11.70845
G1 X120.29 Y86.094 E11.7385
G1 X121.308 Y86.219 E11.77261
G1 X121.646 Y86.278 E11.78402
G1 X122.528 Y86.472 E11.81406
G1 X123.389 Y86.744 E11.84409
G1 X124.285 Y87.12 E11.87641
G1 X124.482 Y87.214 E11.88367
G1 X125.279 Y87.639 E11.91371
G1 X126.091 Y88.173 E11.94604
G1 X126.26 Y88.296 E11.95299
G1 X126.966 Y88.859 E11.98302
G1 X127.62 Y89.483 E12.01309
G1 X128.215 Y90.162 E12.04312
G1 X128.548 Y90.6 E12.06142
G1 X128.71 Y90.826 E12.07066
G1 X129.203 Y91.583 E12.10071
G1 X129.628 Y92.38 E12.13075
G1 X129.831 Y92.835 E12.14732
G1 X129.91 Y93.024 E12.15414
G1 X130.221 Y93.872 E12.18418
G1 X130.419 Y94.584 E12.20876
G1 X130.518 Y95.019 E12.2236
G1 X130.656 Y95.696 E12.24658
G1 X134.856 Y117.523 E12.98586
G1 X134.94 Y118.01 E13.0023
G1 X134.984 Y118.239 E13.01006
G1 X135.048 Y118.613 E13.02268
G1 X135.128 Y119.133 E13.04018
G1 X135.184 Y119.553 E13.05427
G1 X135.214 Y119.822 E13.06327
G1 X135.253 Y120.249 E13.07753
G1 X135.276 Y120.645 E13.09072
G1 X135.295 Y121.147 E13.10743
G1 X135.302 Y121.533 E13.12027
G1 X135.302 Y121.774 E13.12829
G1 X135.293 Y122.201 E13.14249
G1 X135.285 Y122.392 E13.14885
G1 X135.263 Y122.765 E13.16128
G1 X135.229 Y123.197 E13.17569
G1 X135.19 Y123.592 E13.1889
G1 X135.152 Y123.914 E13.19968
G1 X135.094 Y124.332 E13.21372
G1 X135.026 Y124.719 E13.22678
G1 X134.833 Y125.705 E13.2602
G1 X134.364 Y128.298 E13.34784
G1 X133.985 Y130.796 E13.43188
G1 X133.674 Y133.326 E13.51666
G1 X133.436 Y135.848 E13.60091
G1 X133.36 Y136.981 E13.63868
G1 X133.259 Y138.348 E13.68427
G1 X133.101 Y139.533 E13.72404
G1 X133.054 Y139.776 E13.73227
G1 X132.825 Y140.719 E13.76454
G1 X132.415 Y141.865 E13.80503
G1 X132.322 Y142.083 E13.81291
G1 X131.931 Y142.898 E13.84297
G1 X131.516 Y143.603 E13.87018
G1 X131.469 Y143.676 E13.87307
G1 X130.798 Y144.6 E13.91105
G1 X130.63 Y144.806 E13.91989
G1 X130.028 Y145.48 E13.94995
G1 X129.493 Y145.991 E13.97456
G1 X129.325 Y146.14 E13.98203
G1 X128.624 Y146.709 E14.01206
G1 X127.874 Y147.213 E14.04211
G1 X127.218 Y147.582 E14.06714
G1 X126.928 Y147.731 E14.07799
G1 X126.108 Y148.107 E14.10799
G1 X125.257 Y148.41 E14.13804
G1 X124.741 Y148.553 E14.15584
G1 X124.529 Y148.606 E14.16311
G1 X123.546 Y148.801 E14.19644
G1 X123.458 Y148.814 E14.1994
G1 X122.559 Y148.907 E14.22946
G1 X121.657 Y148.919 E14.25947
G1 X120.397 Y148.881 E14.30139
G1 X117.713 Y148.836 E14.39068
G1 X115.215 Y148.866 E14.47377
G1 X114.31 Y148.904 E14.50389
G1 X113.281 Y148.929 E14.53813
G1 X112.378 Y148.911 E14.56817
G1 X111.48 Y148.813 E14.59821
G1 X110.934 Y148.714 E14.61667
G1 X110.72 Y148.669 E14.62394
G1 X109.845 Y148.444 E14.65399
G1 X108.931 Y148.117 E14.68628
G1 X108.686 Y148.016 E14.69509
G1 X107.868 Y147.635 E14.72511
G1 X106.947 Y147.094 E14.76063
G1 X106.758 Y146.969 E14.76817
G1 X106.028 Y146.438 E14.79819
G1 X105.213 Y145.713 E14.83447
G1 X105.032 Y145.534 E14.84294
G1 X104.418 Y144.872 E14.87297
G1 X103.866 Y144.157 E14.90301
G1 X103.742 Y143.981 E14.91017
G1 X103.255 Y143.22 E14.94022
G1 X102.837 Y142.419 E14.97028
G1 X102.649 Y141.991 E14.98582
G1 X102.525 Y141.69 E14.99665
G1 X102.218 Y140.841 E15.02668
G1 X101.988 Y139.968 E15.05671
G1 X101.885 Y139.424 E15.07512
G1 X101.831 Y139.088 E15.08644
G1 X101.726 Y138.164 E15.11737
G1 X101.586 Y136.155 E15.18435
G1 X101.354 Y133.6 E15.26968
G1 X101.055 Y131.107 E15.35319
G1 X100.678 Y128.567 E15.4386
G1 X100.218 Y125.978 E15.52606
G1 X99.97 Y124.69 E15.56968
G1 X99.856 Y123.952 E15.59452
G1 X99.795 Y123.433 E15.6119
G1 X99.752 Y122.989 E15.62674
G1 X99.736 Y122.771 E15.63401
G1 X99.718 Y122.454 E15.64457
G1 X99.707 Y122.193 E15.65326
G1 X99.698 Y121.763 E15.66756
G1 X99.698 Y121.522 E15.67558
G1 X99.705 Y121.137 E15.68839
G1 X99.724 Y120.634 E15.70513
G1 X99.748 Y120.221 E15.71889
G1 X99.772 Y119.915 E15.7291
G1 X99.864 Y119.136 E15.75519
G1 X99.918 Y118.791 E15.7668
G1 X99.978 Y118.446 E15.77845
G1 X100.067 Y117.983 E15.79413
G1 X100.222 Y117.109 E15.82365
G1 X104.323 Y95.841 E16.54406
G1 X104.507 Y94.954 E16.57419
G1 X104.768 Y93.956 E16.6085
G1 X104.799 Y93.858 E16.61192
G1 X105.109 Y93.01 E16.64195
G1 X105.363 Y92.45 E16.6624
G1 X105.456 Y92.26 E16.66943
G1 X105.888 Y91.467 E16.69947
G1 X106.389 Y90.716 E16.7295
G1 X106.95 Y90.017 E16.75931
G1 F1500 E10.25931
;MESH:heck_clip.stl
G0 F6000 X113.869 Y96.761
G0 X114.881 Y97.175
G0 X115.474 Y97.09
G0 X115.973 Y97.425
G0 X116.211 Y97.766
G0 X116.342 Y98.147
G0 X116.104 Y117.047
G0 X114.243 Y120.03
G0 X113.964 Y120.841
G0 X113.887 Y121.693
G0 X114.011 Y122.542
G0 X114.331 Y123.337
G0 X114.83 Y124.035
G0 X115.479 Y124.596
G0 X116.24 Y124.988
G0 X117.074 Y125.188
G0 X119.869 Y125.213
G0 X121.791 Y121.069
G0 X120.142 Y117.873
G0 X119.942 Y117.172
G0 X119.918 Y107.537
G0 X120.031 Y107.235
G0 X120.276 Y107.057
G0 X120.586 Y107.023
G0 X120.896 Y107.189
G0 X121.029 Y107.425
G0 X123.618 Y120.936
G0 X123.619 Y122.248
G0 X123.342 Y123.533
G0 X122.798 Y124.727
G0 X121.114 Y128.085
G0 X121.487 Y137.652
G0 X121.866 Y138.133
;TYPE:WALL-INNER
G1 F1500 E16.75931
G1 F1200 X121.544 Y138.005 E16.77083
G1 X121.418 Y137.88 E16.77673
G1 X121.324 Y137.712 E16.78314
G1 X121.275 Y137.457 E16.79177
G1 X121.275 Y128.073 E17.10389
G1 X121.294 Y127.735 E17.11515
G1 X121.348 Y127.396 E17.12656
G1 X121.441 Y127.056 E17.13829
G1 X121.563 Y126.746 E17.14937
