;FLAVOR:Marlin
;TIME:5397
;Filament used: 3.47094m
;Layer height: 0.2
;MINX:69.511
;MINY:98
;MINZ:0.2
;MAXX:165.489
;MAXY:137
;MAXZ:47.4
;Generated with Cura_SteamEngine 4.13.0
M140 S60
M105
M190 S60
M104 S200
M105
M109 S200
M82 ;absolute extrusion mode
; Ender 3 Custom Start G-code
G92 E0 ; Reset Extruder
G28 ; Home all axes
G1 Z2.0 F3000 ; Move Z Axis up little to prevent scratching of Heat Bed
G1 X0.1 Y20 Z0.3 F5000.0 ; Move to start position
G1 X0.1 Y200.0 Z0.3 F1500.0 E15 ; Draw the first line
G1 X0.4 Y200.0 Z0.3 F5000.0 ; Move to side a little
G1 X0.4 Y20 Z0.3 F1500.0 E30 ; Draw the second line
G92 E0 ; Reset Extruder
G1 Z2.0 F3000 ; Move Z Axis up little to prevent scratching of Heat Bed
G1 X5 Y20 Z0.3 F5000.0 ; Move over to prevent blob squish
G92 E0
G92 E0
G1 F1500 E-6.5
;LAYER_COUNT:237
;LAYER:0
M107
G0 F6000 X104.6 Y101.269 Z0.2
;TYPE:SKIRT
G1 F1500 E0
G1 F1200 X105.287 Y100.632 E0.03116
G1 X106.027 Y100.055 E0.06237
G1 X106.813 Y99.543 E0.09357
G1 X107.64 Y99.101 E0.12476
G1 X108.501 Y98.73 E0.15594
G1 X109.391 Y98.434 E0.18714
G1 X110.303 Y98.215 E0.21833
G1 X111.23 Y98.074 E0.24952
G1 X112.14 Y98.013 E0.27985
G1 X112.54 Y98.003 E0.29316
G1 X112.815 Y98 E0.30231
G1 X121.886 Y98 E0.60401
G1 X122.742 Y98.011 E0.63248
G1 X123.678 Y98.065 E0.66367
G1 X124.606 Y98.197 E0.69484
G1 X125.52 Y98.409 E0.72605
G1 X126.412 Y98.698 E0.75724
G1 X127.277 Y99.061 E0.78844
G1 X128.107 Y99.497 E0.81962
G1 X128.898 Y100.002 E0.85083
G1 X129.642 Y100.573 E0.88203
G1 X130.335 Y101.205 E0.91322
G1 X130.972 Y101.893 E0.94441
G1 X131.547 Y102.634 E0.9756
G1 X132.058 Y103.42 E1.00678
G1 X132.5 Y104.248 E1.038
G1 X132.869 Y105.11 E1.06919
G1 X133.164 Y106 E1.10037
G1 X133.382 Y106.912 E1.13156
G1 X133.522 Y107.84 E1.16278
G1 X133.579 Y108.695 E1.19128
G1 X133.588 Y109.009 E1.20173
G1 X133.593 Y109.323 E1.21217
G1 X133.593 Y125.397 E1.74679
G1 X133.584 Y126.126 E1.77104
G1 X133.533 Y127.062 E1.80222
G1 X133.401 Y127.991 E1.83343
G1 X133.192 Y128.905 E1.86461
G1 X132.905 Y129.798 E1.89581
G1 X132.543 Y130.663 E1.927
G1 X132.109 Y131.494 E1.95818
G1 X131.605 Y132.286 E1.9894
G1 X131.036 Y133.031 E2.02058
G1 X130.406 Y133.725 E2.05176
G1 X129.718 Y134.364 E2.08299
G1 X128.979 Y134.941 E2.11417
G1 X128.193 Y135.453 E2.14537
G1 X127.367 Y135.896 E2.17655
G1 X126.506 Y136.268 E2.20774
G1 X125.616 Y136.564 E2.23894
G1 X124.704 Y136.784 E2.27014
G1 X123.777 Y136.925 E2.30133
G1 X122.86 Y136.987 E2.3319
G1 X122.46 Y136.997 E2.3452
G1 X122.185 Y137 E2.35435
G1 X112.972 Y136.999 E2.66078
G1 X112.274 Y136.99 E2.68399
G1 X111.338 Y136.938 E2.71517
G1 X110.409 Y136.806 E2.74638
G1 X109.495 Y136.596 E2.77758
G1 X108.602 Y136.309 E2.80877
G1 X107.737 Y135.946 E2.83997
G1 X106.906 Y135.512 E2.87116
G1 X106.115 Y135.008 E2.90235
G1 X105.37 Y134.438 E2.93355
G1 X104.676 Y133.807 E2.96475
G1 X104.039 Y133.12 E2.99591
G1 X103.462 Y132.38 E3.02712
G1 X102.95 Y131.594 E3.05832
G1 X102.507 Y130.767 E3.08952
G1 X102.136 Y129.906 E3.1207
G1 X101.84 Y129.016 E3.1519
G1 X101.621 Y128.104 E3.1831
G1 X101.48 Y127.177 E3.21428
G1 X101.419 Y126.265 E3.24468
G1 X101.41 Y125.904 E3.25669
G1 X101.407 Y125.631 E3.26577
G1 X101.407 Y109.558 E3.80036
G1 X101.416 Y108.867 E3.82335
G1 X101.468 Y107.93 E3.85456
G1 X101.6 Y107.002 E3.88574
G1 X101.81 Y106.088 E3.91693
G1 X102.098 Y105.195 E3.94814
G1 X102.46 Y104.33 E3.97933
G1 X102.895 Y103.499 E4.01052
G1 X103.399 Y102.708 E4.04172
G1 X103.969 Y101.963 E4.07292
G1 X104.6 Y101.269 E4.10411
G0 F6000 X104.992 Y101.443
G1 F1200 X105.676 Y100.828 E4.13471
G1 X106.412 Y100.274 E4.16535
G1 X107.192 Y99.786 E4.19595
G1 X108.012 Y99.368 E4.22656
G1 X108.866 Y99.022 E4.25721
G1 X109.746 Y98.752 E4.28782
G1 X110.646 Y98.559 E4.31844
G1 X111.56 Y98.445 E4.34907
G1 X112.15 Y98.413 E4.36873
G1 X112.55 Y98.403 E4.38203
G1 X112.815 Y98.4 E4.39085
G1 X121.886 Y98.4 E4.69255
G1 X122.736 Y98.411 E4.72083
G1 X123.655 Y98.464 E4.75144
G1 X124.566 Y98.597 E4.78206
G1 X125.462 Y98.808 E4.81268
G1 X126.336 Y99.096 E4.84329
G1 X127.183 Y99.459 E4.87394
G1 X127.994 Y99.894 E4.90454
G1 X128.764 Y100.398 E4.93515
G1 X129.488 Y100.967 E4.96578
G1 X130.16 Y101.597 E4.99642
G1 X130.775 Y102.282 E5.02704
G1 X131.328 Y103.018 E5.05766
G1 X131.815 Y103.799 E5.08827
G1 X132.232 Y104.62 E5.11889
G1 X132.577 Y105.474 E5.14953
G1 X132.846 Y106.354 E5.18013
G1 X133.038 Y107.255 E5.21078
G1 X133.151 Y108.168 E5.24137
G1 X133.18 Y108.706 E5.25929
G1 X133.189 Y109.02 E5.26974
G1 X133.193 Y109.323 E5.27982
G1 X133.193 Y125.392 E5.81428
G1 X133.184 Y126.121 E5.83853
G1 X133.133 Y127.04 E5.86914
G1 X133.002 Y127.951 E5.89975
G1 X132.792 Y128.848 E5.93039
G1 X132.506 Y129.723 E5.96101
G1 X132.145 Y130.57 E5.99163
G1 X131.711 Y131.382 E6.02226
G1 X131.209 Y132.153 E6.05286
G1 X130.642 Y132.878 E6.08347
G1 X130.013 Y133.552 E6.11413
G1 X129.329 Y134.168 E6.14475
G1 X128.594 Y134.722 E6.17536
G1 X127.814 Y135.211 E6.20598
G1 X126.994 Y135.629 E6.23659
G1 X126.141 Y135.976 E6.26722
G1 X125.261 Y136.247 E6.29784
G1 X124.361 Y136.44 E6.32846
G1 X123.448 Y136.555 E6.35907
G1 X122.85 Y136.587 E6.37898
G1 X122.45 Y136.597 E6.39229
G1 X122.185 Y136.6 E6.40111
G1 X112.977 Y136.599 E6.70737
G1 X112.279 Y136.59 E6.73058
G1 X111.36 Y136.538 E6.7612
G1 X110.449 Y136.407 E6.79181
G1 X109.553 Y136.197 E6.82242
G1 X108.678 Y135.91 E6.85305
G1 X107.831 Y135.548 E6.88368
G1 X107.019 Y135.114 E6.91431
G1 X106.248 Y134.612 E6.94491
G1 X105.523 Y134.044 E6.97554
G1 X104.85 Y133.415 E7.00618
G1 X104.235 Y132.731 E7.03677
G1 X103.681 Y131.996 E7.06738
G1 X103.193 Y131.215 E7.09801
G1 X102.774 Y130.395 E7.12864
G1 X102.428 Y129.542 E7.15926
G1 X102.158 Y128.662 E7.18987
G1 X101.965 Y127.761 E7.22052
G1 X101.851 Y126.848 E7.25112
G1 X101.819 Y126.255 E7.27087
G1 X101.81 Y125.894 E7.28289
G1 X101.807 Y125.631 E7.29163
G1 X101.807 Y109.563 E7.82606
G1 X101.816 Y108.872 E7.84904
G1 X101.868 Y107.953 E7.87966
G1 X101.999 Y107.042 E7.91027
G1 X102.209 Y106.145 E7.94091
G1 X102.497 Y105.27 E7.97155
G1 X102.858 Y104.424 E8.00214
G1 X103.292 Y103.612 E8.03276
G1 X103.795 Y102.841 E8.06338
G1 X104.363 Y102.116 E8.09401
G1 X104.992 Y101.443 E8.12465
G0 F6000 X105.383 Y101.621
G1 F1200 X106.064 Y101.028 E8.15469
G1 X106.795 Y100.498 E8.18472
G1 X107.57 Y100.034 E8.21476
G1 X108.383 Y99.641 E8.2448
G1 X109.228 Y99.321 E8.27485
G1 X110.097 Y99.077 E8.30487
G1 X110.985 Y98.911 E8.33492
G1 X112.16 Y98.813 E8.37413
G1 X112.56 Y98.803 E8.38744
G1 X112.815 Y98.8 E8.39592
G1 X121.886 Y98.8 E8.69762
G1 X122.73 Y98.811 E8.7257
G1 X123.632 Y98.864 E8.75575
G1 X124.525 Y98.996 E8.78578
G1 X125.403 Y99.207 E8.81581
G1 X126.259 Y99.495 E8.84585
G1 X127.086 Y99.857 E8.87587
G1 X127.878 Y100.292 E8.90593
G1 X128.629 Y100.794 E8.93597
G1 X129.332 Y101.361 E8.96601
G1 X129.982 Y101.988 E8.99605
G1 X130.574 Y102.67 E9.02609
G1 X131.104 Y103.401 E9.05612
G1 X131.566 Y104.177 E9.08616
G1 X131.959 Y104.99 E9.11619
G1 X132.277 Y105.835 E9.14622
G1 X132.52 Y106.705 E9.17626
G1 X132.685 Y107.593 E9.2063
G1 X132.78 Y108.718 E9.24385
G1 X132.789 Y109.032 E9.2543
G1 X132.793 Y109.323 E9.26398
G1 X132.793 Y125.387 E9.79827
G1 X132.784 Y126.116 E9.82252
G1 X132.733 Y127.018 E9.85257
G1 X132.602 Y127.911 E9.88259
G1 X132.393 Y128.79 E9.91264
G1 X132.107 Y129.646 E9.94266
G1 X131.746 Y130.474 E9.9727
G1 X131.314 Y131.267 E10.00274
G1 X130.813 Y132.018 E10.03276
G1 X130.247 Y132.723 E10.06283
G1 X129.622 Y133.374 E10.09285
G1 X128.941 Y133.967 E10.12288
G1 X128.211 Y134.498 E10.15291
G1 X127.436 Y134.963 E10.18297
G1 X126.623 Y135.357 E10.21301
G1 X125.779 Y135.677 E10.24304
G1 X124.91 Y135.922 E10.27307
G1 X124.022 Y136.088 E10.30311
G1 X122.84 Y136.187 E10.34256
G1 X122.44 Y136.197 E10.35587
G1 X122.185 Y136.2 E10.36435
G1 X112.982 Y136.199 E10.67045
G1 X112.284 Y136.19 E10.69366
G1 X111.383 Y136.139 E10.72368
G1 X110.489 Y136.007 E10.75374
G1 X109.611 Y135.798 E10.78375
G1 X108.754 Y135.511 E10.81381
G1 X107.927 Y135.15 E10.84383
G1 X107.134 Y134.717 E10.87388
G1 X106.383 Y134.216 E10.9039
G1 X105.679 Y133.65 E10.93395
G1 X105.028 Y133.024 E10.96399
G1 X104.435 Y132.343 E10.99402
G1 X103.905 Y131.612 E11.02405
G1 X103.441 Y130.837 E11.0541
G1 X103.047 Y130.024 E11.08414
G1 X102.727 Y129.18 E11.11417
G1 X102.483 Y128.31 E11.14422
G1 X102.317 Y127.422 E11.17427
G1 X102.219 Y126.245 E11.21355
G1 X102.21 Y125.884 E11.22556
G1 X102.207 Y125.631 E11.23397
G1 X102.207 Y109.568 E11.76823
G1 X102.216 Y108.877 E11.79122
G1 X102.268 Y107.976 E11.82123
G1 X102.399 Y107.082 E11.85129
G1 X102.609 Y106.204 E11.88131
G1 X102.895 Y105.347 E11.91136
G1 X103.257 Y104.52 E11.94139
G1 X103.69 Y103.727 E11.97144
G1 X104.191 Y102.976 E12.00146
G1 X104.757 Y102.272 E12.03151
G1 X105.383 Y101.621 E12.06155
G1 F1500 E5.56155
;MESH:rd1.clay.holder.04.stl
G0 F6000 X115.268 Y115.879
G0 X114.087 Y115.023
G0 X113.665 Y117.019
G0 X113.665 Y117.985
G0 X113.908 Y118.925
G0 X114.374 Y119.773
G0 X115.036 Y120.477
G0 X115.699 Y120.898
G0 X117.247 Y121.518
;TYPE:WALL-INNER
G1 F1500 E12.06155
G1 F1200 X117.753 Y121.518 E12.07838
G1 X118.255 Y121.455 E12.0952
G1 X118.744 Y121.329 E12.112
G1 X119.214 Y121.143 E12.12881
G1 X119.657 Y120.899 E12.14563
G1 X120.066 Y120.602 E12.16245
G1 X120.436 Y120.255 E12.17932
G1 X120.759 Y119.864 E12.19618
G1 X121.03 Y119.436 E12.21303
G1 X121.243 Y118.98 E12.22977
G1 X121.399 Y118.5 E12.24656
G1 X121.495 Y118.002 E12.26343
G1 X121.526 Y117.498 E12.28022
G1 X121.495 Y116.994 E12.29702
G1 X121.399 Y116.496 E12.31389
G1 X121.242 Y116.015 E12.33072
G1 X121.027 Y115.558 E12.34751
G1 X120.756 Y115.132 E12.36431
G1 X120.435 Y114.744 E12.38106
G1 X120.066 Y114.398 E12.39788
G1 X119.657 Y114.101 E12.41469
G1 X119.214 Y113.857 E12.43151
G1 X118.744 Y113.671 E12.44832
G1 X118.255 Y113.545 E12.46512
G1 X117.753 Y113.482 E12.48195
G1 X117.247 Y113.482 E12.49878
G1 X116.745 Y113.545 E12.5156
G1 X116.256 Y113.671 E12.5324
G1 X115.786 Y113.857 E12.54921
G1 X115.343 Y114.101 E12.56603
G1 X114.934 Y114.398 E12.58285
G1 X114.564 Y114.745 E12.59972
G1 X114.241 Y115.136 E12.61658
G1 X113.97 Y115.564 E12.63343
G1 X113.757 Y116.02 E12.65017
G1 X113.601 Y116.5 E12.66696
G1 X113.505 Y116.998 E12.68383
G1 X113.474 Y117.502 E12.70062
G1 X113.505 Y118.006 E12.71742
G1 X113.601 Y118.504 E12.73429
G1 X113.758 Y118.985 E12.75112
G1 X113.973 Y119.442 E12.76791
G1 X114.244 Y119.868 E12.78471
G1 X114.565 Y120.256 E12.80146
G1 X114.934 Y120.602 E12.81828
G1 X115.343 Y120.899 E12.83509
G1 X115.786 Y121.143 E12.85191
G1 X116.256 Y121.329 E12.86872
G1 X116.745 Y121.455 E12.88552
G1 X117.247 Y121.518 E12.90235
G0 F6000 X117.272 Y121.118
;TYPE:WALL-OUTER
G1 F1200 X117.728 Y121.118 E12.91751
G1 X118.18 Y121.061 E12.93267
G1 X118.62 Y120.948 E12.94778
G1 X119.043 Y120.78 E12.96291
G1 X119.442 Y120.561 E12.97805
G1 X119.811 Y120.293 E12.99322
G1 X120.144 Y119.981 E13.0084
G1 X120.434 Y119.629 E13.02357
G1 X120.678 Y119.244 E13.03873
G1 X120.87 Y118.833 E13.05382
G1 X121.011 Y118.4 E13.06896
G1 X121.097 Y117.952 E13.08413
G1 X121.125 Y117.498 E13.09926
G1 X121.097 Y117.044 E13.11439
G1 X121.011 Y116.596 E13.12956
G1 X120.869 Y116.163 E13.14472
G1 X120.676 Y115.751 E13.15985
G1 X120.432 Y115.368 E13.17496
G1 X120.143 Y115.018 E13.19005
G1 X119.811 Y114.707 E13.20518
G1 X119.442 Y114.439 E13.22035
G1 X119.043 Y114.22 E13.23549
G1 X118.62 Y114.052 E13.25063
G1 X118.18 Y113.939 E13.26574
G1 X117.728 Y113.882 E13.28089
G1 X117.272 Y113.882 E13.29606
G1 X116.82 Y113.939 E13.31121
G1 X116.38 Y114.052 E13.32632
G1 X115.957 Y114.22 E13.34146
G1 X115.558 Y114.439 E13.3566
G1 X115.189 Y114.707 E13.37176
G1 X114.856 Y115.019 E13.38694
G1 X114.566 Y115.371 E13.40211
G1 X114.322 Y115.756 E13.41727
G1 X114.13 Y116.167 E13.43236
G1 X113.989 Y116.6 E13.44751
G1 X113.903 Y117.048 E13.46268
G1 X113.875 Y117.502 E13.47781
G1 X113.903 Y117.956 E13.49294
G1 X113.989 Y118.404 E13.50811
G1 X114.131 Y118.837 E13.52326
G1 X114.324 Y119.249 E13.5384
G1 X114.568 Y119.632 E13.5535
G1 X114.857 Y119.982 E13.5686
G1 X115.189 Y120.293 E13.58373
G1 X115.558 Y120.561 E13.5989
G1 X115.957 Y120.78 E13.61403
G1 X116.38 Y120.948 E13.62917
G1 X116.82 Y121.061 E13.64428
G1 X117.272 Y121.118 E13.65943
G0 F6000 X117.245 Y121.557
G1 F1500 E7.15943
G0 F6000 X118.803 Y121.51
G0 X121.784 Y121.51
G0 X121.994 Y125.4
;TYPE:WALL-INNER
G1 F1500 E13.65943
G1 F1200 X113.007 Y125.4 E13.95834
G1 X113.006 Y109.6 E14.48385
G1 X121.993 Y109.6 E14.78276
G1 X121.994 Y125.4 E15.30827
G0 F6000 X122.394 Y125.8
;TYPE:WALL-OUTER
G1 F1200 X112.607 Y125.8 E15.63379
G1 X112.606 Y109.2 E16.18591
G1 X122.393 Y109.2 E16.51142
G1 X122.394 Y125.8 E17.06354
G0 F6000 X122.124 Y125.53
G0 X121.884 Y125.01
G0 X121.604 Y125.01
;TYPE:SKIN
G1 F1200 X113.397 Y125.01 E17.33651
G1 X113.397 Y119.132 E17.53201
G1 X113.63 Y119.631 E17.55033
G1 X113.928 Y120.098 E17.56875
G1 X114.28 Y120.523 E17.58711
G1 X114.685 Y120.903 E17.60558
G1 X115.134 Y121.229 E17.62403
G1 X115.62 Y121.496 E17.64248
G1 X116.135 Y121.701 E17.66091
G1 X116.671 Y121.839 E17.67932
G1 X117.222 Y121.908 E17.69779
G1 X117.778 Y121.908 E17.71628
G1 X118.329 Y121.839 E17.73475
G1 X118.865 Y121.701 E17.75316
G1 X119.38 Y121.496 E17.7716
G1 X119.866 Y121.229 E17.79004
G1 X120.315 Y120.903 E17.8085
G1 X120.721 Y120.522 E17.82702
G1 X121.075 Y120.094 E17.84549
G1 X121.373 Y119.623 E17.86403
G1 X121.604 Y119.129 E17.88217
G1 X121.604 Y125.01 E18.07777
G1 F1500 E11.57777
G0 F6000 X121.884 Y125.01
G0 X121.784 Y115.973
G0 X121.481 Y116.071
G1 F1500 E18.07777
G0 F6000 X121.603 Y115.868
G1 F1200 X121.37 Y115.369 E18.09609
G1 X121.072 Y114.902 E18.11451
G1 X120.72 Y114.477 E18.13286
G1 X120.315 Y114.097 E18.15134
G1 X119.866 Y113.771 E18.16979
G1 X119.38 Y113.504 E18.18823
G1 X118.865 Y113.299 E18.20667
G1 X118.329 Y113.161 E18.22508
G1 X117.778 Y113.092 E18.24355
G1 X117.222 Y113.092 E18.26204
G1 X116.671 Y113.161 E18.28051
G1 X116.135 Y113.299 E18.29892
G1 X115.62 Y113.504 E18.31736
G1 X115.134 Y113.771 E18.3358
G1 X114.685 Y114.097 E18.35425
G1 X114.279 Y114.478 E18.37277
G1 X113.925 Y114.906 E18.39125
G1 X113.627 Y115.377 E18.40978
G1 X113.396 Y115.871 E18.42792
G1 X113.396 Y109.99 E18.62352
G1 X121.603 Y109.99 E18.89649
G1 X121.603 Y115.868 E19.09199
G1 F1500 E12.59199
G0 F6000 X121.344 Y115.973
G0 X120.574 Y114.613
G0 X121.784 Y114.613
G0 X121.884 Y110.694
G1 F1500 E19.09199
G0 F6000 X121.442 Y110.694
G1 F1200 X120.898 Y110.15 E19.11758
G0 F6000 X120.332 Y110.15
G1 F1200 X121.442 Y111.259 E19.16977
G0 F6000 X121.442 Y111.825
G1 F1200 X119.766 Y110.15 E19.24858
G0 F6000 X119.201 Y110.15
G1 F1200 X121.442 Y112.391 E19.35399
G0 F6000 X121.442 Y112.956
G1 F1200 X118.635 Y110.15 E19.486
G0 F6000 X118.069 Y110.15
G1 F1200 X121.442 Y113.522 E19.64463
G0 F6000 X121.442 Y114.088
G1 F1200 X117.504 Y110.15 E19.82986
G0 F6000 X116.938 Y110.15
G1 F1200 X121.442 Y114.653 E20.04169
G1 F1500 E13.54169
G0 F6000 X121.884 Y114.653
G0 X121.784 Y113.906
G0 X120.574 Y114.613
G0 X119.532 Y113.906
G1 F1500 E20.04169
G0 F6000 X119.744 Y113.522
G1 F1200 X116.372 Y110.15 E20.2003
G0 F6000 X115.807 Y110.15
G1 F1200 X118.764 Y113.107 E20.33939
G0 F6000 X118.057 Y112.965
G1 F1200 X115.241 Y110.15 E20.47182
G0 F6000 X114.675 Y110.15
G1 F1200 X117.457 Y112.932 E20.60268
G0 F6000 X116.927 Y112.967
G1 F1200 X114.11 Y110.15 E20.73518
G0 F6000 X113.555 Y110.161
G1 F1200 X116.447 Y113.052 E20.87119
G0 F6000 X116.005 Y113.177
G1 F1200 X113.555 Y110.727 E20.98643
G0 F6000 X113.555 Y111.292
G1 F1200 X115.601 Y113.338 E21.08267
G0 F6000 X115.231 Y113.534
G1 F1200 X113.555 Y111.858 E21.1615
G0 F6000 X113.555 Y112.424
G1 F1200 X114.884 Y113.752 E21.22399
G0 F6000 X114.559 Y113.993
G1 F1200 X113.555 Y112.99 E21.27119
G0 F6000 X113.555 Y113.555
G1 F1200 X114.267 Y114.267 E21.30468
G0 F6000 X113.999 Y114.565
G1 F1200 X113.555 Y114.121 E21.32557
G0 F6000 X113.555 Y114.687
G1 F1200 X113.75 Y114.882 E21.33474
G1 F1500 E14.83474
G0 F6000 X114.121 Y115.118
G0 X113.665 Y117.019
G0 X113.665 Y117.566
G0 X113.806 Y119.534
G0 X113.216 Y119.534
G0 X113.116 Y120.345
G1 F1500 E21.33474
G0 F6000 X113.557 Y120.345
G1 F1200 X118.061 Y124.849 E21.54659
G0 F6000 X117.495 Y124.849
G1 F1200 X113.557 Y120.911 E21.73182
