;FLAVOR:Marlin
;TIME:6652
;Filament used: 3.87738m
;Layer height: 0.2
;MINX:51.503
;MINY:98
;MINZ:0.2
;MAXX:183.498
;MAXY:137
;MAXZ:73.8
;Generated with Cura_SteamEngine 4.13.0
M140 S60
M105
M190 S60
M104 S200
M105
M109 S200
M82 ;absolute extrusion mode
; Ender 3 Custom Start G-code
G92 E0 ; Reset Extruder
G28 ; Home all axes
G1 Z2.0 F3000 ; Move Z Axis up little to prevent scratching of Heat Bed
G1 X0.1 Y20 Z0.3 F5000.0 ; Move to start position
G1 X0.1 Y200.0 Z0.3 F1500.0 E15 ; Draw the first line
G1 X0.4 Y200.0 Z0.3 F5000.0 ; Move to side a little
G1 X0.4 Y20 Z0.3 F1500.0 E30 ; Draw the second line
G92 E0 ; Reset Extruder
G1 Z2.0 F3000 ; Move Z Axis up little to prevent scratching of Heat Bed
G1 X5 Y20 Z0.3 F5000.0 ; Move over to prevent blob squish
G92 E0
G92 E0
G1 F1500 E-6.5
;LAYER_COUNT:369
;LAYER:0
M107
G0 F6000 X134.573 Y110.81 Z0.2
;TYPE:SKIRT
G1 F1500 E0
G1 F1200 X135.185 Y110.121 E0.03065
G1 X135.853 Y109.489 E0.06124
G1 X136.575 Y108.916 E0.09189
G1 X137.343 Y108.409 E0.1225
G1 X138.152 Y107.97 E0.15312
G1 X138.996 Y107.603 E0.18373
G1 X140.135 Y107.238 E0.22351
G1 X141.253 Y106.948 E0.26192
G1 X143.665 Y106.246 E0.34547
G1 X146.106 Y105.46 E0.43077
G1 X148.473 Y104.624 E0.51426
G1 X150.852 Y103.707 E0.59906
G1 X153.138 Y102.75 E0.68149
G1 X155.497 Y101.684 E0.76759
G1 X157.78 Y100.573 E0.85203
G1 X158.915 Y99.991 E0.89446
G1 X159.63 Y99.617 E0.9213
G1 X160.463 Y99.226 E0.9519
G1 X161.328 Y98.909 E0.98254
G1 X162.216 Y98.668 E1.01315
G1 X163.123 Y98.505 E1.0438
G1 X164.219 Y98.415 E1.08037
G1 X164.547 Y98.405 E1.09129
G1 X164.87 Y98.4 E1.10203
G1 X171.791 Y98.4 E1.33222
G1 X172.641 Y98.411 E1.3605
G1 X173.56 Y98.464 E1.39112
G1 X174.471 Y98.597 E1.42174
G1 X175.367 Y98.808 E1.45235
G1 X176.241 Y99.096 E1.48296
G1 X177.088 Y99.459 E1.51361
G1 X177.899 Y99.894 E1.54422
G1 X178.669 Y100.398 E1.57483
G1 X179.393 Y100.967 E1.60545
G1 X180.065 Y101.597 E1.63609
G1 X180.68 Y102.282 E1.66671
G1 X181.233 Y103.018 E1.69733
G1 X181.72 Y103.799 E1.72794
G1 X182.137 Y104.62 E1.75857
G1 X182.482 Y105.474 E1.7892
G1 X182.751 Y106.354 E1.81981
G1 X182.943 Y107.255 E1.85045
G1 X183.056 Y108.168 E1.88105
G1 X183.085 Y108.711 E1.89913
G1 X183.094 Y109.03 E1.90975
G1 X183.098 Y109.33 E1.91973
G1 X183.095 Y125.388 E2.45382
G1 X183.087 Y126.108 E2.47777
G1 X183.037 Y127.027 E2.50838
G1 X182.907 Y127.939 E2.53902
G1 X182.699 Y128.835 E2.56961
G1 X182.414 Y129.711 E2.60025
G1 X182.053 Y130.558 E2.63087
G1 X181.621 Y131.371 E2.66149
G1 X181.12 Y132.143 E2.6921
G1 X180.553 Y132.869 E2.72274
G1 X179.926 Y133.542 E2.75334
G1 X179.242 Y134.159 E2.78397
G1 X178.508 Y134.715 E2.8146
G1 X177.728 Y135.204 E2.84522
G1 X176.909 Y135.624 E2.87583
G1 X176.056 Y135.971 E2.90646
G1 X175.177 Y136.243 E2.93706
G1 X174.277 Y136.438 E2.96769
G1 X173.364 Y136.554 E2.9983
G1 X172.805 Y136.585 E3.01692
G1 X172.471 Y136.595 E3.02804
G1 X172.154 Y136.6 E3.03858
G1 X165.081 Y136.599 E3.27383
G1 X164.378 Y136.588 E3.29722
G1 X163.459 Y136.533 E3.32784
G1 X162.548 Y136.399 E3.35846
G1 X161.652 Y136.187 E3.38909
G1 X160.778 Y135.898 E3.4197
G1 X159.796 Y135.466 E3.45539
G1 X159.167 Y135.149 E3.47881
G1 X157.706 Y134.387 E3.53362
G1 X155.438 Y133.285 E3.61749
G1 X153.135 Y132.247 E3.70151
G1 X150.782 Y131.264 E3.78632
G1 X148.419 Y130.355 E3.87053
G1 X146.059 Y129.523 E3.95376
G1 X143.62 Y128.74 E4.03896
G1 X141.189 Y128.033 E4.12316
G1 X140.12 Y127.754 E4.15991
G1 X139.24 Y127.483 E4.19053
G1 X138.387 Y127.137 E4.22115
G1 X137.567 Y126.718 E4.25178
G1 X136.787 Y126.23 E4.28238
G1 X136.052 Y125.675 E4.31301
G1 X135.368 Y125.059 E4.34363
G1 X134.74 Y124.386 E4.37424
G1 X134.173 Y123.661 E4.40486
G1 X133.67 Y122.889 E4.4355
G1 X133.237 Y122.077 E4.46611
G1 X132.876 Y121.23 E4.49673
G1 X132.589 Y120.355 E4.52736
G1 X132.38 Y119.459 E4.55796
G1 X132.249 Y118.547 E4.58861
G1 X132.198 Y117.628 E4.61922
G1 X132.226 Y116.708 E4.64983
G1 X132.335 Y115.794 E4.68045
G1 X132.522 Y114.892 E4.71109
G1 X132.787 Y114.01 E4.74172
G1 X133.128 Y113.155 E4.77233
G1 X133.541 Y112.332 E4.80296
G1 X134.024 Y111.549 E4.83356
G1 X134.573 Y110.81 E4.86418
G0 F6000 X135.139 Y110.76
G1 F1200 X135.765 Y110.109 E4.89422
G1 X136.446 Y109.516 E4.92425
G1 X137.177 Y108.986 E4.95428
G1 X137.952 Y108.522 E4.98433
G1 X138.765 Y108.129 E5.01436
G1 X139.61 Y107.809 E5.04441
G1 X140.236 Y107.625 E5.06611
G1 X141.36 Y107.333 E5.10474
G1 X143.795 Y106.625 E5.18908
G1 X146.214 Y105.846 E5.27361
G1 X148.613 Y104.999 E5.35823
G1 X151.002 Y104.078 E5.44338
G1 X153.321 Y103.107 E5.527
G1 X155.63 Y102.064 E5.61127
G1 X157.978 Y100.921 E5.69813
G1 X159.096 Y100.347 E5.73993
G1 X159.815 Y99.971 E5.76691
G1 X160.633 Y99.589 E5.79694
G1 X161.482 Y99.28 E5.82699
G1 X162.355 Y99.047 E5.85704
G1 X163.244 Y98.893 E5.88705
G1 X164.231 Y98.815 E5.91998
G1 X164.559 Y98.805 E5.9309
G1 X164.87 Y98.8 E5.94124
G1 X171.791 Y98.8 E6.17144
G1 X172.635 Y98.811 E6.19951
G1 X173.537 Y98.864 E6.22956
G1 X174.43 Y98.996 E6.25959
G1 X175.308 Y99.207 E6.28962
G1 X176.164 Y99.495 E6.31966
G1 X176.991 Y99.857 E6.34969
G1 X177.783 Y100.292 E6.37974
G1 X178.534 Y100.794 E6.40978
G1 X179.237 Y101.361 E6.43982
G1 X179.887 Y101.988 E6.46986
G1 X180.479 Y102.67 E6.4999
G1 X181.009 Y103.401 E6.52993
G1 X181.471 Y104.177 E6.55997
G1 X181.864 Y104.99 E6.59
G1 X182.182 Y105.835 E6.62003
G1 X182.425 Y106.705 E6.65007
G1 X182.59 Y107.593 E6.68011
G1 X182.685 Y108.722 E6.7178
G1 X182.694 Y109.041 E6.72841
G1 X182.698 Y109.33 E6.73803
G1 X182.695 Y125.383 E7.27195
G1 X182.687 Y126.103 E7.2959
G1 X182.637 Y127.005 E7.32595
G1 X182.508 Y127.899 E7.35599
G1 X182.3 Y128.778 E7.38603
G1 X182.015 Y129.635 E7.41607
G1 X181.655 Y130.463 E7.4461
G1 X181.223 Y131.256 E7.47614
G1 X180.723 Y132.008 E7.50617
G1 X180.159 Y132.713 E7.5362
G1 X179.534 Y133.365 E7.56624
G1 X178.854 Y133.96 E7.59629
G1 X178.124 Y134.491 E7.62632
G1 X177.35 Y134.957 E7.65636
G1 X176.538 Y135.352 E7.6864
G1 X175.694 Y135.673 E7.71643
G1 X174.825 Y135.919 E7.74647
G1 X173.937 Y136.086 E7.77652
G1 X172.793 Y136.185 E7.81471
G1 X172.459 Y136.195 E7.82583
G1 X172.154 Y136.2 E7.83597
G1 X165.087 Y136.199 E8.07102
G1 X164.384 Y136.188 E8.09441
G1 X163.483 Y136.134 E8.12443
G1 X162.59 Y136 E8.15446
G1 X161.712 Y135.788 E8.1845
G1 X160.856 Y135.499 E8.21455
G1 X159.975 Y135.108 E8.24661
G1 X159.352 Y134.795 E8.2698
G1 X157.859 Y134.017 E8.3258
G1 X155.612 Y132.925 E8.40889
G1 X153.304 Y131.884 E8.4931
G1 X150.932 Y130.893 E8.5786
G1 X148.528 Y129.968 E8.66428
G1 X146.199 Y129.147 E8.74641
G1 X143.75 Y128.361 E8.83196
G1 X141.296 Y127.648 E8.91695
G1 X140.221 Y127.367 E8.95391
G1 X139.358 Y127.101 E8.98394
G1 X138.522 Y126.759 E9.01399
G1 X137.72 Y126.345 E9.04401
G1 X136.957 Y125.861 E9.07406
G1 X136.24 Y125.311 E9.10411
G1 X135.575 Y124.701 E9.13413
G1 X134.966 Y124.034 E9.16417
G1 X134.419 Y123.316 E9.19419
G1 X133.937 Y122.552 E9.22424
G1 X133.525 Y121.748 E9.25428
G1 X133.185 Y120.911 E9.28433
G1 X132.921 Y120.048 E9.31435
G1 X132.734 Y119.164 E9.3444
G1 X132.626 Y118.268 E9.37442
G1 X132.598 Y117.365 E9.40447
G1 X132.65 Y116.463 E9.43452
G1 X132.781 Y115.57 E9.46453
G1 X132.991 Y114.691 E9.49459
G1 X133.277 Y113.835 E9.52461
G1 X133.639 Y113.007 E9.55467
G1 X134.072 Y112.215 E9.58469
G1 X134.573 Y111.464 E9.61472
G1 X135.139 Y110.76 E9.64476
G1 F1500 E3.14476
G0 F6000 X102.266 Y115.836
G1 F1500 E9.64476
G1 F1200 X102.374 Y116.732 E9.67478
G1 X102.402 Y117.635 E9.70482
G1 X102.35 Y118.537 E9.73488
G1 X102.219 Y119.43 E9.76489
G1 X102.009 Y120.309 E9.79495
G1 X101.723 Y121.165 E9.82497
G1 X101.361 Y121.993 E9.85503
G1 X100.928 Y122.785 E9.88505
G1 X100.427 Y123.536 E9.91508
G1 X99.861 Y124.24 E9.94512
G1 X99.235 Y124.891 E9.97516
G1 X98.554 Y125.484 E10.00519
G1 X97.823 Y126.014 E10.03522
G1 X97.048 Y126.478 E10.06527
G1 X96.235 Y126.871 E10.0953
G1 X95.39 Y127.191 E10.12535
G1 X94.764 Y127.375 E10.14706
G1 X93.64 Y127.667 E10.18568
G1 X91.205 Y128.375 E10.27002
G1 X88.786 Y129.154 E10.35455
G1 X86.387 Y130.001 E10.43917
G1 X83.998 Y130.922 E10.52433
G1 X81.679 Y131.893 E10.60794
G1 X79.37 Y132.936 E10.69221
G1 X77.022 Y134.079 E10.77907
G1 X75.904 Y134.653 E10.82087
G1 X75.185 Y135.029 E10.84786
G1 X74.367 Y135.411 E10.87788
G1 X73.518 Y135.72 E10.90793
G1 X72.645 Y135.953 E10.93799
G1 X71.756 Y136.107 E10.96799
G1 X70.769 Y136.185 E11.00092
G1 X70.441 Y136.195 E11.01184
G1 X70.13 Y136.2 E11.02218
G1 X63.078 Y136.199 E11.25673
G1 X62.38 Y136.19 E11.27995
G1 X61.479 Y136.139 E11.30997
G1 X60.585 Y136.007 E11.34002
G1 X59.707 Y135.798 E11.37004
G1 X58.85 Y135.511 E11.4001
G1 X58.023 Y135.15 E11.43011
G1 X57.23 Y134.717 E11.46017
G1 X56.479 Y134.216 E11.49019
G1 X55.775 Y133.65 E11.52024
G1 X55.124 Y133.024 E11.55027
G1 X54.531 Y132.343 E11.58031
G1 X54.001 Y131.612 E11.61034
G1 X53.537 Y130.837 E11.64038
G1 X53.143 Y130.024 E11.67043
G1 X52.823 Y129.18 E11.70045
G1 X52.579 Y128.31 E11.73051
G1 X52.413 Y127.422 E11.76055
G1 X52.316 Y126.267 E11.7991
G1 X52.307 Y125.934 E11.81018
G1 X52.303 Y125.658 E11.81936
G1 X52.304 Y109.536 E12.35558
G1 X52.313 Y108.871 E12.3777
G1 X52.365 Y107.969 E12.40775
G1 X52.497 Y107.076 E12.43778
G1 X52.707 Y106.198 E12.4678
G1 X52.994 Y105.341 E12.49786
G1 X53.356 Y104.514 E12.52789
G1 X53.789 Y103.722 E12.55791
G1 X54.291 Y102.971 E12.58796
G1 X54.858 Y102.267 E12.61802
G1 X55.484 Y101.617 E12.64804
G1 X56.165 Y101.024 E12.67807
G1 X56.897 Y100.494 E12.70813
G1 X57.672 Y100.031 E12.73816
G1 X58.485 Y99.638 E12.76819
G1 X59.33 Y99.318 E12.79824
G1 X60.199 Y99.075 E12.82825
G1 X61.087 Y98.909 E12.8583
G1 X62.226 Y98.813 E12.89632
G1 X62.547 Y98.804 E12.907
G1 X62.833 Y98.8 E12.91651
G1 X69.753 Y98.8 E13.14667
G1 X70.601 Y98.811 E13.17488
G1 X71.503 Y98.864 E13.20493
G1 X72.396 Y98.996 E13.23496
G1 X73.274 Y99.207 E13.26499
G1 X74.13 Y99.495 E13.29503
G1 X75.033 Y99.895 E13.32788
G1 X75.645 Y100.203 E13.35066
G1 X77.143 Y100.984 E13.40685
G1 X79.388 Y102.075 E13.48987
G1 X81.696 Y103.116 E13.57408
G1 X84.081 Y104.112 E13.66005
G1 X86.436 Y105.02 E13.744
G1 X88.826 Y105.861 E13.82827
G1 X91.25 Y106.639 E13.91294
G1 X93.704 Y107.352 E13.99794
G1 X94.779 Y107.633 E14.03489
G1 X95.642 Y107.899 E14.06493
G1 X96.478 Y108.241 E14.09497
G1 X97.28 Y108.655 E14.12499
G1 X98.043 Y109.139 E14.15504
G1 X98.76 Y109.689 E14.1851
G1 X99.425 Y110.299 E14.21511
G1 X100.034 Y110.966 E14.24515
G1 X100.581 Y111.684 E14.27517
G1 X101.063 Y112.448 E14.30522
G1 X101.475 Y113.252 E14.33527
G1 X101.815 Y114.089 E14.36531
G1 X102.079 Y114.952 E14.39533
G1 X102.266 Y115.836 E14.42538
G1 F1500 E7.92538
G0 F6000 X56.915 Y99.539
G1 F1500 E14.42538
G1 F1200 X57.742 Y99.097 E14.45657
G1 X58.604 Y98.727 E14.48777
G1 X59.494 Y98.431 E14.51897
G1 X60.406 Y98.213 E14.55015
G1 X61.333 Y98.072 E14.58134
G1 X62.204 Y98.013 E14.61038
G1 X62.525 Y98.004 E14.62106
G1 X62.833 Y98 E14.6313
G1 X69.753 Y98 E14.86146
G1 X70.612 Y98.011 E14.89004
G1 X71.549 Y98.064 E14.92125
G1 X72.477 Y98.197 E14.95243
G1 X73.391 Y98.409 E14.98364
G1 X74.283 Y98.697 E15.01481
G1 X75.392 Y99.18 E15.05505
G1 X76.015 Y99.494 E15.07825
G1 X77.477 Y100.257 E15.1331
G1 X79.723 Y101.348 E15.21615
G1 X82.048 Y102.396 E15.30097
G1 X84.361 Y103.362 E15.38434
G1 X86.745 Y104.281 E15.46932
G1 X89.072 Y105.1 E15.55137
G1 X91.466 Y105.869 E15.635
G1 X93.919 Y106.582 E15.71997
G1 X94.981 Y106.859 E15.75647
G1 X95.878 Y107.134 E15.78768
G1 X96.747 Y107.485 E15.81885
G1 X97.584 Y107.908 E15.85004
G1 X98.382 Y108.401 E15.88124
G1 X99.135 Y108.961 E15.91245
G1 X99.837 Y109.582 E15.94362
G1 X100.484 Y110.261 E15.97482
G1 X101.071 Y110.993 E16.00602
G1 X101.593 Y111.772 E16.03721
G1 X102.047 Y112.593 E16.06842
G1 X102.429 Y113.449 E16.09959
G1 X102.737 Y114.335 E16.13079
G1 X102.969 Y115.244 E16.162
G1 X103.122 Y116.169 E16.19318
G1 X103.196 Y117.104 E16.22437
G1 X103.19 Y118.042 E16.25557
G1 X103.104 Y118.976 E16.28677
G1 X102.939 Y119.899 E16.31796
G1 X102.695 Y120.805 E16.34916
G1 X102.376 Y121.687 E16.38036
G1 X101.982 Y122.538 E16.41155
G1 X101.518 Y123.353 E16.44274
G1 X100.986 Y124.125 E16.47392
G1 X100.39 Y124.849 E16.50511
G1 X99.734 Y125.52 E16.53632
G1 X99.024 Y126.132 E16.5675
G1 X98.264 Y126.682 E16.5987
G1 X97.46 Y127.165 E16.6299
G1 X96.618 Y127.577 E16.66108
G1 X95.743 Y127.917 E16.6923
G1 X94.965 Y128.15 E16.71931
G1 X93.822 Y128.447 E16.75859
G1 X91.431 Y129.142 E16.84141
G1 X89.045 Y129.911 E16.92479
G1 X86.668 Y130.75 E17.00863
G1 X84.31 Y131.659 E17.09268
G1 X82.002 Y132.625 E17.1759
G1 X79.693 Y133.669 E17.26018
G1 X77.399 Y134.785 E17.34503
G1 X76.274 Y135.362 E17.38708
G1 X75.555 Y135.738 E17.41407
G1 X74.707 Y136.136 E17.44522
G1 X73.827 Y136.461 E17.47642
G1 X72.923 Y136.71 E17.50761
G1 X72 Y136.881 E17.53883
G1 X70.793 Y136.985 E17.57913
G1 X70.465 Y136.995 E17.59004
G1 X70.13 Y137 E17.60118
G1 X63.068 Y136.999 E17.83607
G1 X62.37 Y136.99 E17.85928
G1 X61.434 Y136.938 E17.89046
G1 X60.505 Y136.806 E17.92167
G1 X59.591 Y136.596 E17.95286
G1 X58.698 Y136.309 E17.98406
G1 X57.833 Y135.946 E18.01526
G1 X57.002 Y135.512 E18.04644
G1 X56.211 Y135.008 E18.07764
G1 X55.466 Y134.438 E18.10884
G1 X54.772 Y133.807 E18.14004
G1 X54.135 Y133.12 E18.1712
G1 X53.558 Y132.38 E18.20241
G1 X53.046 Y131.594 E18.23361
G1 X52.603 Y130.767 E18.26481
G1 X52.232 Y129.906 E18.29599
G1 X51.936 Y129.016 E18.32719
G1 X51.717 Y128.104 E18.35838
G1 X51.576 Y127.177 E18.38957
G1 X51.516 Y126.288 E18.41921
G1 X51.507 Y125.955 E18.43029
G1 X51.503 Y125.658 E18.44017
G1 X51.504 Y109.525 E18.97675
G1 X51.513 Y108.86 E18.99887
G1 X51.566 Y107.924 E19.03005
G1 X51.698 Y106.995 E19.06126
G1 X51.909 Y106.081 E19.09246
G1 X52.197 Y105.189 E19.12364
G1 X52.56 Y104.324 E19.15484
G1 X52.995 Y103.493 E19.18603
G1 X53.499 Y102.703 E19.2172
G1 X54.069 Y101.958 E19.2484
G1 X54.701 Y101.264 E19.27962
G1 X55.389 Y100.627 E19.31081
G1 X56.129 Y100.051 E19.342
G1 X56.915 Y99.539 E19.3732
G0 F6000 X57.294 Y99.782
G1 F1200 X58.114 Y99.364 E19.40381
G1 X58.968 Y99.019 E19.43444
G1 X59.848 Y98.749 E19.46506
G1 X60.748 Y98.557 E19.49567
G1 X61.662 Y98.443 E19.5263
G1 X62.215 Y98.413 E19.54472
G1 X62.536 Y98.404 E19.5554
G1 X62.833 Y98.4 E19.56528
G1 X69.753 Y98.4 E19.79544
G1 X70.607 Y98.411 E19.82385
G1 X71.526 Y98.464 E19.85446
G1 X72.437 Y98.597 E19.88508
G1 X73.333 Y98.808 E19.9157
G1 X74.207 Y99.096 E19.94631
G1 X75.213 Y99.537 E19.98284
G1 X75.83 Y99.848 E20.00582
G1 X77.324 Y100.627 E20.06186
G1 X79.562 Y101.715 E20.14463
G1 X81.865 Y102.753 E20.22865
G1 X84.211 Y103.733 E20.31321
G1 X86.594 Y104.652 E20.39816
G1 X88.933 Y105.475 E20.48063
G1 X91.38 Y106.26 E20.5661
G1 X93.811 Y106.967 E20.65031
G1 X94.88 Y107.246 E20.68705
G1 X95.76 Y107.517 E20.71768
G1 X96.613 Y107.863 E20.7483
G1 X97.433 Y108.282 E20.77892
G1 X98.213 Y108.77 E20.80952
G1 X98.948 Y109.325 E20.84016
G1 X99.632 Y109.941 E20.87077
G1 X100.26 Y110.614 E20.90139
G1 X100.827 Y111.339 E20.932
G1 X101.33 Y112.111 E20.96265
G1 X101.763 Y112.923 E20.99325
G1 X102.124 Y113.77 E21.02388
G1 X102.411 Y114.645 E21.05451
G1 X102.62 Y115.541 E21.08511
G1 X102.751 Y116.453 E21.11575
G1 X102.802 Y117.372 E21.14636
G1 X102.774 Y118.292 E21.17698
G1 X102.665 Y119.206 E21.20759
G1 X102.478 Y120.108 E21.23823
G1 X102.213 Y120.99 E21.26886
G1 X101.872 Y121.845 E21.29948
G1 X101.459 Y122.668 E21.33011
G1 X100.976 Y123.451 E21.3607
G1 X100.427 Y124.19 E21.39132
G1 X99.815 Y124.879 E21.42197
G1 X99.147 Y125.511 E21.45256
G1 X98.425 Y126.084 E21.48322
G1 X97.657 Y126.591 E21.51383
G1 X96.848 Y127.03 E21.54444
G1 X96.004 Y127.397 E21.57505
G1 X94.865 Y127.762 E21.61483
G1 X93.747 Y128.052 E21.65325
G1 X91.335 Y128.754 E21.7368
G1 X88.894 Y129.54 E21.82209
G1 X86.527 Y130.376 E21.90558
G1 X84.148 Y131.293 E21.99039
G1 X81.862 Y132.25 E22.07281
G1 X79.503 Y133.316 E22.15891
G1 X77.22 Y134.427 E22.24336
G1 X76.089 Y135.007 E22.28563
G1 X75.37 Y135.383 E22.31262
G1 X74.537 Y135.774 E22.34323
G1 X73.672 Y136.091 E22.37387
G1 X72.784 Y136.332 E22.40447
G1 X71.877 Y136.495 E22.43512
G1 X70.781 Y136.585 E22.4717
G1 X70.453 Y136.595 E22.48261
G1 X70.13 Y136.6 E22.49335
G1 X63.073 Y136.599 E22.72807
G1 X62.375 Y136.59 E22.75129
G1 X61.456 Y136.538 E22.7819
G1 X60.545 Y136.407 E22.81252
