;FLAVOR:Marlin
;TIME:3212
;Filament used: 1.26025m
;Layer height: 0.2
;MINX:25
;MINY:95.75
;MINZ:0.2
;MAXX:210
;MAXY:139.25
;MAXZ:1.2
;TARGET_MACHINE.NAME:Creality Ender-3
;Generated with Cura_SteamEngine 5.8.1
M140 S50
M105
M190 S50
M104 S200
M105
M109 S200
M82 ;absolute extrusion mode
; Ender 3 Custom Start G-code
G92 E0 ; Reset Extruder
G28 ; Home all axes
G1 Z2.0 F3000 ; Move Z Axis up little to prevent scratching of Heat Bed
G1 X0.1 Y20 Z0.3 F5000.0 ; Move to start position
G1 X0.1 Y200.0 Z0.3 F1500.0 E15 ; Draw the first line
G1 X0.4 Y200.0 Z0.3 F5000.0 ; Move to side a little
G1 X0.4 Y20 Z0.3 F1500.0 E30 ; Draw the second line
G92 E0 ; Reset Extruder
G1 Z2.0 F3000 ; Move Z Axis up little to prevent scratching of Heat Bed
G1 X5 Y20 Z0.3 F5000.0 ; Move over to prevent blob squish
G92 E0
G92 E0
G1 F2700 E-5
;LAYER_COUNT:6
;LAYER:0
M107
G0 F6000 X32.612 Y96.298 Z0.2
;TYPE:SKIRT
G1 F2700 E0
G1 F1200 X33.549 Y96.039 E0.03233
G1 X34.516 Y95.861 E0.06504
G1 X35.655 Y95.765 E0.10305
G1 X36.312 Y95.75 E0.12491
G1 X198.304 Y95.75 E5.51279
G1 X199.184 Y95.763 E5.54206
G1 X200.156 Y95.822 E5.57445
G1 X201.119 Y95.968 E5.60684
G1 X202.066 Y96.199 E5.63926
G1 X202.954 Y96.499 E5.67044
G1 X203.846 Y96.889 E5.70282
G1 X204.729 Y97.376 E5.73636
G1 X205.48 Y97.878 E5.7664
G1 X206.295 Y98.536 E5.80124
G1 X206.993 Y99.214 E5.83361
G1 X207.629 Y99.951 E5.86598
G1 X208.199 Y100.741 E5.89839
G1 X208.661 Y101.517 E5.92842
G1 X209.115 Y102.459 E5.9632
G1 X209.444 Y103.337 E5.99439
G1 X209.713 Y104.309 E6.02793
G1 X209.89 Y105.275 E6.0606
G1 X209.985 Y106.405 E6.09831
G1 X210 Y107.08 E6.12077
G1 X209.999 Y127.65 E6.80493
G1 X209.988 Y128.413 E6.83031
G1 X209.931 Y129.386 E6.86273
G1 X209.786 Y130.349 E6.89512
G1 X209.557 Y131.295 E6.92749
G1 X209.246 Y132.219 E6.95992
G1 X208.854 Y133.11 E6.99229
G1 X208.386 Y133.962 E7.02463
G1 X207.864 Y134.743 E7.05587
G1 X207.231 Y135.528 E7.08941
G1 X206.606 Y136.179 E7.11943
G1 X205.817 Y136.867 E7.15424
G1 X205.057 Y137.417 E7.18545
G1 X204.19 Y137.934 E7.21902
G1 X203.312 Y138.356 E7.25142
G1 X202.401 Y138.698 E7.28379
G1 X201.462 Y138.959 E7.3162
G1 X200.496 Y139.137 E7.34887
G1 X199.345 Y139.235 E7.38729
G1 X198.67 Y139.25 E7.40975
G1 X36.564 Y139.249 E12.80142
G1 X35.831 Y139.238 E12.8258
G1 X34.859 Y139.181 E12.85818
G1 X33.896 Y139.035 E12.89058
G1 X32.95 Y138.806 E12.92295
G1 X32.026 Y138.494 E12.95539
G1 X31.136 Y138.102 E12.98773
G1 X30.313 Y137.651 E13.01895
G1 X29.474 Y137.09 E13.05252
G1 X28.77 Y136.524 E13.08256
G1 X28.017 Y135.799 E13.11733
G1 X27.38 Y135.063 E13.1497
G1 X26.85 Y134.332 E13.17973
G1 X26.314 Y133.435 E13.21449
G1 X25.892 Y132.557 E13.24689
G1 X25.55 Y131.645 E13.27928
G1 X25.29 Y130.707 E13.31166
G1 X25.112 Y129.738 E13.34443
G1 X25.014 Y128.559 E13.38378
G1 X25 Y127.908 E13.40543
G1 X25.001 Y107.275 E14.09169
G1 X25.012 Y106.575 E14.11497
G1 X25.07 Y105.602 E14.14739
G1 X25.216 Y104.639 E14.17979
G1 X25.446 Y103.693 E14.21217
G1 X25.759 Y102.77 E14.24459
G1 X26.151 Y101.88 E14.27693
G1 X26.621 Y101.027 E14.30932
G1 X27.164 Y100.219 E14.3417
G1 X27.731 Y99.515 E14.37177
G1 X28.456 Y98.763 E14.40651
G1 X29.192 Y98.126 E14.43889
G1 X29.924 Y97.596 E14.46894
G1 X30.821 Y97.061 E14.50368
G1 X31.699 Y96.64 E14.53607
G1 X32.612 Y96.298 E14.56849
G0 F6000 X32.719 Y96.683
G1 F1200 X33.622 Y96.432 E14.59967
G1 X34.55 Y96.26 E14.63106
G1 X35.689 Y96.164 E14.66908
G1 X36.321 Y96.15 E14.6901
G1 X198.298 Y96.15 E20.07748
G1 X199.16 Y96.162 E20.10615
G1 X200.097 Y96.218 E20.13737
G1 X201.025 Y96.357 E20.16858
G1 X201.938 Y96.578 E20.19982
G1 X202.794 Y96.866 E20.22986
G1 X203.686 Y97.256 E20.26224
G1 X204.507 Y97.709 E20.29343
G1 X205.258 Y98.211 E20.32348
G1 X206.017 Y98.823 E20.3559
G1 X206.691 Y99.476 E20.38712
G1 X207.305 Y100.185 E20.41831
G1 X207.855 Y100.946 E20.44954
G1 X208.317 Y101.722 E20.47958
G1 X208.74 Y102.599 E20.51196
G1 X209.069 Y103.477 E20.54315
G1 X209.32 Y104.382 E20.57439
G1 X209.491 Y105.309 E20.60574
G1 X209.586 Y106.439 E20.64346
G1 X209.6 Y107.08 E20.66478
G1 X209.599 Y127.645 E21.34877
G1 X209.589 Y128.39 E21.37356
G1 X209.535 Y129.327 E21.40477
G1 X209.397 Y130.256 E21.43601
G1 X209.178 Y131.168 E21.46721
G1 X208.88 Y132.058 E21.49842
G1 X208.503 Y132.918 E21.52965
G1 X208.053 Y133.74 E21.56082
G1 X207.531 Y134.521 E21.59207
G1 X206.942 Y135.251 E21.62326
G1 X206.317 Y135.902 E21.65328
G1 X205.582 Y136.543 E21.68572
G1 X204.822 Y137.093 E21.71692
G1 X204.016 Y137.574 E21.74814
G1 X203.171 Y137.982 E21.77935
G1 X202.293 Y138.313 E21.81056
G1 X201.389 Y138.566 E21.84178
G1 X200.462 Y138.738 E21.87314
G1 X199.311 Y138.836 E21.91156
G1 X198.67 Y138.85 E21.93288
G1 X36.57 Y138.849 E27.32435
G1 X35.854 Y138.839 E27.34817
G1 X34.918 Y138.785 E27.37935
G1 X33.989 Y138.646 E27.41059
G1 X33.077 Y138.427 E27.44179
G1 X32.187 Y138.128 E27.47302
G1 X31.328 Y137.751 E27.50422
G1 X30.505 Y137.3 E27.53543
G1 X29.725 Y136.778 E27.56665
G1 X29.021 Y136.212 E27.59669
G1 X28.319 Y135.537 E27.62908
G1 X27.704 Y134.828 E27.6603
G1 X27.174 Y134.097 E27.69033
G1 X26.674 Y133.261 E27.72273
G1 X26.266 Y132.416 E27.75394
G1 X25.935 Y131.538 E27.78515
G1 X25.683 Y130.634 E27.81636
G1 X25.511 Y129.705 E27.84778
G1 X25.413 Y128.526 E27.88713
G1 X25.4 Y127.908 E27.90769
G1 X25.401 Y107.281 E28.59375
G1 X25.411 Y106.598 E28.61647
G1 X25.466 Y105.661 E28.64769
G1 X25.605 Y104.733 E28.6789
G1 X25.825 Y103.821 E28.7101
G1 X26.125 Y102.931 E28.74134
G1 X26.502 Y102.072 E28.77254
G1 X26.953 Y101.25 E28.80372
G1 X27.476 Y100.47 E28.83496
G1 X28.043 Y99.766 E28.86502
G1 X28.718 Y99.065 E28.89739
G1 X29.427 Y98.45 E28.92861
G1 X30.159 Y97.92 E28.95867
G1 X30.995 Y97.421 E28.99105
G1 X31.84 Y97.014 E29.02224
G1 X32.719 Y96.683 E29.05348
G0 F6000 X32.827 Y97.068
G1 F1200 X33.696 Y96.825 E29.08349
G1 X34.584 Y96.659 E29.11354
G1 X35.723 Y96.563 E29.15156
G1 X36.33 Y96.55 E29.17175
G1 X198.293 Y96.55 E34.55866
G1 X199.137 Y96.561 E34.58674
G1 X200.039 Y96.614 E34.61679
G1 X200.932 Y96.746 E34.64681
G1 X201.81 Y96.957 E34.67685
G1 X202.666 Y97.245 E34.70689
G1 X203.493 Y97.607 E34.73691
G1 X204.285 Y98.042 E34.76697
G1 X205.036 Y98.544 E34.79701
G1 X205.739 Y99.111 E34.82705
G1 X206.389 Y99.738 E34.85709
G1 X206.981 Y100.42 E34.88713
G1 X207.511 Y101.151 E34.91716
G1 X207.973 Y101.927 E34.94719
G1 X208.366 Y102.74 E34.97723
G1 X208.684 Y103.585 E35.00726
G1 X208.927 Y104.455 E35.0373
G1 X209.092 Y105.343 E35.06734
G1 X209.187 Y106.473 E35.10506
G1 X209.2 Y107.08 E35.12525
G1 X209.199 Y127.64 E35.80908
G1 X209.19 Y128.367 E35.83326
G1 X209.139 Y129.269 E35.86331
G1 X209.008 Y130.163 E35.89336
G1 X208.799 Y131.041 E35.92338
G1 X208.513 Y131.898 E35.95343
G1 X208.152 Y132.726 E35.98347
G1 X207.72 Y133.518 E36.01348
G1 X207.219 Y134.27 E36.04353
G1 X206.653 Y134.974 E36.07358
G1 X206.028 Y135.625 E36.10359
G1 X205.347 Y136.219 E36.13365
G1 X204.616 Y136.75 E36.1637
G1 X203.842 Y137.214 E36.19372
G1 X203.029 Y137.608 E36.22376
G1 X202.185 Y137.928 E36.25379
G1 X201.315 Y138.173 E36.28385
G1 X200.428 Y138.339 E36.31386
G1 X199.277 Y138.437 E36.35228
G1 X198.67 Y138.45 E36.37248
G1 X36.575 Y138.449 E41.76378
G1 X35.877 Y138.44 E41.78699
G1 X34.976 Y138.389 E41.81701
G1 X34.082 Y138.257 E41.84707
G1 X33.204 Y138.048 E41.87709
G1 X32.347 Y137.761 E41.90715
G1 X31.52 Y137.4 E41.93716
G1 X30.727 Y136.967 E41.96721
G1 X29.976 Y136.466 E41.99724
G1 X29.272 Y135.9 E42.02728
G1 X28.621 Y135.274 E42.05732
G1 X28.028 Y134.593 E42.08735
G1 X27.498 Y133.862 E42.11738
G1 X27.034 Y133.087 E42.14743
G1 X26.64 Y132.274 E42.17748
G1 X26.32 Y131.43 E42.2075
G1 X26.076 Y130.56 E42.23755
G1 X25.91 Y129.672 E42.2676
G1 X25.813 Y128.517 E42.30615
G1 X25.8 Y127.908 E42.32641
G1 X25.801 Y107.286 E43.0123
G1 X25.81 Y106.621 E43.03442
G1 X25.862 Y105.719 E43.06447
G1 X25.994 Y104.826 E43.09449
G1 X26.204 Y103.948 E43.12452
G1 X26.491 Y103.091 E43.15458
G1 X26.853 Y102.264 E43.1846
G1 X27.286 Y101.472 E43.21463
G1 X27.788 Y100.721 E43.24467
G1 X28.355 Y100.017 E43.27474
G1 X28.981 Y99.367 E43.30475
G1 X29.662 Y98.774 E43.33478
G1 X30.394 Y98.244 E43.36484
G1 X31.169 Y97.781 E43.39487
G1 X31.982 Y97.388 E43.4249
G1 X32.827 Y97.068 E43.45496
G1 F2700 E38.45496
;MESH:obstacle_circuit_logo.01.stl
G0 F6000 X159.272 Y119.399
G0 X159.456 Y123.328
;TYPE:WALL-INNER
G1 F2700 E43.45496
G1 F1200 X159.738 Y123.328 E43.46433
G1 X160.805 Y123.195 E43.5001
G1 X161.054 Y123.084 E43.50917
G1 X161.192 Y122.964 E43.51525
G1 X161.454 Y122.414 E43.53551
G1 X161.557 Y121.451 E43.56772
G1 X161.499 Y120.708 E43.59251
G1 X161.354 Y120.23 E43.60912
G1 X161.154 Y119.952 E43.62051
G1 X160.853 Y119.766 E43.63228
G1 X160.354 Y119.636 E43.64943
G1 X159.456 Y119.573 E43.67937
G1 X159.456 Y123.328 E43.80427
G0 F6000 X159.056 Y123.728
;TYPE:WALL-OUTER
G1 F1200 X159.763 Y123.728 E43.82778
G1 X160.913 Y123.585 E43.86632
G1 X161.271 Y123.425 E43.87937
G1 X161.517 Y123.212 E43.89019
G1 X161.844 Y122.524 E43.91553
G1 X161.959 Y121.457 E43.95122
G1 X161.894 Y120.634 E43.97868
G1 X161.718 Y120.05 E43.99897
G1 X161.432 Y119.654 E44.01521
G1 X161.012 Y119.394 E44.03164
G1 X160.419 Y119.239 E44.05203
G1 X159.633 Y119.184 E44.07823
G1 X159.056 Y119.184 E44.09742
G1 X159.056 Y123.728 E44.24856
G0 F6000 X159.328 Y123.46
G0 X159.847 Y123.214
G0 X159.816 Y122.953
;TYPE:SKIN
G1 F1200 X159.816 Y119.959 E44.34814
G1 X160.291 Y119.991 E44.36397
G1 X160.708 Y120.102 E44.37833
G1 X160.906 Y120.223 E44.38604
G1 X161.025 Y120.386 E44.39276
G1 X161.142 Y120.781 E44.40646
G1 X161.195 Y121.441 E44.42848
G1 X161.1 Y122.312 E44.45762
G1 X160.906 Y122.725 E44.4728
G1 X160.699 Y122.842 E44.48071
G1 X159.816 Y122.953 E44.51031
G0 F6000 X160.559 Y122.658
G1 F1200 X160.016 Y122.115 E44.53585
G0 F6000 X160.016 Y121.55
G1 F1200 X160.847 Y122.38 E44.57491
G0 F6000 X160.943 Y121.911
G1 F1200 X160.016 Y120.984 E44.61852
G0 F6000 X160.016 Y120.418
G1 F1200 X160.991 Y121.393 E44.66438
G0 F6000 X160.93 Y120.766
G1 F1200 X160.387 Y120.224 E44.68989
G1 F2700 E39.68989
G0 F6000 X160.504 Y119.78
G0 X159.63 Y119.759
G0 X159.272 Y123.516
G0 X159.272 Y125.824
G0 X156.526 Y125.972
;TYPE:WALL-INNER
G1 F2700 E44.68989
G1 F1200 X156.338 Y125.839 E44.69755
G1 X156.23 Y125.683 E44.70386
G1 X156.174 Y125.476 E44.711
G1 X156.172 Y110.476 E45.2099
G1 X156.278 Y110.135 E45.22178
G1 X156.419 Y109.989 E45.22853
G1 X156.699 Y109.876 E45.23857
G1 X158.856 Y109.876 E45.31031
G1 X159.129 Y109.941 E45.31965
G1 X159.325 Y110.1 E45.32804
G1 X159.456 Y110.355 E45.33757
G1 X159.456 Y116.888 E45.55486
G1 X160.024 Y116.888 E45.57375
G1 X161.857 Y110.314 E45.80075
G1 X161.967 Y110.1 E45.80875
G1 X162.163 Y109.941 E45.81714
G1 X162.356 Y109.876 E45.82392
G1 X164.448 Y109.876 E45.8935
G1 X164.729 Y109.945 E45.90312
G1 X164.926 Y110.112 E45.91171
G1 X164.991 Y110.218 E45.91585
G1 X165.034 Y110.604 E45.92877
G1 X163.043 Y117.645 E46.17213
G1 X163.325 Y117.805 E46.18292
G1 X163.858 Y118.274 E46.20653
G1 X164.288 Y118.945 E46.23304
G1 X164.577 Y119.727 E46.26077
G1 X164.772 Y121.417 E46.31735
G1 X164.638 Y122.873 E46.36598
G1 X164.22 Y124.038 E46.40715
G1 X163.575 Y124.872 E46.44221
G1 X163.411 Y125.018 E46.44952
G1 X162.49 Y125.574 E46.4853
G1 X161.248 Y125.912 E46.52811
G1 X159.78 Y126.024 E46.57708
G1 X156.772 Y126.024 E46.67712
G1 X156.526 Y125.972 E46.68549
G1 F2700 E41.68549
G0 F6000 X155.994 Y125.492
G0 X155.134 Y125.49
G0 X151.946 Y125.904
G1 F2700 E46.68549
G1 F1200 X151.753 Y125.653 E46.69602
G1 X151.708 Y125.5 E46.70132
G1 X151.708 Y110.451 E47.20185
G1 X151.8 Y110.148 E47.21239
G1 X152.012 Y109.953 E47.22197
G1 X152.226 Y109.876 E47.22953
G1 X154.356 Y109.876 E47.30037
G1 X154.546 Y109.906 E47.30677
G1 X154.709 Y109.989 E47.31286
G1 X154.85 Y110.135 E47.31961
G1 X154.956 Y110.476 E47.33148
G1 X154.954 Y125.476 E47.83039
G1 X154.898 Y125.683 E47.83752
G1 X154.79 Y125.839 E47.84383
G1 X154.602 Y125.972 E47.85149
G1 X154.434 Y126.024 E47.85734
G1 X152.308 Y126.024 E47.92805
G1 X151.946 Y125.904 E47.94073
G1 F2700 E42.94073
G0 F6000 X151.946 Y125.924
G0 X151.527 Y125.524
G0 X149.984 Y124.903
G0 X144.87 Y125.983
G1 F2700 E47.94073
G1 F1200 X143.72 Y125.473 E47.98257
G1 X143.538 Y125.348 E47.98992
G1 X142.737 Y124.537 E48.02783
G1 X142.175 Y123.388 E48.07037
G1 X141.901 Y122.001 E48.1174
G1 X141.817 Y120.596 E48.16421
G1 X141.816 Y115.264 E48.34155
G1 X141.912 Y113.836 E48.38916
G1 X142.178 Y112.572 E48.43212
G1 X142.726 Y111.413 E48.47476
G1 X143.536 Y110.559 E48.51391
G1 X143.712 Y110.433 E48.52111
G1 X144.859 Y109.891 E48.5633
G1 X146.44 Y109.712 E48.61622
G1 X147.902 Y109.868 E48.66512
G1 X148.969 Y110.334 E48.70385
G1 X149.135 Y110.442 E48.71043
G1 X149.916 Y111.236 E48.74748
G1 X150.445 Y112.311 E48.78733
G1 X150.719 Y113.6 E48.83116
G1 X150.803 Y114.876 E48.87369
G1 X150.804 Y116.119 E48.91503
G1 X150.694 Y116.381 E48.92448
G1 X150.456 Y116.577 E48.93474
G1 X150.229 Y116.632 E48.94251
G1 X148.175 Y116.63 E49.01082
G1 X147.902 Y116.537 E49.02041
G1 X147.767 Y116.417 E49.02642
G1 X147.628 Y116.107 E49.03772
G1 X147.628 Y114.956 E49.076
G1 X147.541 Y113.466 E49.12565
G1 X147.421 Y113.032 E49.14062
G1 X147.253 Y112.772 E49.15092
G1 X146.997 Y112.629 E49.16067
G1 X146.449 Y112.56 E49.17904
G1 X145.958 Y112.612 E49.19546
G1 X145.658 Y112.736 E49.20626
G1 X145.456 Y112.94 E49.21581
G1 X145.283 Y113.333 E49.23009
G1 X145.166 Y113.991 E49.25232
G1 X145.12 Y114.966 E49.28478
G1 X145.12 Y120.835 E49.47999
G1 X145.226 Y122.362 E49.5309
G1 X145.369 Y122.808 E49.54648
G1 X145.571 Y123.077 E49.55766
G1 X145.883 Y123.251 E49.56955
G1 X146.462 Y123.323 E49.58895
G1 X147.017 Y123.256 E49.60755
G1 X147.285 Y123.114 E49.61763
G1 X147.433 Y122.901 E49.62626
G1 X147.54 Y122.489 E49.64042
G1 X147.628 Y121.093 E49.68694
G1 X147.628 Y120.072 E49.7209
G1 X147.666 Y119.86 E49.72806
G1 X147.767 Y119.686 E49.73475
G1 X147.902 Y119.567 E49.74074
G1 X148.175 Y119.474 E49.75033
G1 X150.229 Y119.472 E49.81865
G1 X150.456 Y119.527 E49.82642
G1 X150.694 Y119.723 E49.83667
G1 X150.804 Y120.072 E49.84884
G1 X150.803 Y121.3 E49.88969
G1 X150.704 Y122.608 E49.93332
G1 X150.397 Y123.788 E49.97387
G1 X149.839 Y124.789 E50.01199
G1 X149.049 Y125.486 E50.04703
G1 X148.877 Y125.593 E50.05376
G1 X147.842 Y126.011 E50.09089
G1 X146.44 Y126.152 E50.13775
G1 X144.87 Y125.983 E50.19027
G1 F2700 E45.19027
G0 F6000 X143.717 Y125.293
G0 X142.953 Y124.531
G0 X141.723 Y122.062
G0 X139.641 Y119.76
G0 X132.503 Y112.647
G1 F2700 E50.19027
G1 F763.1 X132.508 Y110.312 E50.3124
G0 F6000 X132.224 Y112.955
G0 X129.164 Y113.296
G0 X128.821 Y125.561
G0 X124.69 Y125.561
G0 X124.318 Y122.649
G0 X124.79 Y125.637
G1 F1200 X124.59 Y125.423 E50.32214
G1 X124.516 Y125.218 E50.32939
G1 X124.516 Y123.579 E50.3839
G1 F1048 X124.459 Y122.496 E50.4252
G1 F900.6 X124.441 Y122.404 E50.42936
G1 F916 X124.468 Y121.124 E50.48514
G1 F967.7 X124.468 Y119.772 E50.5409
G1 F1071.4 X124.516 Y118.876 E50.57433
G1 F1200 X124.516 Y116.68 E50.64737
G1 F1064.3 X124.465 Y115.939 E50.67522
G1 F960 X124.468 Y114.428 E50.73804
G1 F909.1 X124.436 Y113.055 E50.79834
G1 F1000 X124.516 Y111.945 E50.84275
G1 F1200 X124.52 Y110.237 E50.89956
G1 X124.62 Y109.973 E50.90895
G1 X124.82 Y109.79 E50.91797
G1 X125.037 Y109.712 E50.92564
G1 X131.796 Y109.712 E51.15044
G1 X132.027 Y109.757 E51.15827
G1 X132.18 Y109.85 E51.16423
G1 F937.5 X132.508 Y110.312 E51.18835
G1 X132.836 Y109.85 E51.21247
G1 F1200 X133.148 Y109.712 E51.22382
G1 X139.916 Y109.712 E51.44892
G1 X140.159 Y109.763 E51.45718
G1 X140.346 Y109.893 E51.46475
G1 X140.461 Y110.059 E51.47147
G1 X140.517 Y110.312 E51.48009
G1 X140.517 Y112.608 E51.55645
G1 X140.475 Y112.747 E51.56128
G1 X140.303 Y112.999 E51.57143
G1 X139.964 Y113.123 E51.58344
G1 X137.096 Y113.124 E51.67883
G1 X137.096 Y116.352 E51.78619
G1 X139.076 Y116.352 E51.85205
G1 X139.296 Y116.393 E51.85949
G1 X139.432 Y116.469 E51.86467
G1 X139.605 Y116.666 E51.87339
G1 X139.676 Y116.952 E51.88319
G1 X139.676 Y119.297 E51.96119
G1 X139.63 Y119.452 E51.96656
G1 X139.51 Y119.635 E51.97384
G1 X139.327 Y119.766 E51.98133
G1 X139.151 Y119.82 E51.98745
G1 X137.096 Y119.82 E52.0558
G1 X137.096 Y122.3 E52.13829
G1 X139.988 Y122.304 E52.23447
G1 X140.195 Y122.389 E52.24192
