;FLAVOR:Marlin
;TIME:6657
;Filament used: 4.15818m
;Layer height: 0.2
;MINX:10.592
;MINY:10.59
;MINZ:0.2
;MAXX:224.408
;MAXY:224.408
;MAXZ:1.4
;TARGET_MACHINE.NAME:Creality Ender-3
;Generated with Cura_SteamEngine 5.8.1
M140 S50
M105
M190 S50
M104 S200
M105
M109 S200
M82 ;absolute extrusion mode
; Ender 3 Custom Start G-code
G92 E0 ; Reset Extruder
G28 ; Home all axes
G1 Z2.0 F3000 ; Move Z Axis up little to prevent scratching of Heat Bed
G1 X0.1 Y20 Z0.3 F5000.0 ; Move to start position
G1 X0.1 Y200.0 Z0.3 F1500.0 E15 ; Draw the first line
G1 X0.4 Y200.0 Z0.3 F5000.0 ; Move to side a little
G1 X0.4 Y20 Z0.3 F1500.0 E30 ; Draw the second line
G92 E0 ; Reset Extruder
G1 Z2.0 F3000 ; Move Z Axis up little to prevent scratching of Heat Bed
G1 X5 Y20 Z0.3 F5000.0 ; Move over to prevent blob squish
G92 E0
G92 E0
G1 F2700 E-5
;LAYER_COUNT:7
;LAYER:0
M107
G0 F6000 X177.386 Y14.17 Z0.2
;TYPE:SKIRT
G1 F2700 E0
G1 F1200 X177.88 Y13.69 E0.02291
G1 X178.623 Y13.034 E0.05588
G1 X179.407 Y12.455 E0.08829
G1 X180.238 Y11.949 E0.12065
G1 X181.111 Y11.517 E0.15305
G1 X181.952 Y11.188 E0.18308
G1 X182.955 Y10.896 E0.21783
G1 X183.911 Y10.708 E0.25023
G1 X184.878 Y10.607 E0.28257
G1 X185.781 Y10.59 E0.31261
G1 X186.825 Y10.663 E0.34742
G1 X187.785 Y10.82 E0.37977
G1 X188.73 Y11.06 E0.4122
G1 X189.615 Y11.37 E0.44339
G1 X190.535 Y11.788 E0.477
G1 X191.382 Y12.269 E0.5094
G1 X192.189 Y12.827 E0.54203
G1 X193.091 Y13.589 E0.5813
G1 X193.533 Y14.013 E0.60167
G1 X220.83 Y41.31 E1.88564
G1 X221.31 Y41.804 E1.90855
G1 X221.966 Y42.547 E1.94152
G1 X222.545 Y43.331 E1.97393
G1 X223.051 Y44.162 E2.00629
G1 X223.483 Y45.035 E2.03869
G1 X223.812 Y45.876 E2.06873
G1 X224.104 Y46.879 E2.10347
G1 X224.292 Y47.835 E2.13588
G1 X224.393 Y48.803 E2.16825
G1 X224.408 Y49.778 E2.20068
G1 X224.337 Y50.749 E2.23306
G1 X224.18 Y51.709 E2.26541
G1 X223.94 Y52.654 E2.29784
G1 X223.63 Y53.539 E2.32903
G1 X223.212 Y54.459 E2.36264
G1 X222.731 Y55.306 E2.39504
G1 X222.173 Y56.113 E2.42767
G1 X221.417 Y57.009 E2.46666
G1 X220.993 Y57.451 E2.48703
G1 X57.624 Y220.82 E10.17141
G1 X57.109 Y221.32 E10.19529
G1 X56.434 Y221.921 E10.22535
G1 X55.597 Y222.543 E10.26003
G1 X54.828 Y223.016 E10.29006
G1 X53.891 Y223.481 E10.32485
G1 X53.016 Y223.823 E10.3561
G1 X52.048 Y224.103 E10.38961
G1 X51.092 Y224.291 E10.42202
G1 X50.123 Y224.393 E10.45442
G1 X49.148 Y224.408 E10.48686
G1 X48.178 Y224.337 E10.5192
G1 X47.215 Y224.181 E10.55165
G1 X46.273 Y223.94 E10.58399
G1 X45.388 Y223.63 E10.61518
G1 X44.467 Y223.213 E10.64881
G1 X43.62 Y222.733 E10.68119
G1 X42.842 Y222.198 E10.71259
G1 X41.904 Y221.405 E10.75344
G1 X41.448 Y220.967 E10.77447
G1 X14.18 Y193.697 E12.05712
G1 X13.686 Y193.191 E12.08064
G1 X13.063 Y192.49 E12.11184
G1 X12.461 Y191.679 E12.14543
G1 X11.954 Y190.849 E12.17778
G1 X11.551 Y190.041 E12.20781
G1 X11.169 Y189.068 E12.24258
G1 X10.915 Y188.202 E12.27259
G1 X10.71 Y187.176 E12.30739
G1 X10.608 Y186.207 E12.3398
G1 X10.592 Y185.234 E12.37217
G1 X10.662 Y184.263 E12.40455
G1 X10.817 Y183.301 E12.43696
G1 X11.057 Y182.356 E12.46938
G1 X11.38 Y181.438 E12.50175
G1 X11.766 Y180.583 E12.53295
G1 X12.262 Y179.703 E12.56655
G1 X12.796 Y178.926 E12.59791
G1 X13.583 Y177.991 E12.63856
G1 X14.007 Y177.549 E12.65893
G1 X177.386 Y14.17 E20.34378
G0 F6000 X177.665 Y14.457
G1 F1200 X178.159 Y13.977 E20.36668
G1 X178.861 Y13.355 E20.39788
G1 X179.616 Y12.796 E20.42913
G1 X180.416 Y12.307 E20.46031
G1 X181.257 Y11.89 E20.49153
G1 X182.098 Y11.561 E20.52157
G1 X183.033 Y11.288 E20.55396
G1 X183.953 Y11.106 E20.58516
G1 X184.886 Y11.007 E20.61636
G1 X185.789 Y10.99 E20.6464
G1 X186.761 Y11.058 E20.67881
G1 X187.687 Y11.208 E20.71001
G1 X188.598 Y11.438 E20.74126
G1 X189.483 Y11.748 E20.77245
G1 X190.338 Y12.136 E20.80368
G1 X191.155 Y12.598 E20.8349
G1 X191.931 Y13.133 E20.86625
G1 X192.814 Y13.878 E20.90467
G1 X193.256 Y14.302 E20.92504
G1 X220.543 Y41.589 E22.20854
G1 X221.023 Y42.083 E22.23145
G1 X221.645 Y42.785 E22.26264
G1 X222.204 Y43.54 E22.29389
G1 X222.693 Y44.34 E22.32507
G1 X223.11 Y45.181 E22.3563
G1 X223.439 Y46.022 E22.38633
G1 X223.712 Y46.957 E22.41873
G1 X223.894 Y47.877 E22.44992
G1 X223.993 Y48.81 E22.48113
G1 X224.009 Y49.749 E22.51236
G1 X223.942 Y50.685 E22.54357
G1 X223.792 Y51.611 E22.57477
G1 X223.562 Y52.522 E22.60602
G1 X223.252 Y53.407 E22.63721
G1 X222.864 Y54.262 E22.66844
G1 X222.402 Y55.079 E22.69966
G1 X221.867 Y55.855 E22.73101
G1 X221.128 Y56.732 E22.76915
G1 X220.704 Y57.174 E22.78952
G1 X57.345 Y220.533 E30.47343
G1 X56.843 Y221.021 E30.49672
G1 X56.168 Y221.622 E30.52678
G1 X55.387 Y222.202 E30.55913
G1 X54.618 Y222.675 E30.58916
G1 X53.745 Y223.108 E30.62157
G1 X52.87 Y223.45 E30.65282
G1 X51.97 Y223.711 E30.68399
G1 X51.049 Y223.893 E30.71521
G1 X50.116 Y223.993 E30.74642
G1 X49.177 Y224.009 E30.77766
G1 X48.241 Y223.942 E30.80887
G1 X47.314 Y223.793 E30.84009
G1 X46.405 Y223.562 E30.87129
G1 X45.52 Y223.252 E30.90248
G1 X44.664 Y222.865 E30.93372
G1 X43.847 Y222.403 E30.96494
G1 X43.069 Y221.868 E30.99634
G1 X42.181 Y221.116 E31.03505
G1 X41.731 Y220.684 E31.05579
G1 X14.466 Y193.418 E32.33828
G1 X13.985 Y192.925 E32.36119
G1 X13.362 Y192.224 E32.39238
G1 X12.802 Y191.47 E32.42362
G1 X12.312 Y190.67 E32.45482
G1 X11.909 Y189.862 E32.48485
G1 X11.553 Y188.955 E32.51726
G1 X11.299 Y188.089 E32.54728
G1 X11.108 Y187.133 E32.5797
G1 X11.008 Y186.2 E32.61091
G1 X10.991 Y185.262 E32.64212
G1 X11.057 Y184.326 E32.67332
G1 X11.205 Y183.399 E32.70455
G1 X11.435 Y182.488 E32.7358
G1 X11.745 Y181.603 E32.76699
G1 X12.131 Y180.748 E32.79819
G1 X12.592 Y179.93 E32.82942
G1 X13.126 Y179.153 E32.86077
G1 X13.872 Y178.268 E32.89927
G1 X14.296 Y177.826 E32.91964
G1 X177.665 Y14.457 E40.60402
G0 F6000 X177.944 Y14.744
G1 F1200 X178.425 Y14.276 E40.62634
G1 X179.1 Y13.676 E40.65638
G1 X179.825 Y13.137 E40.68643
G1 X180.594 Y12.665 E40.71644
G1 X181.403 Y12.263 E40.74648
G1 X182.244 Y11.934 E40.77652
G1 X183.111 Y11.68 E40.80657
G1 X183.996 Y11.504 E40.83658
G1 X184.894 Y11.407 E40.86662
G1 X185.797 Y11.39 E40.89666
G1 X186.698 Y11.453 E40.9267
G1 X187.59 Y11.596 E40.95675
G1 X188.466 Y11.816 E40.98679
G1 X189.318 Y12.113 E41.0168
G1 X190.142 Y12.485 E41.04687
G1 X190.929 Y12.928 E41.07691
G1 X191.673 Y13.439 E41.10693
G1 X192.537 Y14.167 E41.1445
G1 X192.979 Y14.591 E41.16488
G1 X220.256 Y41.868 E42.4479
G1 X220.724 Y42.349 E42.47022
G1 X221.324 Y43.024 E42.50026
G1 X221.863 Y43.749 E42.53031
G1 X222.335 Y44.518 E42.56032
G1 X222.737 Y45.327 E42.59037
G1 X223.066 Y46.168 E42.6204
G1 X223.32 Y47.035 E42.65045
G1 X223.496 Y47.92 E42.68046
G1 X223.593 Y48.818 E42.7105
G1 X223.61 Y49.721 E42.74054
G1 X223.547 Y50.622 E42.77058
G1 X223.404 Y51.514 E42.80063
G1 X223.184 Y52.39 E42.83067
G1 X222.887 Y53.242 E42.86068
G1 X222.515 Y54.066 E42.89075
G1 X222.072 Y54.853 E42.92079
G1 X221.561 Y55.597 E42.95081
G1 X220.839 Y56.455 E42.9881
G1 X220.415 Y56.897 E43.00848
G1 X57.066 Y220.246 E50.69191
G1 X56.577 Y220.722 E50.71461
G1 X55.902 Y221.323 E50.74467
G1 X55.177 Y221.861 E50.7747
G1 X54.408 Y222.334 E50.80473
G1 X53.599 Y222.736 E50.83477
G1 X52.758 Y223.066 E50.86482
G1 X51.892 Y223.319 E50.89483
G1 X51.006 Y223.495 E50.92487
G1 X50.108 Y223.593 E50.95492
G1 X49.205 Y223.61 E50.98496
G1 X48.304 Y223.547 E51.015
G1 X47.412 Y223.405 E51.04504
G1 X46.537 Y223.184 E51.07505
G1 X45.684 Y222.887 E51.1051
G1 X44.86 Y222.516 E51.13515
G1 X44.073 Y222.073 E51.16519
G1 X43.328 Y221.563 E51.19522
G1 X42.44 Y220.811 E51.23392
G1 X42.014 Y220.401 E51.25359
G1 X14.752 Y193.139 E52.53591
G1 X14.284 Y192.659 E52.5582
G1 X13.683 Y191.985 E52.58824
G1 X13.143 Y191.26 E52.61831
G1 X12.67 Y190.491 E52.64833
G1 X12.267 Y189.683 E52.67837
G1 X11.937 Y188.842 E52.70841
G1 X11.683 Y187.976 E52.73843
G1 X11.506 Y187.09 E52.76848
G1 X11.408 Y186.192 E52.79853
G1 X11.39 Y185.289 E52.82857
G1 X11.452 Y184.388 E52.8586
G1 X11.593 Y183.496 E52.88864
G1 X11.813 Y182.62 E52.91868
G1 X12.11 Y181.767 E52.94872
G1 X12.48 Y180.944 E52.97874
G1 X12.922 Y180.156 E53.00879
G1 X13.432 Y179.411 E53.03881
G1 X14.161 Y178.545 E53.07646
G1 X14.585 Y178.103 E53.09684
G1 X177.944 Y14.744 E60.78074
G1 F2700 E55.78074
;MESH:obstacle_circuit_logo.02.stl
G0 F6000 X184.482 Y36.449
G0 X194.314 Y56.412
;TYPE:WALL-INNER
G1 F2700 E60.78074
G1 F1200 X194.03 Y56.281 E60.79114
G1 X192.5 Y54.757 E60.86297
G1 X192.33 Y54.418 E60.87558
G1 X192.369 Y54.103 E60.88614
G1 X192.499 Y53.907 E60.89396
G1 X194.507 Y51.9 E60.98839
G1 X181.965 Y39.359 E61.5783
G1 X181.877 Y39.068 E61.58842
G1 X181.895 Y38.868 E61.59509
G1 X182 Y38.647 E61.60323
G1 X184.121 Y36.53 E61.7029
G1 X184.352 Y36.425 E61.71134
G1 X184.648 Y36.435 E61.72119
G1 X184.847 Y36.536 E61.72862
G1 X197.36 Y49.047 E62.31714
G1 X199.295 Y47.111 E62.40818
G1 X199.518 Y46.97 E62.41696
G1 X199.681 Y46.937 E62.42249
G1 X199.872 Y46.955 E62.42887
G1 X200.095 Y47.061 E62.43708
G1 X201.637 Y48.603 E62.50961
G1 X201.761 Y48.784 E62.51691
G1 X201.811 Y48.984 E62.52377
G1 X201.794 Y49.178 E62.53024
G1 X201.693 Y49.397 E62.53827
G1 X194.77 Y56.316 E62.86381
G1 X194.518 Y56.412 E62.87278
G1 X194.314 Y56.412 E62.87956
G1 F2700 E57.87956
G0 F6000 X194.307 Y56.418
G0 X193.913 Y56.418
G0 X193.54 Y56.791
G0 X190.95 Y59.864
G1 F2700 E62.87956
G1 F1200 X190.767 Y59.827 E62.88577
G1 X190.589 Y59.723 E62.89263
G1 X176.094 Y45.232 E63.57434
G1 X176.004 Y44.923 E63.58504
G1 X176.07 Y44.617 E63.59545
G1 X176.179 Y44.467 E63.60162
G1 X178.204 Y42.442 E63.69687
G1 X178.42 Y42.343 E63.70477
G1 X178.62 Y42.325 E63.71145
G1 X178.911 Y42.413 E63.72156
G1 X193.403 Y56.909 E64.40331
G1 X193.536 Y57.192 E64.41372
G1 X193.536 Y57.396 E64.4205
G1 X193.487 Y57.554 E64.426
G1 X193.369 Y57.721 E64.4328
G1 X191.401 Y59.689 E64.52537
G1 X191.231 Y59.808 E64.53227
G1 X190.95 Y59.864 E64.5418
G1 F2700 E59.5418
G0 F6000 X190.976 Y59.931
G0 X190.472 Y59.861
G0 X189.354 Y60.977
G0 X180.878 Y69.683
G1 F2700 E64.5418
G1 F1200 X180.74 Y69.603 E64.54711
G1 X171.163 Y60.033 E64.99742
G1 X169.745 Y58.453 E65.06803
G1 X168.7 Y56.936 E65.1293
G1 X168.083 Y55.336 E65.18633
G1 X168.033 Y53.697 E65.24087
G1 X168.653 Y52.004 E65.30084
G1 X169.987 Y50.339 E65.3718
G1 X171.641 Y49.014 E65.44229
G1 X173.301 Y48.409 E65.50105
G1 X174.875 Y48.452 E65.55342
G1 X175.075 Y48.493 E65.56021
G1 X176.562 Y49.073 E65.6133
G1 X178.081 Y50.124 E65.67473
G1 X179.637 Y51.512 E65.74409
G1 X189.216 Y61.094 E66.19472
G1 X189.32 Y61.272 E66.20158
G1 X189.356 Y61.456 E66.20782
G1 X189.3 Y61.736 E66.21731
G1 X189.181 Y61.905 E66.22419
G1 X187.217 Y63.869 E66.31657
G1 X186.974 Y63.969 E66.32531
G1 X186.666 Y63.95 E66.33557
G1 X186.47 Y63.84 E66.34305
G1 X176.823 Y54.196 E66.79674
G1 X175.083 Y52.696 E66.87315
G1 X174.338 Y52.284 E66.90147
G1 X173.691 Y52.143 E66.92349
G1 X173.097 Y52.272 E66.94371
G1 X172.418 Y52.773 E66.97177
G1 X171.926 Y53.443 E66.99942
G1 X171.787 Y54.048 E67.02007
G1 X171.928 Y54.694 E67.04206
G1 X172.34 Y55.439 E67.07037
G1 X173.84 Y57.179 E67.14678
G1 X183.484 Y66.826 E67.60048
G1 X183.594 Y67.022 E67.60795
G1 X183.624 Y67.211 E67.61432
G1 X183.58 Y67.439 E67.62204
G1 X183.501 Y67.585 E67.62756
G1 X181.487 Y69.599 E67.72229
G1 X181.213 Y69.719 E67.73224
G1 X180.878 Y69.683 E67.74345
G1 F2700 E62.74345
G0 F6000 X179.583 Y68.699
G0 X177.915 Y69.174
G0 X171.222 Y77.007
G1 F2700 E67.74345
G1 F1200 X169.733 Y76.487 E67.79591
G1 X168.256 Y75.509 E67.85483
G1 X166.715 Y74.141 E67.92336
G1 X161.643 Y69.073 E68.16184
G1 X160.414 Y67.679 E68.22365
G1 X159.435 Y66.181 E68.28317
G1 X158.872 Y64.598 E68.33905
G1 X158.825 Y62.925 E68.39472
G1 X159.435 Y61.235 E68.45448
G1 X160.739 Y59.583 E68.52448
G1 X162.244 Y58.371 E68.58875
G1 X163.797 Y57.762 E68.64423
G1 X165.367 Y57.771 E68.69645
G1 X166.838 Y58.275 E68.74817
G1 X168.266 Y59.186 E68.80451
G1 X169.653 Y60.407 E68.86597
G1 X170.768 Y61.522 E68.91841
G1 X170.879 Y61.801 E68.9284
G1 X170.84 Y62.116 E68.93896
G1 X170.709 Y62.312 E68.9468
G1 X168.774 Y64.248 E69.03784
G1 X168.515 Y64.375 E69.04743
G1 X168.334 Y64.386 E69.05346
G1 X168.012 Y64.262 E69.06494
G1 X166.904 Y63.153 E69.11708
G1 X165.392 Y61.811 E69.18432
G1 X164.805 Y61.477 E69.20678
G1 X164.308 Y61.373 E69.22367
G1 X163.822 Y61.507 E69.24044
G1 X163.187 Y62 E69.26718
G1 X162.73 Y62.566 E69.29137
G1 X162.529 Y63.054 E69.30893
G1 X162.532 Y63.525 E69.32459
G1 X162.766 Y64.123 E69.34595
G1 X163.318 Y64.916 E69.37809
G1 X164.202 Y65.885 E69.42171
G1 X169.89 Y71.573 E69.68926
G1 X171.453 Y72.935 E69.75821
G1 X172.094 Y73.265 E69.78219
G1 X172.622 Y73.343 E69.79994
G1 X173.174 Y73.183 E69.81906
G1 X173.846 Y72.658 E69.84742
G1 X174.367 Y72.003 E69.87526
G1 X174.515 Y71.52 E69.89206
G1 X174.433 Y71.082 E69.90688
G1 X174.108 Y70.53 E69.92819
G1 X172.854 Y69.103 E69.99137
G1 X171.847 Y68.097 E70.03871
G1 X171.725 Y67.921 E70.04584
G1 X171.674 Y67.726 E70.05254
G1 X171.685 Y67.545 E70.05857
G1 X171.812 Y67.286 E70.06816
G1 X173.748 Y65.351 E70.1592
G1 X173.944 Y65.22 E70.16705
G1 X174.258 Y65.181 E70.17757
G1 X174.539 Y65.293 E70.18763
G1 X175.725 Y66.479 E70.24342
G1 X176.911 Y67.853 E70.30379
G1 X177.73 Y69.252 E70.3577
G1 X178.133 Y70.669 E70.4067
G1 X178.044 Y72.186 E70.45725
G1 X177.419 Y73.645 E70.51004
G1 X176.249 Y75.089 E70.57185
G1 X174.615 Y76.399 E70.64151
G1 X172.941 Y77.038 E70.7011
G1 X171.42 Y77.04 E70.75169
G1 X171.222 Y77.007 E70.75837
G1 F2700 E65.75837
G0 F6000 X171.185 Y77.101
G0 X169.65 Y76.65
G0 X168.023 Y77.413
G0 X162.848 Y87.951
G1 F2700 E70.75837
G1 F1200 X162.669 Y87.911 E70.76447
G1 X162.502 Y87.812 E70.77093
G1 X148.091 Y73.405 E71.44868
G1 X147.946 Y73.169 E71.45789
G1 X147.916 Y72.978 E71.46432
G1 X147.979 Y72.71 E71.47348
G1 X148.091 Y72.555 E71.47984
G1 X150.149 Y70.497 E71.57664
G1 X150.484 Y70.376 E71.58849
G1 X150.683 Y70.398 E71.59515
G1 X150.945 Y70.551 E71.60524
G1 X157.263 Y76.866 E71.90235
G1 X158.074 Y76.054 E71.94052
G1 X153.391 Y67.738 E72.25795
G1 X153.364 Y67.496 E72.26605
G1 X153.487 Y67.16 E72.27795
G1 X155.525 Y65.118 E72.37391
G1 X155.677 Y65.037 E72.37963
G1 X155.875 Y64.996 E72.38636
G1 X156.096 Y65.03 E72.3938
G1 X156.255 Y65.115 E72.39979
G1 X156.399 Y65.269 E72.40681
G1 X161.337 Y74.108 E72.74356
G1 X161.787 Y73.946 E72.75947
G1 X162.813 Y73.884 E72.79365
G1 X163.819 Y74.108 E72.82793
G1 X164.799 Y74.556 E72.86377
G1 X166.616 Y75.995 E72.94086
G1 X167.818 Y77.447 E73.00356
G1 X168.508 Y78.916 E73.05754
G1 X168.703 Y80.418 E73.10791
G1 X168.32 Y81.937 E73.16002
G1 X167.484 Y83.397 E73.21597
G1 X166.231 Y84.853 E73.27986
G1 X163.261 Y87.829 E73.4197
G1 X163.134 Y87.9 E73.42454
G1 X162.848 Y87.951 E73.43421
G1 F2700 E68.43421
G0 F6000 X163.442 Y87.791
G0 X162.993 Y87.927
G0 X162.385 Y87.95
G0 X161.175 Y89.159
G0 X158.503 Y92.238
G1 F2700 E73.43421
G1 F1200 X158.221 Y92.123 E73.44434
G1 X143.778 Y77.679 E74.12371
G1 X143.636 Y77.412 E74.13377
G1 X143.621 Y77.223 E74.14008
G1 X143.738 Y76.913 E74.1511
G1 X145.768 Y74.879 E74.24668
G1 X145.922 Y74.767 E74.25301
G1 X146.19 Y74.704 E74.26217
G1 X146.381 Y74.734 E74.2686
G1 X146.617 Y74.879 E74.27781
G1 X161.024 Y89.29 E74.95557
G1 X161.123 Y89.457 E74.96202
G1 X161.163 Y89.636 E74.96812
G1 X161.112 Y89.922 E74.97779
G1 X161.04 Y90.049 E74.98264
G1 X158.966 Y92.119 E75.0801
G1 X158.683 Y92.238 E75.09031
G1 X158.503 Y92.238 E75.0963
G1 F2700 E70.0963
G0 F6000 X158.103 Y92.147
G0 X157.093 Y91.248
G0 X155.146 Y91.918
G0 X148.558 Y99.781
G1 F2700 E75.0963
G1 F1200 X146.988 Y99.231 E75.15163
G1 X145.441 Y98.201 E75.21344
G1 X143.967 Y96.889 E75.27908
G1 X138.899 Y91.821 E75.51746
G1 X137.686 Y90.45 E75.57835
G1 X136.689 Y88.932 E75.63875
G1 X136.155 Y87.434 E75.69165
G1 X136.12 Y87.249 E75.69791
G1 X136.081 Y85.659 E75.75081
G1 X136.687 Y83.978 E75.81024
G1 X137.995 Y82.331 E75.88019
G1 X139.509 Y81.107 E75.94495
G1 X141.048 Y80.508 E75.99987
G1 X142.616 Y80.516 E76.05203
G1 X144.092 Y81.019 E76.10389
G1 X145.501 Y81.924 E76.15959
G1 X146.909 Y83.155 E76.22179
G1 X147.965 Y84.211 E76.27146
G1 X148.132 Y84.536 E76.28362
G1 X148.103 Y84.844 E76.29391
G1 X147.981 Y85.044 E76.3017
G1 X146.027 Y86.996 E76.39356
G1 X145.768 Y87.123 E76.40316
G1 X145.587 Y87.134 E76.40919
G1 X145.265 Y87.011 E76.42065
