;FLAVOR:Marlin
;TIME:1722
;Filament used: 0.958249m
;Layer height: 0.2
;MINX:55.478
;MINY:94.16
;MINZ:0.2
;MAXX:181.205
;MAXY:140.84
;MAXZ:6.2
;Generated with Cura_SteamEngine 4.13.0
M140 S60
M105
M190 S60
M104 S200
M105
M109 S200
M82 ;absolute extrusion mode
; Ender 3 Custom Start G-code
G92 E0 ; Reset Extruder
G28 ; Home all axes
G1 Z2.0 F3000 ; Move Z Axis up little to prevent scratching of Heat Bed
G1 X0.1 Y20 Z0.3 F5000.0 ; Move to start position
G1 X0.1 Y200.0 Z0.3 F1500.0 E15 ; Draw the first line
G1 X0.4 Y200.0 Z0.3 F5000.0 ; Move to side a little
G1 X0.4 Y20 Z0.3 F1500.0 E30 ; Draw the second line
G92 E0 ; Reset Extruder
G1 Z2.0 F3000 ; Move Z Axis up little to prevent scratching of Heat Bed
G1 X5 Y20 Z0.3 F5000.0 ; Move over to prevent blob squish
G92 E0
G92 E0
G1 F1500 E-6.5
;LAYER_COUNT:31
;LAYER:0
M107
G0 F6000 X61.056 Y100.202 Z0.2
;TYPE:SKIRT
G1 F1500 E0
G1 F1200 X61.671 Y99.869 E0.02326
G1 X61.855 Y99.777 E0.0301
G1 X62.711 Y99.394 E0.06129
G1 X63.782 Y99.031 E0.09891
G1 X64.019 Y98.964 E0.1071
G1 X64.931 Y98.747 E0.13828
G1 X65.859 Y98.61 E0.16948
G1 X66.41 Y98.565 E0.18786
G1 X66.684 Y98.55 E0.19699
G1 X67.622 Y98.539 E0.22819
G1 X68.991 Y98.667 E0.27392
G1 X69.163 Y98.694 E0.27971
G1 X70.082 Y98.879 E0.31089
G1 X70.547 Y99.004 E0.32691
G1 X70.752 Y99.064 E0.33401
G1 X71.015 Y99.145 E0.34317
G1 X71.595 Y99.331 E0.36342
G1 X72.878 Y99.762 E0.40844
G1 X75.258 Y100.489 E0.49121
G1 X77.682 Y101.154 E0.57481
G1 X80.176 Y101.763 E0.6602
G1 X82.589 Y102.281 E0.74229
G1 X85.056 Y102.738 E0.82573
G1 X87.576 Y103.131 E0.91056
G1 X90.059 Y103.447 E0.99381
G1 X92.566 Y103.693 E1.0776
G1 X95.078 Y103.869 E1.16135
G1 X97.575 Y103.973 E1.24447
G1 X100.099 Y104.007 E1.32843
G1 X102.623 Y103.969 E1.41239
G1 X105.129 Y103.861 E1.49582
G1 X107.646 Y103.68 E1.57975
G1 X110.154 Y103.429 E1.66358
G1 X112.659 Y103.106 E1.74759
G1 X115.148 Y102.714 E1.83139
G1 X117.608 Y102.255 E1.91462
G1 X120.036 Y101.73 E1.99725
G1 X122.512 Y101.121 E2.08205
G1 X124.954 Y100.446 E2.16632
G1 X127.339 Y99.716 E2.24928
G1 X129.749 Y98.9 E2.3339
G1 X132.081 Y98.038 E2.4166
G1 X134.442 Y97.087 E2.50125
G1 X136.706 Y96.101 E2.58339
G1 X137.307 Y95.817 E2.6055
G1 X137.444 Y95.759 E2.61044
G1 X138.72 Y95.172 E2.65716
G1 X139.587 Y94.817 E2.68832
G1 X140.482 Y94.537 E2.71951
G1 X141.398 Y94.334 E2.75072
G1 X142.328 Y94.21 E2.78192
G1 X143.239 Y94.165 E2.81226
G1 X143.939 Y94.16 E2.83554
G1 X144.463 Y94.165 E2.85297
G1 X145.442 Y94.191 E2.88554
G1 X147.051 Y94.245 E2.93909
G1 X147.871 Y94.282 E2.96639
G1 X148.557 Y94.325 E2.98925
G1 X150.69 Y94.486 E3.0604
G1 X151.434 Y94.555 E3.08525
G1 X151.714 Y94.585 E3.09461
G1 X152.388 Y94.661 E3.11717
G1 X153.927 Y94.855 E3.16877
G1 X154.475 Y94.932 E3.18717
G1 X155.539 Y95.096 E3.22298
G1 X156.552 Y95.268 E3.25715
G1 X156.896 Y95.332 E3.26879
G1 X158.317 Y95.62 E3.31701
G1 X158.554 Y95.671 E3.32508
G1 X159.294 Y95.838 E3.35031
G1 X160.2 Y96.056 E3.3813
G1 X160.97 Y96.258 E3.40778
G1 X161.279 Y96.344 E3.41845
G1 X162.566 Y96.722 E3.46306
G1 X162.931 Y96.836 E3.47578
G1 X163.844 Y97.139 E3.50777
G1 X164.21 Y97.268 E3.52068
G1 X165.327 Y97.683 E3.56032
G1 X165.688 Y97.824 E3.57321
G1 X166.44 Y98.134 E3.60026
G1 X166.692 Y98.242 E3.60938
G1 X167.129 Y98.435 E3.62527
G1 X167.428 Y98.572 E3.63621
G1 X167.972 Y98.832 E3.65626
G1 X168.292 Y98.992 E3.66816
G1 X169.046 Y99.383 E3.69641
G1 X169.361 Y99.552 E3.7083
G1 X169.595 Y99.681 E3.71719
G1 X169.896 Y99.852 E3.7287
G1 X170.177 Y100.017 E3.73954
G1 X170.897 Y100.456 E3.76759
G1 X171.262 Y100.689 E3.78199
G1 X171.71 Y100.985 E3.79985
G1 X171.957 Y101.153 E3.80978
G1 X172.174 Y101.305 E3.81859
G1 X172.645 Y101.655 E3.83811
G1 X173.655 Y102.446 E3.88078
G1 X173.936 Y102.673 E3.8928
G1 X174.216 Y102.913 E3.90506
G1 X174.465 Y103.134 E3.91613
G1 X174.679 Y103.329 E3.92576
G1 X174.866 Y103.504 E3.93428
G1 X175.291 Y103.916 E3.95397
G1 X175.632 Y104.262 E3.97013
G1 X176 Y104.659 E3.98813
G1 X176.603 Y105.344 E4.01848
G1 X177.041 Y105.874 E4.04135
G1 X177.293 Y106.201 E4.05508
G1 X177.487 Y106.459 E4.06582
G1 X177.716 Y106.776 E4.07883
G1 X177.926 Y107.077 E4.09103
G1 X178.176 Y107.45 E4.10597
G1 X178.328 Y107.688 E4.11536
G1 X178.494 Y107.958 E4.1259
G1 X178.717 Y108.335 E4.14047
G1 X178.923 Y108.706 E4.15459
G1 X179.146 Y109.125 E4.17037
G1 X179.377 Y109.584 E4.18746
G1 X179.521 Y109.888 E4.19865
G1 X179.876 Y110.724 E4.22886
G1 X180.198 Y111.58 E4.25928
G1 X180.464 Y112.379 E4.28729
G1 X180.558 Y112.702 E4.29848
G1 X180.684 Y113.172 E4.31466
G1 X180.82 Y113.796 E4.3359
G1 X180.942 Y114.441 E4.35773
G1 X181.055 Y115.165 E4.38211
G1 X181.088 Y115.438 E4.39125
G1 X181.132 Y115.884 E4.40616
G1 X181.161 Y116.248 E4.4183
G1 X181.188 Y116.702 E4.43343
G1 X181.205 Y117.147 E4.44824
G1 X181.205 Y117.985 E4.47611
G1 X181.194 Y118.274 E4.48573
G1 X181.155 Y118.875 E4.50576
G1 X181.111 Y119.348 E4.52156
G1 X181.078 Y119.656 E4.53187
G1 X181.056 Y119.837 E4.53793
G1 X180.959 Y120.476 E4.55943
G1 X180.866 Y120.988 E4.57674
G1 X180.766 Y121.477 E4.59334
G1 X180.717 Y121.691 E4.60064
G1 X180.601 Y122.15 E4.61639
G1 X180.576 Y122.241 E4.61952
G1 X180.407 Y122.797 E4.63885
G1 X180.17 Y123.51 E4.66384
G1 X179.955 Y124.101 E4.68476
G1 X179.87 Y124.315 E4.69242
G1 X179.737 Y124.635 E4.70394
G1 X179.671 Y124.787 E4.70946
G1 X179.52 Y125.12 E4.72162
G1 X179.4 Y125.373 E4.73093
G1 X179.249 Y125.678 E4.74225
G1 X179.029 Y126.107 E4.75829
G1 X178.569 Y126.918 E4.7893
G1 X178.404 Y127.181 E4.79962
G1 X178.143 Y127.59 E4.81576
G1 X177.937 Y127.902 E4.82819
G1 X177.768 Y128.148 E4.83812
G1 X177.54 Y128.467 E4.85116
G1 X177.337 Y128.741 E4.8625
G1 X177.088 Y129.065 E4.8761
G1 X176.817 Y129.402 E4.89048
G1 X176.635 Y129.624 E4.90003
G1 X176.06 Y130.271 E4.92882
G1 X175.375 Y130.984 E4.9617
G1 X175.118 Y131.243 E4.97384
G1 X174.925 Y131.431 E4.9828
G1 X174.659 Y131.681 E4.99494
G1 X174.535 Y131.794 E5.00052
G1 X174.282 Y132.018 E5.01176
G1 X173.71 Y132.508 E5.03681
G1 X173.486 Y132.695 E5.04651
G1 X173.226 Y132.906 E5.05765
G1 X172.91 Y133.153 E5.07099
G1 X172.651 Y133.348 E5.08177
G1 X172.293 Y133.607 E5.09647
G1 X171.894 Y133.883 E5.11261
G1 X171.685 Y134.024 E5.12099
G1 X171.164 Y134.367 E5.14174
G1 X170.798 Y134.597 E5.15612
G1 X170.029 Y135.061 E5.18599
G1 X169.664 Y135.272 E5.20001
G1 X168.831 Y135.732 E5.23166
G1 X168.224 Y136.043 E5.25435
G1 X167.133 Y136.56 E5.2945
G1 X166.684 Y136.761 E5.31086
G1 X166.094 Y137.009 E5.33215
G1 X165.747 Y137.148 E5.34458
G1 X165.017 Y137.426 E5.37056
G1 X164.424 Y137.656 E5.39172
G1 X163.919 Y137.838 E5.40957
G1 X162.975 Y138.152 E5.44266
G1 X162.591 Y138.274 E5.45606
G1 X162.377 Y138.339 E5.4635
G1 X161.479 Y138.601 E5.49461
G1 X161.208 Y138.676 E5.50397
G1 X160.801 Y138.786 E5.51799
G1 X160.412 Y138.887 E5.53136
G1 X160.08 Y138.967 E5.54271
G1 X159.697 Y139.063 E5.55585
G1 X159.309 Y139.153 E5.56909
G1 X159.18 Y139.18 E5.57348
G1 X158.228 Y139.394 E5.60593
G1 X157.911 Y139.46 E5.6167
G1 X156.429 Y139.747 E5.66691
G1 X156.17 Y139.794 E5.67566
G1 X155.068 Y139.98 E5.71283
G1 X154.538 Y140.062 E5.73067
G1 X153.662 Y140.186 E5.7601
G1 X153.383 Y140.222 E5.76945
G1 X152.624 Y140.306 E5.79485
G1 X152.104 Y140.37 E5.81228
G1 X151.851 Y140.399 E5.82075
G1 X150.887 Y140.494 E5.85297
G1 X150.306 Y140.547 E5.87237
G1 X149.466 Y140.616 E5.9004
G1 X149.195 Y140.635 E5.90944
G1 X148.45 Y140.678 E5.93426
G1 X147.881 Y140.717 E5.95323
G1 X147.012 Y140.763 E5.98217
G1 X146.626 Y140.778 E5.99502
G1 X146.294 Y140.786 E6.00607
G1 X145.141 Y140.822 E6.04443
G1 X143.981 Y140.839 E6.08302
G1 X143.768 Y140.84 E6.0901
G1 X143.258 Y140.837 E6.10707
G1 X142.322 Y140.791 E6.13824
G1 X141.392 Y140.666 E6.16945
G1 X140.477 Y140.462 E6.20063
G1 X139.582 Y140.181 E6.23183
G1 X138.739 Y139.836 E6.26212
G1 X137.49 Y139.263 E6.30783
G1 X137.092 Y139.074 E6.32248
G1 X134.78 Y138.054 E6.40653
G1 X132.427 Y137.092 E6.49108
G1 X130.133 Y136.235 E6.57253
G1 X127.729 Y135.41 E6.65706
G1 X125.31 Y134.655 E6.74135
G1 X122.928 Y133.986 E6.82364
G1 X120.452 Y133.365 E6.90854
G1 X117.955 Y132.812 E6.9936
G1 X115.543 Y132.352 E7.07527
G1 X113.036 Y131.946 E7.15974
G1 X110.546 Y131.613 E7.2433
G1 X108.057 Y131.353 E7.32653
G1 X105.523 Y131.16 E7.41106
G1 X103.04 Y131.041 E7.49374
G1 X100.517 Y130.992 E7.57767
G1 X97.958 Y131.015 E7.66279
G1 X95.474 Y131.107 E7.74546
G1 X92.988 Y131.27 E7.82832
G1 X90.436 Y131.51 E7.91358
G1 X87.97 Y131.813 E7.99621
G1 X85.453 Y132.194 E8.08088
G1 X82.986 Y132.639 E8.16426
G1 X80.521 Y133.156 E8.24803
G1 X78.103 Y133.734 E8.33072
G1 X75.667 Y134.392 E8.41464
G1 X73.238 Y135.121 E8.49899
G1 X71.616 Y135.661 E8.55585
G1 X71.05 Y135.844 E8.57564
G1 X70.195 Y136.082 E8.60515
G1 X69.831 Y136.168 E8.61759
G1 X68.91 Y136.345 E8.64879
G1 X67.977 Y136.442 E8.67999
G1 X67.04 Y136.46 E8.71116
G1 X66.562 Y136.438 E8.72707
G1 X66.206 Y136.414 E8.73894
G1 X65.274 Y136.311 E8.77013
G1 X64.354 Y136.129 E8.80132
G1 X63.38 Y135.845 E8.83506
G1 X63.167 Y135.772 E8.84255
G1 X62.293 Y135.43 E8.87377
G1 X61.452 Y135.015 E8.90496
G1 X60.464 Y134.404 E8.9436
G1 X60.291 Y134.284 E8.9506
G1 X59.543 Y133.718 E8.9818
G1 X58.847 Y133.089 E9.013
G1 X58.207 Y132.404 E9.04418
G1 X57.628 Y131.666 E9.07538
G1 X57.113 Y130.882 E9.10658
G1 X56.634 Y129.987 E9.14034
G1 X56.57 Y129.853 E9.14528
G1 X56.202 Y128.99 E9.17648
G1 X55.909 Y128.099 E9.20768
G1 X55.693 Y127.186 E9.23888
G1 X55.556 Y126.259 E9.27005
G1 X55.498 Y125.309 E9.30171
G1 X55.478 Y124.109 E9.34163
G1 X55.479 Y110.434 E9.79646
G1 X55.489 Y109.758 E9.81894
G1 X55.543 Y108.822 E9.85013
G1 X55.676 Y107.894 E9.88131
G1 X55.888 Y106.98 E9.91252
G1 X56.177 Y106.088 E9.9437
G1 X56.567 Y105.17 E9.97688
G1 X56.669 Y104.957 E9.98473
G1 X57.11 Y104.129 E10.01593
G1 X57.619 Y103.342 E10.04711
G1 X58.194 Y102.601 E10.0783
G1 X58.83 Y101.912 E10.10949
G1 X59.522 Y101.279 E10.14068
G1 X60.266 Y100.707 E10.17189
G1 X61.056 Y100.202 E10.20308
G0 F6000 X61.36 Y100.488
G1 F1200 X61.85 Y100.227 E10.22154
G1 X62.034 Y100.135 E10.22839
G1 X62.874 Y99.759 E10.259
G1 X63.89 Y99.416 E10.29466
G1 X64.127 Y99.349 E10.30285
G1 X65.023 Y99.137 E10.33348
G1 X65.934 Y99.004 E10.3641
G1 X66.432 Y98.965 E10.38071
G1 X66.706 Y98.95 E10.38984
G1 X67.626 Y98.939 E10.42044
G1 X68.929 Y99.062 E10.46397
G1 X69.101 Y99.089 E10.46976
G1 X70.435 Y99.388 E10.51523
G1 X70.64 Y99.448 E10.52234
G1 X70.893 Y99.526 E10.53114
G1 X71.468 Y99.711 E10.55123
G1 X72.716 Y100.131 E10.59503
G1 X75.172 Y100.881 E10.68044
G1 X77.586 Y101.543 E10.76369
G1 X80.069 Y102.149 E10.8487
G1 X82.503 Y102.671 E10.9315
G1 X85.022 Y103.138 E11.01671
G1 X87.501 Y103.524 E11.10016
G1 X90.007 Y103.843 E11.18418
G1 X92.535 Y104.092 E11.26867
G1 X95.034 Y104.266 E11.35198
G1 X97.588 Y104.373 E11.43701
G1 X100.099 Y104.407 E11.52053
G1 X102.645 Y104.369 E11.60522
G1 X105.142 Y104.261 E11.68835
G1 X107.675 Y104.079 E11.77281
G1 X110.212 Y103.826 E11.85761
G1 X112.701 Y103.505 E11.94108
G1 X115.212 Y103.109 E12.02563
G1 X117.701 Y102.644 E12.10985
G1 X120.136 Y102.118 E12.1927
G1 X122.618 Y101.507 E12.27772
G1 X125.03 Y100.841 E12.36095
G1 X127.478 Y100.091 E12.4461
G1 X129.88 Y99.278 E12.53044
G1 X132.221 Y98.412 E12.61346
G1 X134.572 Y97.466 E12.69775
G1 X136.883 Y96.459 E12.7816
G1 X137.478 Y96.178 E12.80348
G1 X137.639 Y96.11 E12.80929
G1 X138.887 Y95.536 E12.85498
G1 X139.739 Y95.187 E12.88561
G1 X140.618 Y94.915 E12.91621
G1 X141.518 Y94.719 E12.94684
G1 X142.431 Y94.602 E12.97746
G1 X143.242 Y94.565 E13.00446
G1 X143.942 Y94.56 E13.02774
G1 X144.457 Y94.565 E13.04487
G1 X145.47 Y94.592 E13.07858
G1 X146.792 Y94.634 E13.12257
G1 X147.847 Y94.681 E13.15769
G1 X148.527 Y94.724 E13.18036
G1 X150.653 Y94.884 E13.25127
G1 X151.397 Y94.953 E13.27612
G1 X151.667 Y94.982 E13.28515
G1 X152.031 Y95.024 E13.29734
G1 X152.338 Y95.058 E13.30761
G1 X153.873 Y95.252 E13.35907
G1 X154.415 Y95.327 E13.37727
G1 X155.303 Y95.463 E13.40715
G1 X156.485 Y95.663 E13.44702
G1 X156.817 Y95.724 E13.45825
G1 X158.238 Y96.012 E13.50647
G1 X158.465 Y96.061 E13.5142
G1 X159.402 Y96.274 E13.54616
G1 X160.099 Y96.443 E13.57001
G1 X160.869 Y96.645 E13.59649
G1 X161.166 Y96.728 E13.60674
G1 X162.453 Y97.106 E13.65136
G1 X162.805 Y97.216 E13.66362
G1 X163.718 Y97.519 E13.69562
G1 X164.071 Y97.643 E13.70806
G1 X165.188 Y98.058 E13.7477
G1 X165.536 Y98.194 E13.76012
G1 X166.288 Y98.504 E13.78718
G1 X166.53 Y98.608 E13.79594
G1 X166.967 Y98.801 E13.81183
G1 X167.256 Y98.933 E13.82239
G1 X167.8 Y99.193 E13.84245
G1 X168.108 Y99.347 E13.8539
G1 X168.857 Y99.735 E13.88196
G1 X169.172 Y99.904 E13.89385
G1 X169.397 Y100.028 E13.90239
G1 X169.698 Y100.199 E13.91391
G1 X169.969 Y100.359 E13.92437
G1 X170.684 Y100.795 E13.95223
G1 X171.041 Y101.023 E13.96632
G1 X171.489 Y101.319 E13.98417
G1 X171.727 Y101.481 E13.99375
G1 X171.944 Y101.633 E14.00256
G1 X172.399 Y101.97 E14.02139
G1 X173.409 Y102.761 E14.06406
G1 X173.68 Y102.981 E14.07567
G1 X173.95 Y103.212 E14.08749
G1 X174.199 Y103.433 E14.09856
G1 X174.406 Y103.621 E14.10786
G1 X174.756 Y103.952 E14.12389
G1 X175.012 Y104.202 E14.13579
G1 X175.345 Y104.54 E14.15157
G1 X175.699 Y104.923 E14.16892
G1 X176.302 Y105.608 E14.19927
G1 X176.724 Y106.119 E14.22131
G1 X176.973 Y106.441 E14.23485
G1 X177.167 Y106.699 E14.24559
G1 X177.388 Y107.005 E14.25814
G1 X177.598 Y107.306 E14.27035
G1 X177.839 Y107.666 E14.28476
G1 X177.991 Y107.904 E14.29415
G1 X178.151 Y108.163 E14.30428
G1 X178.369 Y108.533 E14.31856
G1 X178.57 Y108.894 E14.3323
G1 X178.793 Y109.313 E14.34809
G1 X179.016 Y109.755 E14.36455
G1 X179.16 Y110.059 E14.37574
G1 X179.501 Y110.865 E14.40485
G1 X179.823 Y111.721 E14.43527
G1 X180.08 Y112.491 E14.46227
G1 X180.174 Y112.814 E14.47346
G1 X180.296 Y113.269 E14.48912
G1 X180.427 Y113.87 E14.50958
G1 X180.549 Y114.515 E14.53142
G1 X180.657 Y115.213 E14.55491
G1 X180.69 Y115.486 E14.56405
G1 X180.734 Y115.916 E14.57843
G1 X180.763 Y116.28 E14.59058
G1 X180.788 Y116.717 E14.60513
G1 X180.805 Y117.162 E14.61995
G1 X180.805 Y117.97 E14.64682
G1 X180.794 Y118.259 E14.65644
G1 X180.756 Y118.838 E14.67574
G1 X180.712 Y119.311 E14.69154
G1 X180.681 Y119.608 E14.70147
G1 X180.659 Y119.789 E14.70753
G1 X180.565 Y120.404 E14.72823
G1 X180.472 Y120.916 E14.74553
G1 X180.376 Y121.388 E14.76155
G1 X180.327 Y121.602 E14.76886
G1 X180.215 Y122.044 E14.78402
G1 X180.19 Y122.135 E14.78716
G1 X180.028 Y122.671 E14.80579
G1 X179.791 Y123.384 E14.83078
G1 X179.583 Y123.953 E14.85093
G1 X179.498 Y124.167 E14.85858
G1 X179.37 Y124.476 E14.86971
G1 X179.304 Y124.628 E14.87522
G1 X179.158 Y124.949 E14.88695
G1 X179.038 Y125.202 E14.89626
G1 X178.893 Y125.496 E14.90717
G1 X178.673 Y125.925 E14.9232
G1 X178.23 Y126.706 E14.95306
G1 X178.067 Y126.966 E14.96327
G1 X177.806 Y127.375 E14.97941
G1 X177.607 Y127.675 E14.99138
G1 X177.438 Y127.921 E15.00131
G1 X177.218 Y128.229 E15.0139
G1 X177.015 Y128.503 E15.02524
G1 X176.775 Y128.815 E15.03833
G1 X176.507 Y129.148 E15.05255
G1 X176.325 Y129.37 E15.0621
G1 X175.772 Y129.994 E15.08983
G1 X175.087 Y130.707 E15.12271
G1 X174.839 Y130.956 E15.1344
G1 X174.646 Y131.144 E15.14336
G1 X174.39 Y131.386 E15.15508
G1 X174.266 Y131.499 E15.16066
G1 X174.022 Y131.714 E15.17148
G1 X173.45 Y132.204 E15.19653
G1 X173.234 Y132.385 E15.2059
G1 X172.974 Y132.596 E15.21704
G1 X172.67 Y132.833 E15.22986
G1 X172.411 Y133.028 E15.24064
G1 X172.065 Y133.278 E15.25484
G1 X171.666 Y133.554 E15.27098
G1 X171.465 Y133.69 E15.27905
G1 X170.944 Y134.033 E15.29979
G1 X170.591 Y134.255 E15.31366
G1 X169.822 Y134.719 E15.34354
G1 X169.47 Y134.922 E15.35705
G1 X168.637 Y135.382 E15.3887
G1 X168.052 Y135.682 E15.41057
G1 X166.961 Y136.199 E15.45072
G1 X166.529 Y136.392 E15.46646
G1 X165.939 Y136.64 E15.48775
G1 X165.604 Y136.774 E15.49975
G1 X164.934 Y137.029 E15.52359
G1 X164.279 Y137.283 E15.54696
G1 X163.793 Y137.458 E15.56414
G1 X162.679 Y137.827 E15.60317
G1 X162.265 Y137.955 E15.61758
G1 X161.367 Y138.217 E15.64869
G1 X160.693 Y138.401 E15.67193
G1 X160.319 Y138.498 E15.68478
G1 X159.983 Y138.579 E15.69628
G1 X159.6 Y138.675 E15.70941
G1 X159.171 Y138.773 E15.72405
G1 X158.14 Y139.004 E15.75919
G1 X157.835 Y139.068 E15.76955
G1 X156.353 Y139.355 E15.81976
G1 X156.103 Y139.4 E15.82821
