;FLAVOR:Marlin
;TIME:2964
;Filament used: 1.48471m
;Layer height: 0.2
;MINX:38.3
;MINY:94.9
;MINZ:0.2
;MAXX:196.7
;MAXY:140.1
;MAXZ:1.4
;TARGET_MACHINE.NAME:Creality Ender-3
;Generated with Cura_SteamEngine 5.8.1
M140 S50
M105
M190 S50
M104 S200
M105
M109 S200
M82 ;absolute extrusion mode
; Ender 3 Custom Start G-code
G92 E0 ; Reset Extruder
G28 ; Home all axes
G1 Z2.0 F3000 ; Move Z Axis up little to prevent scratching of Heat Bed
G1 X0.1 Y20 Z0.3 F5000.0 ; Move to start position
G1 X0.1 Y200.0 Z0.3 F1500.0 E15 ; Draw the first line
G1 X0.4 Y200.0 Z0.3 F5000.0 ; Move to side a little
G1 X0.4 Y20 Z0.3 F1500.0 E30 ; Draw the second line
G92 E0 ; Reset Extruder
G1 Z2.0 F3000 ; Move Z Axis up little to prevent scratching of Heat Bed
G1 X5 Y20 Z0.3 F5000.0 ; Move over to prevent blob squish
G92 E0
G92 E0
G1 F2700 E-5
;LAYER_COUNT:7
;LAYER:0
M107
G0 F6000 X44.999 Y95.79 Z0.2
;TYPE:SKIRT
G1 F2700 E0
G1 F1200 X45.912 Y95.448 E0.03243
G1 X46.849 Y95.189 E0.06476
G1 X47.816 Y95.011 E0.09746
G1 X48.955 Y94.915 E0.13548
G1 X49.612 Y94.9 E0.15734
G1 X185.004 Y94.9 E4.66049
G1 X185.884 Y94.913 E4.68977
G1 X186.856 Y94.972 E4.72216
G1 X187.819 Y95.118 E4.75455
G1 X188.766 Y95.349 E4.78697
G1 X189.654 Y95.649 E4.81815
G1 X190.546 Y96.039 E4.85053
G1 X191.429 Y96.526 E4.88407
G1 X192.18 Y97.028 E4.91411
G1 X192.995 Y97.686 E4.94895
G1 X193.693 Y98.364 E4.98131
G1 X194.329 Y99.101 E5.01369
G1 X194.899 Y99.891 E5.04609
G1 X195.361 Y100.667 E5.07613
G1 X195.815 Y101.609 E5.11091
G1 X196.144 Y102.487 E5.1421
G1 X196.413 Y103.459 E5.17564
G1 X196.59 Y104.425 E5.2083
G1 X196.685 Y105.555 E5.24602
G1 X196.7 Y106.23 E5.26848
G1 X196.699 Y128.5 E6.00918
G1 X196.688 Y129.263 E6.03456
G1 X196.631 Y130.236 E6.06698
G1 X196.486 Y131.199 E6.09937
G1 X196.257 Y132.145 E6.13174
G1 X195.946 Y133.069 E6.16417
G1 X195.554 Y133.96 E6.19654
G1 X195.086 Y134.812 E6.22888
G1 X194.564 Y135.593 E6.26012
G1 X193.931 Y136.378 E6.29366
G1 X193.306 Y137.029 E6.32368
G1 X192.517 Y137.717 E6.35849
G1 X191.757 Y138.267 E6.3897
G1 X190.89 Y138.784 E6.42327
G1 X190.012 Y139.206 E6.45567
G1 X189.101 Y139.548 E6.48804
G1 X188.162 Y139.809 E6.52045
G1 X187.196 Y139.987 E6.55312
G1 X186.045 Y140.085 E6.59154
G1 X185.37 Y140.1 E6.614
G1 X49.864 Y140.099 E11.12095
G1 X49.131 Y140.088 E11.14533
G1 X48.159 Y140.031 E11.17771
G1 X47.196 Y139.885 E11.21011
G1 X46.25 Y139.656 E11.24248
G1 X45.326 Y139.344 E11.27492
G1 X44.436 Y138.952 E11.30726
G1 X43.613 Y138.501 E11.33848
G1 X42.774 Y137.94 E11.37205
G1 X42.07 Y137.374 E11.40209
G1 X41.317 Y136.649 E11.43686
G1 X40.68 Y135.913 E11.46923
G1 X40.15 Y135.182 E11.49926
G1 X39.614 Y134.285 E11.53402
G1 X39.192 Y133.407 E11.56642
G1 X38.85 Y132.495 E11.59881
G1 X38.59 Y131.557 E11.63119
G1 X38.412 Y130.588 E11.66396
G1 X38.314 Y129.409 E11.70331
G1 X38.3 Y128.758 E11.72496
G1 X38.301 Y106.425 E12.46776
G1 X38.312 Y105.725 E12.49105
G1 X38.37 Y104.752 E12.52347
G1 X38.516 Y103.789 E12.55586
G1 X38.746 Y102.843 E12.58824
G1 X39.059 Y101.92 E12.62066
G1 X39.451 Y101.03 E12.653
G1 X39.921 Y100.177 E12.6854
G1 X40.464 Y99.369 E12.71778
G1 X41.031 Y98.665 E12.74784
G1 X41.756 Y97.913 E12.78258
G1 X42.492 Y97.276 E12.81496
G1 X43.224 Y96.746 E12.84502
G1 X44.121 Y96.211 E12.87975
G1 X44.999 Y95.79 E12.91214
G0 F6000 X45.14 Y96.164
G1 F1200 X46.019 Y95.833 E12.94338
G1 X46.922 Y95.582 E12.97455
G1 X47.85 Y95.41 E13.00594
G1 X48.989 Y95.314 E13.04396
G1 X49.621 Y95.3 E13.06499
G1 X184.998 Y95.3 E17.56764
G1 X185.86 Y95.312 E17.59632
G1 X186.797 Y95.368 E17.62754
G1 X187.725 Y95.507 E17.65875
G1 X188.638 Y95.728 E17.68999
G1 X189.494 Y96.016 E17.72003
G1 X190.386 Y96.406 E17.75241
G1 X191.207 Y96.859 E17.7836
G1 X191.958 Y97.361 E17.81364
G1 X192.717 Y97.973 E17.84607
G1 X193.391 Y98.626 E17.87728
G1 X194.005 Y99.335 E17.90848
G1 X194.555 Y100.096 E17.93971
G1 X195.017 Y100.872 E17.96975
G1 X195.44 Y101.749 E18.00213
G1 X195.769 Y102.627 E18.03332
G1 X196.02 Y103.532 E18.06455
G1 X196.191 Y104.459 E18.0959
G1 X196.286 Y105.589 E18.13362
G1 X196.3 Y106.23 E18.15495
G1 X196.299 Y128.495 E18.89548
G1 X196.289 Y129.24 E18.92026
G1 X196.235 Y130.177 E18.95148
G1 X196.097 Y131.106 E18.98272
G1 X195.878 Y132.018 E19.01391
G1 X195.58 Y132.908 E19.04513
G1 X195.203 Y133.768 E19.07636
G1 X194.753 Y134.59 E19.10753
G1 X194.231 Y135.371 E19.13877
G1 X193.642 Y136.101 E19.16997
G1 X193.017 Y136.752 E19.19999
G1 X192.282 Y137.393 E19.23242
G1 X191.522 Y137.943 E19.26363
G1 X190.716 Y138.424 E19.29485
G1 X189.871 Y138.832 E19.32605
G1 X188.993 Y139.163 E19.35726
G1 X188.089 Y139.416 E19.38849
G1 X187.162 Y139.588 E19.41984
G1 X186.011 Y139.686 E19.45827
G1 X185.37 Y139.7 E19.47959
G1 X49.87 Y139.699 E23.98634
G1 X49.154 Y139.689 E24.01015
G1 X48.218 Y139.635 E24.04134
G1 X47.289 Y139.496 E24.07258
G1 X46.377 Y139.277 E24.10378
G1 X45.487 Y138.978 E24.135
G1 X44.628 Y138.601 E24.1662
G1 X43.805 Y138.15 E24.19742
G1 X43.025 Y137.628 E24.22863
G1 X42.321 Y137.062 E24.25868
G1 X41.619 Y136.387 E24.29107
G1 X41.004 Y135.678 E24.32229
G1 X40.474 Y134.947 E24.35232
G1 X39.974 Y134.111 E24.38472
G1 X39.566 Y133.266 E24.41593
G1 X39.235 Y132.388 E24.44714
G1 X38.983 Y131.484 E24.47835
G1 X38.811 Y130.555 E24.50977
G1 X38.713 Y129.376 E24.54912
G1 X38.7 Y128.758 E24.56968
G1 X38.701 Y106.431 E25.31228
G1 X38.711 Y105.748 E25.335
G1 X38.766 Y104.811 E25.36622
G1 X38.905 Y103.883 E25.39743
G1 X39.125 Y102.971 E25.42863
G1 X39.425 Y102.081 E25.45987
G1 X39.802 Y101.222 E25.49107
G1 X40.253 Y100.4 E25.52225
G1 X40.776 Y99.62 E25.55349
G1 X41.343 Y98.916 E25.58355
G1 X42.018 Y98.215 E25.61592
G1 X42.727 Y97.6 E25.64714
G1 X43.459 Y97.07 E25.6772
G1 X44.295 Y96.571 E25.70958
G1 X45.14 Y96.164 E25.74077
G0 F6000 X45.282 Y96.538
G1 F1200 X46.127 Y96.218 E25.77083
G1 X46.996 Y95.975 E25.80084
G1 X47.884 Y95.809 E25.83088
G1 X49.023 Y95.713 E25.8689
G1 X49.63 Y95.7 E25.8891
G1 X184.993 Y95.7 E30.39129
G1 X185.837 Y95.711 E30.41936
G1 X186.739 Y95.764 E30.44941
G1 X187.632 Y95.896 E30.47944
G1 X188.51 Y96.107 E30.50947
G1 X189.366 Y96.395 E30.53951
G1 X190.193 Y96.757 E30.56954
G1 X190.985 Y97.192 E30.59959
G1 X191.736 Y97.694 E30.62963
G1 X192.439 Y98.261 E30.65967
G1 X193.089 Y98.888 E30.68971
G1 X193.681 Y99.57 E30.71975
G1 X194.211 Y100.301 E30.74978
G1 X194.673 Y101.077 E30.77982
G1 X195.066 Y101.89 E30.80985
G1 X195.384 Y102.735 E30.83988
G1 X195.627 Y103.605 E30.86993
G1 X195.792 Y104.493 E30.89997
G1 X195.887 Y105.623 E30.93768
G1 X195.9 Y106.23 E30.95788
G1 X195.899 Y128.49 E31.69825
G1 X195.89 Y129.217 E31.72243
G1 X195.839 Y130.119 E31.75248
G1 X195.708 Y131.013 E31.78253
G1 X195.499 Y131.891 E31.81255
G1 X195.213 Y132.748 E31.8426
G1 X194.852 Y133.576 E31.87264
G1 X194.42 Y134.368 E31.90265
G1 X193.919 Y135.12 E31.9327
G1 X193.353 Y135.824 E31.96274
G1 X192.728 Y136.475 E31.99276
G1 X192.047 Y137.069 E32.02282
G1 X191.316 Y137.6 E32.05287
G1 X190.542 Y138.064 E32.08288
G1 X189.729 Y138.458 E32.11293
G1 X188.885 Y138.778 E32.14295
G1 X188.015 Y139.023 E32.17301
G1 X187.128 Y139.189 E32.20303
G1 X185.977 Y139.287 E32.24145
G1 X185.37 Y139.3 E32.26164
G1 X49.875 Y139.299 E36.76822
G1 X49.177 Y139.29 E36.79144
G1 X48.276 Y139.239 E36.82146
G1 X47.382 Y139.107 E36.85151
G1 X46.504 Y138.898 E36.88153
G1 X45.647 Y138.611 E36.91159
G1 X44.82 Y138.25 E36.9416
G1 X44.027 Y137.817 E36.97165
G1 X43.276 Y137.316 E37.00168
G1 X42.572 Y136.75 E37.03173
G1 X41.921 Y136.124 E37.06176
G1 X41.328 Y135.443 E37.0918
G1 X40.798 Y134.712 E37.12183
G1 X40.334 Y133.937 E37.15187
G1 X39.94 Y133.124 E37.18192
G1 X39.62 Y132.28 E37.21194
G1 X39.376 Y131.41 E37.242
G1 X39.21 Y130.522 E37.27204
G1 X39.113 Y129.367 E37.31059
G1 X39.1 Y128.758 E37.33085
G1 X39.101 Y106.436 E38.07329
G1 X39.11 Y105.771 E38.09541
G1 X39.162 Y104.869 E38.12546
G1 X39.294 Y103.976 E38.15548
G1 X39.504 Y103.098 E38.18551
G1 X39.791 Y102.241 E38.21557
G1 X40.153 Y101.414 E38.24559
G1 X40.586 Y100.622 E38.27561
G1 X41.088 Y99.871 E38.30566
G1 X41.655 Y99.167 E38.33572
G1 X42.281 Y98.517 E38.36574
G1 X42.962 Y97.924 E38.39577
G1 X43.694 Y97.394 E38.42583
G1 X44.469 Y96.931 E38.45586
G1 X45.282 Y96.538 E38.48589
G1 F2700 E33.48589
;MESH:obstacle_circuit_logo.01.stl
G0 F6000 X55.432 Y111.175
G0 X60.12 Y122.5
;TYPE:WALL-INNER
G1 F2700 E38.48589
G1 F1269.8 X60.12 Y123.815 E38.52722
G0 F6000 X60.281 Y124.195
G0 X62.838 Y124.195
G0 X63.18 Y119.268
G0 X64.768 Y119.268
G0 X65.113 Y124.195
G0 X67.67 Y124.195
G0 X68.023 Y123.904
G0 X67.598 Y124.247
G1 F1200 X67.315 Y124.364 E38.53741
G1 X65.421 Y124.364 E38.6004
G1 X65.215 Y124.269 E38.60795
G1 X65.066 Y124.133 E38.61466
G1 X64.942 Y123.817 E38.62595
G1 X64.94 Y119.096 E38.78297
G1 X63.008 Y119.096 E38.84723
G1 X63.006 Y123.817 E39.00425
G1 X62.882 Y124.133 E39.01554
G1 X62.733 Y124.269 E39.02225
G1 X62.527 Y124.364 E39.02979
G1 X60.62 Y124.364 E39.09322
G1 X60.308 Y124.212 E39.10476
G1 F1230.8 X60.12 Y123.815 E39.11901
G1 X59.932 Y124.212 E39.13325
G1 F1200 X59.61 Y124.364 E39.1451
G1 X53.649 Y124.364 E39.34336
G1 X53.443 Y124.269 E39.35091
G1 X53.307 Y124.15 E39.35692
G1 X53.168 Y123.834 E39.3684
G1 X53.168 Y122.5 E39.41277
G1 X53.201 Y122.301 E39.41948
G1 X53.292 Y122.134 E39.4258
G1 X53.547 Y121.942 E39.43642
G1 X53.768 Y121.9 E39.4439
G1 X55.232 Y121.9 E39.49259
G1 X55.232 Y111.486 E39.83896
G1 X55.283 Y111.328 E39.84449
G1 X55.427 Y111.129 E39.85266
G1 X55.714 Y110.972 E39.86354
G1 X57.644 Y110.972 E39.92773
G1 X57.844 Y111.059 E39.93498
G1 X57.996 Y111.19 E39.94166
G1 X58.087 Y111.343 E39.94758
G1 X58.132 Y111.572 E39.95534
G1 X58.132 Y121.9 E40.29885
G1 X59.532 Y121.9 E40.34541
G1 F1237.1 X60.12 Y122.5 E40.37252
G1 X60.108 Y121.324 E40.41046
G1 F1200 X60.108 Y111.572 E40.73481
G1 X60.153 Y111.343 E40.74258
G1 X60.244 Y111.19 E40.7485
G1 X60.396 Y111.059 E40.75517
G1 X60.596 Y110.972 E40.76242
G1 X62.52 Y110.972 E40.82642
G1 X62.716 Y111.056 E40.83351
G1 X62.869 Y111.187 E40.84021
G1 X62.962 Y111.34 E40.84616
G1 X63.008 Y111.572 E40.85403
G1 X63.008 Y116.68 E41.02392
G1 X64.94 Y116.68 E41.08818
G1 X64.94 Y111.572 E41.25807
G1 X64.986 Y111.34 E41.26594
G1 X65.079 Y111.187 E41.2719
G1 X65.232 Y111.056 E41.2786
G1 X65.428 Y110.972 E41.28569
G1 X67.24 Y110.972 E41.34596
G1 X67.437 Y111.005 E41.3526
G1 X67.583 Y111.078 E41.35803
G1 X67.727 Y111.221 E41.36478
G1 F1004.2 X67.918 Y111.572 E41.38066
G1 F860.2 X67.918 Y123.823 E41.94908
G1 F1000 X67.738 Y124.1 E41.96227
G1 F1200 X67.598 Y124.247 E41.96902
G0 F6000 X68.023 Y123.904
G0 X68.196 Y123.447
G0 X68.725 Y124.195
G0 X74.172 Y124.289
G1 F1200 X73.986 Y124.364 E41.97569
G1 X69.152 Y124.364 E42.13647
G1 X68.943 Y124.327 E42.14353
G1 F1090.9 X68.726 Y124.21 E42.15255
G1 F923.1 X68.474 Y123.823 E42.17251
G1 F860.2 X68.474 Y111.572 E42.74094
G1 F1004.2 X68.665 Y111.221 E42.75682
G1 F1200 X68.809 Y111.078 E42.76357
G1 X68.955 Y111.005 E42.769
G1 X69.152 Y110.972 E42.77564
G1 X74.021 Y110.972 E42.93758
G1 X74.298 Y111.115 E42.94795
G1 X74.406 Y111.236 E42.95335
G1 X74.502 Y111.483 E42.96216
G1 X74.508 Y112.792 E43.0057
G1 X74.455 Y113.042 E43.0142
G1 X74.219 Y113.306 E43.02598
G1 X73.908 Y113.392 E43.03671
G1 X71.452 Y113.392 E43.1184
G1 X71.452 Y116.664 E43.22722
G1 X73.379 Y116.664 E43.29131
G1 X73.524 Y116.704 E43.29632
G1 X73.782 Y116.895 E43.30699
G1 X73.908 Y117.264 E43.31996
G1 X73.908 Y118.55 E43.36274
G1 X73.826 Y118.774 E43.37067
G1 X73.633 Y118.973 E43.37989
G1 X73.425 Y119.068 E43.3875
G1 X71.452 Y119.068 E43.45312
G1 X71.452 Y121.9 E43.54731
G1 X73.882 Y121.9 E43.62813
G1 X74.197 Y121.968 E43.63885
G1 X74.48 Y122.375 E43.65534
G1 X74.48 Y123.847 E43.7043
G1 X74.374 Y124.106 E43.7136
G1 X74.172 Y124.289 E43.72267
G1 F2700 E38.72267
G0 F6000 X74.661 Y123.872
G0 X76.086 Y123.254
G0 X80.811 Y124.236
G1 F2700 E43.72267
G1 F1200 X79.464 Y124.368 E43.76769
G1 X78.129 Y124.237 E43.8123
G1 X77.063 Y123.827 E43.85029
G1 X76.228 Y123.135 E43.88636
G1 X75.68 Y122.2 E43.92241
G1 X75.397 Y121.119 E43.95957
G1 X75.309 Y119.933 E43.99913
G1 X75.309 Y115.435 E44.14873
G1 X75.397 Y114.248 E44.18832
G1 X75.683 Y113.159 E44.22577
G1 X76.215 Y112.238 E44.26114
G1 X77.042 Y111.52 E44.29757
G1 X78.125 Y111.105 E44.33614
G1 X79.463 Y110.968 E44.38088
G1 X80.807 Y111.102 E44.4258
G1 X81.896 Y111.514 E44.46453
G1 X82.732 Y112.221 E44.50094
G1 F1159.4 X83.268 Y113.149 E44.53783
G1 F1090.9 X83.571 Y114.188 E44.57743
G1 F1126.8 X83.649 Y115.433 E44.62162
G1 F1209.1 X83.649 Y119.935 E44.77023
G1 F1137.4 X83.579 Y121.132 E44.81231
G1 F1106 X83.272 Y122.22 E44.8531
G1 F1165 X82.725 Y123.139 E44.88974
G1 F1200 X81.893 Y123.824 E44.92558
G1 X80.811 Y124.236 E44.96409
G1 F2700 E39.96409
G0 F6000 X82.85 Y123.244
G0 X83.803 Y121.131
G0 X84.219 Y124.034
G0 X87.753 Y124.045
G0 X89.244 Y123.924
G0 X89.974 Y123.73
G0 X90.627 Y123.405
G0 X91.185 Y122.934
G0 X92.243 Y121.434
G0 X93.144 Y122.773
G0 X93.602 Y123.289
G0 X94.164 Y123.697
G0 X94.811 Y123.984
G0 X95.535 Y124.153
G0 X96.332 Y124.207
G0 X97.279 Y124.119
G0 X98.057 Y123.837
G0 X98.671 Y123.39
G0 X99.104 Y122.827
G0 X99.397 Y122.219
G0 X99.57 Y121.581
G0 X99.745 Y120.029
G0 X96.625 Y119.644
G0 X96.25 Y120.881
G1 F2700 E44.96409
G1 F805.4 X96.286 Y120.522 E44.98197
G0 F6000 X96.625 Y119.644
G0 X99.745 Y120.029
G0 X99.57 Y121.581
G0 X99.397 Y122.219
G0 X99.104 Y122.827
G0 X98.671 Y123.39
G0 X98.057 Y123.837
G0 X97.279 Y124.119
G0 X96.332 Y124.207
G0 X95.535 Y124.153
G0 X94.811 Y123.984
G0 X94.164 Y123.697
G0 X93.602 Y123.289
G0 X93.144 Y122.773
G0 X92.816 Y122.153
G0 X92.626 Y121.447
G0 X92.564 Y120.657
G0 X92.689 Y119.568
G0 X93.075 Y118.642
G0 X93.649 Y117.891
G0 X95.324 Y116.363
G0 X95.619 Y116.052
G0 X95.824 Y115.606
G1 F1293.8 X96.085 Y115.324 E44.99383
G1 X96.267 Y114.937 E45.00702
G1 F1290.3 X96.327 Y114.451 E45.02217
G1 F1283.4 X96.265 Y114.163 E45.03133
G1 X96.113 Y114.215 E45.03632
G1 X96.036 Y114.32 E45.04037
G1 X95.935 Y114.58 E45.04905
G1 F1290.3 X95.824 Y115.606 E45.08097
G1 F2700 E40.08097
G0 F6000 X95.791 Y114.548
G0 X95.606 Y116.161
G0 X92.521 Y115.7
G0 X92.685 Y114.051
G0 X93.014 Y112.995
G0 X93.561 Y112.168
G0 X94.33 Y111.579
G0 X95.284 Y111.242
G0 X96.403 Y111.133
G0 X97.392 Y111.244
G0 X98.255 Y111.583
G0 X98.974 Y112.12
G0 X99.509 Y112.822
G0 X99.837 Y113.655
G0 X99.946 Y114.561
G0 X99.796 Y115.808
G0 X98.847 Y118.015
G0 X97.411 Y119.378
G0 X99.855 Y119.913
G0 X99.631 Y121.231
G0 X99.631 Y124.034
G0 X106.527 Y124.136
G1 F2700 E45.08097
G1 F1200 X106.35 Y124.204 E45.08727
G1 X99.96 Y124.204 E45.29981
G1 X99.634 Y124.032 E45.31207
G1 X99.487 Y123.796 E45.32131
G1 X99.456 Y123.632 E45.32687
G1 X99.456 Y122.462 E45.36578
G1 X99.238 Y122.914 E45.38247
G1 X98.786 Y123.5 E45.40709
G1 X98.145 Y123.971 E45.43354
G1 X97.328 Y124.271 E45.46249
G1 X96.331 Y124.371 E45.49582
G1 X95.508 Y124.312 E45.52326
G1 X94.761 Y124.137 E45.54878
G1 X94.079 Y123.836 E45.57357
G1 X93.491 Y123.408 E45.59776
G1 F1194 X93.004 Y122.86 E45.62227
G1 F1182.3 X92.664 Y122.207 E45.64712
G1 F1159.4 X92.456 Y121.447 E45.67425
G1 F1240.3 X92.428 Y120.71 E45.69798
G1 F1290.3 X92.516 Y119.556 E45.73378
G1 F1218.3 X92.932 Y118.565 E45.76899
G1 F1200 X93.525 Y117.781 E45.80168
G1 X94.197 Y117.127 E45.83287
G1 X95.182 Y116.27 E45.8763
G1 X92.767 Y115.909 E45.95751
G1 X92.459 Y115.486 E45.97492
G1 X92.409 Y116.158 E45.99733
G1 X92.186 Y116.945 E46.02454
G1 X91.819 Y117.614 E46.04991
G1 X91.232 Y118.202 E46.07755
G1 X91.517 Y118.477 E46.09072
G1 X91.846 Y119.046 E46.11258
G1 X92.052 Y119.728 E46.13628
G1 F1266.5 X92.089 Y120.451 E46.15909
G1 F1250 X92.037 Y121.493 E46.1924
G1 F1188.1 X91.748 Y122.357 E46.22301
G1 F1200 X91.306 Y123.043 E46.25015
G1 X90.715 Y123.538 E46.27579
G1 X90.026 Y123.88 E46.30138
G1 X89.272 Y124.08 E46.32732
G1 X87.732 Y124.204 E46.37871
G1 X84.644 Y124.204 E46.48141
G1 X84.453 Y124.173 E46.48785
G1 X84.178 Y123.983 E46.49897
G1 X84.044 Y123.693 E46.50959
G1 X84.044 Y122.226 E46.55839
G1 F1134.8 X84.021 Y121.17 E46.59554
G1 F1137.4 X84.046 Y119.95 E46.63836
G1 F1209.1 X84.046 Y115.418 E46.78796
G1 F1126.8 X84.017 Y114.131 E46.83356
G1 F1124.1 X84.044 Y113.139 E46.86879
G1 F1200 X84.044 Y111.665 E46.91782
G1 X84.176 Y111.371 E46.92854
G1 X84.504 Y111.148 E46.94173
