;FLAVOR:Marlin
;TIME:5076
;Filament used: 3.18984m
;Layer height: 0.2
;MINX:7.771
;MINY:9.5
;MINZ:0.2
;MAXX:227.229
;MAXY:225.5
;MAXZ:1
;TARGET_MACHINE.NAME:Creality Ender-3
;Generated with Cura_SteamEngine 5.8.1
M140 S50
M105
M190 S50
M104 S200
M105
M109 S200
M82 ;absolute extrusion mode
; Ender 3 Custom Start G-code
G92 E0 ; Reset Extruder
G28 ; Home all axes
G1 Z2.0 F3000 ; Move Z Axis up little to prevent scratching of Heat Bed
G1 X0.1 Y20 Z0.3 F5000.0 ; Move to start position
G1 X0.1 Y200.0 Z0.3 F1500.0 E15 ; Draw the first line
G1 X0.4 Y200.0 Z0.3 F5000.0 ; Move to side a little
G1 X0.4 Y20 Z0.3 F1500.0 E30 ; Draw the second line
G92 E0 ; Reset Extruder
G1 Z2.0 F3000 ; Move Z Axis up little to prevent scratching of Heat Bed
G1 X5 Y20 Z0.3 F5000.0 ; Move over to prevent blob squish
G92 E0
G92 E0
G1 F2700 E-5
;LAYER_COUNT:5
;LAYER:0
M107
G0 F6000 X181.627 Y9.5 Z0.2
;TYPE:SKIRT
G1 F2700 E0
G1 F1200 X181.408 Y9.634 E0.00854
G1 X180.624 Y10.213 E0.04096
G1 X179.881 Y10.869 E0.07392
G1 X179.387 Y11.349 E0.09683
G1 X11.186 Y179.55 E8.00849
G1 X10.762 Y179.992 E8.02886
G1 X9.975 Y180.927 E8.06951
G1 X9.441 Y181.704 E8.10087
G1 X8.945 Y182.584 E8.13447
G1 X8.559 Y183.439 E8.16567
G1 X8.236 Y184.357 E8.19803
G1 X7.996 Y185.302 E8.23046
G1 X7.841 Y186.264 E8.26287
G1 X7.771 Y187.235 E8.29525
G1 X7.787 Y188.208 E8.32762
G1 X7.889 Y189.177 E8.36002
G1 X8.094 Y190.203 E8.39482
G1 X8.348 Y191.069 E8.42484
G1 X8.73 Y192.042 E8.45961
G1 X9.133 Y192.85 E8.48964
G1 X9.64 Y193.68 E8.52199
G1 X10.242 Y194.491 E8.55558
G1 X10.865 Y195.192 E8.58677
G1 X11.359 Y195.698 E8.61029
G1 X39.447 Y223.788 E9.93151
G1 X39.903 Y224.226 E9.95254
G1 X40.841 Y225.019 E9.9934
G1 X41.54 Y225.5 E10.02162
G0 F6000 X42.334 Y225.5
G1 F1200 X41.846 Y225.224 E10.04027
G1 X41.068 Y224.689 E10.07167
G1 X40.18 Y223.937 E10.11037
G1 X39.73 Y223.505 E10.13112
G1 X11.645 Y195.419 E11.45218
G1 X11.164 Y194.926 E11.47508
G1 X10.541 Y194.225 E11.50628
G1 X9.981 Y193.471 E11.53751
G1 X9.491 Y192.671 E11.56872
G1 X9.088 Y191.863 E11.59875
G1 X8.732 Y190.956 E11.63116
G1 X8.478 Y190.09 E11.66117
G1 X8.287 Y189.134 E11.6936
G1 X8.187 Y188.201 E11.72481
G1 X8.17 Y187.263 E11.75601
G1 X8.236 Y186.327 E11.78722
G1 X8.384 Y185.4 E11.81844
G1 X8.614 Y184.489 E11.84969
G1 X8.924 Y183.604 E11.88088
G1 X9.31 Y182.749 E11.91208
G1 X9.771 Y181.931 E11.94331
G1 X10.305 Y181.154 E11.97467
G1 X11.051 Y180.269 E12.01317
G1 X11.475 Y179.827 E12.03354
G1 X179.666 Y11.636 E19.94473
G1 X180.16 Y11.156 E19.96764
G1 X180.862 Y10.534 E19.99883
G1 X181.617 Y9.975 E20.03008
G1 X182.394 Y9.5 E20.06037
G0 F6000 X183.287 Y9.5
G1 F1200 X182.595 Y9.844 E20.08607
G1 X181.826 Y10.316 E20.11608
G1 X181.101 Y10.855 E20.14613
G1 X180.426 Y11.455 E20.17617
G1 X179.945 Y11.923 E20.19849
G1 X11.764 Y180.104 E28.10921
G1 X11.34 Y180.546 E28.12958
G1 X10.611 Y181.412 E28.16723
G1 X10.101 Y182.157 E28.19726
G1 X9.659 Y182.945 E28.22731
G1 X9.289 Y183.768 E28.25732
G1 X8.992 Y184.621 E28.28736
G1 X8.772 Y185.497 E28.3174
G1 X8.631 Y186.389 E28.34744
G1 X8.569 Y187.29 E28.37748
G1 X8.587 Y188.193 E28.40752
G1 X8.685 Y189.091 E28.43756
G1 X8.862 Y189.977 E28.46761
G1 X9.116 Y190.843 E28.49763
G1 X9.446 Y191.684 E28.52768
G1 X9.849 Y192.492 E28.55771
G1 X10.322 Y193.261 E28.58774
G1 X10.862 Y193.986 E28.6178
G1 X11.463 Y194.66 E28.64784
G1 X11.931 Y195.14 E28.67014
G1 X40.013 Y223.222 E29.99103
G1 X40.439 Y223.632 E30.01069
G1 X41.327 Y224.384 E30.04939
G1 X42.072 Y224.894 E30.07942
G1 X42.859 Y225.337 E30.10946
G1 X43.221 Y225.5 E30.12267
G1 F2700 E25.12267
G0 F6000 X53.375 Y225.5
G1 F2700 E30.12267
G1 F1200 X53.596 Y225.364 E30.1313
G1 X54.433 Y224.742 E30.16598
G1 X55.108 Y224.141 E30.19604
G1 X55.623 Y223.641 E30.21991
G1 X223.814 Y55.45 E38.1311
G1 X224.238 Y55.008 E38.15147
G1 X224.994 Y54.112 E38.19047
G1 X225.552 Y53.305 E38.2231
G1 X226.033 Y52.458 E38.2555
G1 X226.451 Y51.538 E38.28911
G1 X226.761 Y50.653 E38.32029
G1 X227.001 Y49.708 E38.35272
G1 X227.158 Y48.748 E38.38508
G1 X227.229 Y47.777 E38.41746
G1 X227.214 Y46.802 E38.44989
G1 X227.113 Y45.834 E38.48226
G1 X226.925 Y44.878 E38.51467
G1 X226.633 Y43.875 E38.54941
G1 X226.304 Y43.034 E38.57945
G1 X225.872 Y42.161 E38.61184
G1 X225.366 Y41.33 E38.6442
G1 X224.787 Y40.546 E38.67662
G1 X224.131 Y39.803 E38.70959
G1 X223.651 Y39.309 E38.7325
G1 X195.534 Y11.192 E40.05503
G1 X195.092 Y10.768 E40.0754
G1 X194.19 Y10.006 E40.11468
G1 X193.458 Y9.5 E40.14427
G0 F6000 X192.666 Y9.5
G1 F1200 X193.156 Y9.777 E40.163
G1 X193.932 Y10.312 E40.19435
G1 X194.815 Y11.057 E40.23277
G1 X195.257 Y11.481 E40.25314
G1 X223.364 Y39.588 E41.57521
G1 X223.844 Y40.082 E41.59812
G1 X224.466 Y40.784 E41.62931
G1 X225.025 Y41.539 E41.66056
G1 X225.514 Y42.339 E41.69174
G1 X225.931 Y43.18 E41.72297
G1 X226.26 Y44.021 E41.753
G1 X226.533 Y44.956 E41.7854
G1 X226.715 Y45.876 E41.81659
G1 X226.814 Y46.809 E41.8478
G1 X226.83 Y47.748 E41.87903
G1 X226.763 Y48.684 E41.91024
G1 X226.613 Y49.61 E41.94144
G1 X226.383 Y50.521 E41.97269
G1 X226.073 Y51.406 E42.00388
G1 X225.685 Y52.261 E42.03511
G1 X225.223 Y53.078 E42.06633
G1 X224.688 Y53.854 E42.09768
G1 X223.949 Y54.731 E42.13582
G1 X223.525 Y55.173 E42.15619
G1 X55.344 Y223.354 E50.06691
G1 X54.842 Y223.842 E50.0902
G1 X54.167 Y224.443 E50.12026
G1 X53.386 Y225.023 E50.15261
G1 X52.617 Y225.496 E50.18264
G0 F6000 X51.713 Y225.5
G1 F1200 X52.407 Y225.155 E50.20842
G1 X53.176 Y224.682 E50.23845
G1 X53.901 Y224.144 E50.26848
G1 X54.576 Y223.543 E50.29854
G1 X55.065 Y223.067 E50.32123
G1 X223.236 Y54.896 E58.23148
G1 X223.66 Y54.454 E58.25185
G1 X224.382 Y53.596 E58.28915
G1 X224.893 Y52.852 E58.31917
G1 X225.336 Y52.065 E58.34921
G1 X225.708 Y51.241 E58.37928
G1 X226.005 Y50.389 E58.40929
G1 X226.225 Y49.513 E58.43933
G1 X226.368 Y48.621 E58.46937
G1 X226.431 Y47.72 E58.49941
G1 X226.414 Y46.817 E58.52945
G1 X226.317 Y45.919 E58.5595
G1 X226.141 Y45.034 E58.58951
G1 X225.887 Y44.167 E58.61956
G1 X225.558 Y43.326 E58.64959
G1 X225.156 Y42.517 E58.67964
G1 X224.684 Y41.748 E58.70965
G1 X224.145 Y41.023 E58.7397
G1 X223.545 Y40.348 E58.76973
G1 X223.077 Y39.867 E58.79206
G1 X194.98 Y11.77 E60.11365
G1 X194.538 Y11.346 E60.13402
G1 X193.674 Y10.618 E60.1716
G1 X192.93 Y10.107 E60.20162
G1 X192.143 Y9.664 E60.23166
G1 X191.78 Y9.5 E60.24491
G1 F2700 E55.24491
;MESH:oc1_logo_lg_01.stl
G0 F6000 X187.006 Y34.097
G0 X196.578 Y54.6
;TYPE:WALL-INNER
G1 F2700 E60.24491
G1 F1200 X196.293 Y54.467 E60.25537
G1 X194.719 Y52.897 E60.32931
G1 X194.55 Y52.558 E60.34191
G1 X194.588 Y52.243 E60.35246
G1 X194.719 Y52.047 E60.3603
G1 X196.795 Y49.972 E60.45793
G1 X183.877 Y37.051 E61.06562
G1 X183.789 Y36.759 E61.07576
G1 X183.831 Y36.486 E61.08495
G1 X183.91 Y36.348 E61.09024
G1 X186.079 Y34.17 E61.19248
G1 X186.245 Y34.084 E61.19869
G1 X186.479 Y34.048 E61.20657
G1 X186.62 Y34.071 E61.21132
G1 X186.819 Y34.172 E61.21874
G1 X199.711 Y47.059 E61.82502
G1 X201.715 Y45.052 E61.91936
G1 X201.937 Y44.911 E61.9281
G1 X202.101 Y44.877 E61.93367
G1 X202.292 Y44.895 E61.94006
G1 X202.515 Y45.001 E61.94827
G1 X204.101 Y46.587 E62.02287
G1 X204.225 Y46.768 E62.03017
G1 X204.275 Y46.968 E62.03702
G1 X204.258 Y47.162 E62.0435
G1 X204.157 Y47.381 E62.05152
G1 X197.033 Y54.505 E62.38661
G1 X196.781 Y54.6 E62.39557
G1 X196.578 Y54.6 E62.40232
G1 F2700 E57.40232
G0 F6000 X196.571 Y54.606
G0 X196.175 Y54.604
G0 X195.76 Y55.019
G0 X193.111 Y58.152
G1 F2700 E62.40232
G1 F1200 X192.927 Y58.115 E62.40856
G1 X192.749 Y58.012 E62.4154
G1 X177.831 Y43.097 E63.11703
G1 X177.74 Y42.787 E63.12778
G1 X177.806 Y42.481 E63.13819
G1 X177.915 Y42.331 E63.14435
G1 X179.995 Y40.251 E63.24219
G1 X180.265 Y40.136 E63.25195
G1 X180.416 Y40.129 E63.25698
G1 X180.707 Y40.217 E63.26709
G1 X195.623 Y55.137 E63.96879
G1 X195.756 Y55.422 E63.97925
G1 X195.756 Y55.625 E63.986
G1 X195.706 Y55.783 E63.99151
G1 X195.589 Y55.949 E63.99827
G1 X193.561 Y57.977 E64.09366
G1 X193.391 Y58.096 E64.10056
G1 X193.111 Y58.152 E64.11006
G1 F2700 E59.11006
G0 F6000 X193.137 Y58.219
G0 X192.633 Y58.15
G0 X191.463 Y59.319
G0 X182.751 Y68.263
G1 F2700 E64.11006
G1 F1200 X182.613 Y68.184 E64.11535
G1 X172.751 Y58.333 E64.57897
G1 X171.297 Y56.704 E64.65159
G1 X170.225 Y55.146 E64.71449
G1 X169.589 Y53.51 E64.77287
G1 X169.538 Y51.822 E64.82904
G1 X170.173 Y50.088 E64.89046
G1 X171.543 Y48.379 E64.96331
G1 X173.238 Y47.015 E65.03567
G1 X174.946 Y46.393 E65.09613
G1 X176.564 Y46.44 E65.14997
G1 X176.762 Y46.48 E65.15669
G1 X178.296 Y47.078 E65.21145
G1 X179.853 Y48.156 E65.27443
G1 X181.477 Y49.607 E65.34687
G1 X191.312 Y59.449 E65.80964
G1 X191.415 Y59.627 E65.81648
G1 X191.452 Y59.811 E65.82272
G1 X191.396 Y60.091 E65.83222
G1 X191.327 Y60.21 E65.8368
G1 X189.263 Y62.27 E65.93379
G1 X189.123 Y62.344 E65.93905
G1 X188.895 Y62.388 E65.94678
G1 X188.706 Y62.358 E65.95314
G1 X188.51 Y62.248 E65.96062
G1 X178.579 Y52.32 E66.42767
G1 X176.787 Y50.776 E66.50634
G1 X176.018 Y50.348 E66.53562
G1 X175.346 Y50.203 E66.55848
G1 X174.726 Y50.339 E66.57959
G1 X174.022 Y50.858 E66.60868
G1 X173.51 Y51.551 E66.63734
G1 X173.367 Y52.183 E66.65889
G1 X173.512 Y52.85 E66.68159
G1 X173.94 Y53.623 E66.71098
G1 X175.484 Y55.415 E66.78966
G1 X185.412 Y65.346 E67.25671
G1 X185.522 Y65.542 E67.26419
G1 X185.552 Y65.731 E67.27055
G1 X185.508 Y65.959 E67.27827
G1 X185.43 Y66.103 E67.28372
G1 X183.357 Y68.18 E67.38132
G1 X183.085 Y68.299 E67.3912
G1 X182.751 Y68.263 E67.40237
G1 F2700 E62.40237
G0 F6000 X182.476 Y68.197
G0 X181.344 Y67.204
G0 X179.652 Y67.765
G0 X172.809 Y75.799
G1 F2700 E67.40237
G1 F1200 X171.276 Y75.263 E67.45638
G1 X169.692 Y74.205 E67.51974
G1 X168.201 Y72.877 E67.58615
G1 X162.955 Y67.637 E67.83276
G1 X161.69 Y66.203 E67.89636
G1 X160.683 Y64.666 E67.95748
G1 X160.108 Y63.039 E68.01487
G1 X160.057 Y61.322 E68.07201
G1 X160.683 Y59.586 E68.13339
G1 X162.027 Y57.891 E68.20533
G1 X163.585 Y56.637 E68.27185
G1 X165.164 Y56.022 E68.32821
G1 X166.77 Y56.031 E68.38163
G1 X168.284 Y56.548 E68.43484
G1 X169.709 Y57.463 E68.49117
G1 X171.177 Y58.743 E68.55595
G1 X172.324 Y59.89 E68.6099
G1 X172.436 Y60.17 E68.61993
G1 X172.396 Y60.485 E68.63049
G1 X172.264 Y60.681 E68.63835
G1 X170.27 Y62.668 E68.73198
G1 X170.011 Y62.795 E68.74157
G1 X169.734 Y62.789 E68.75079
G1 X169.538 Y62.711 E68.7578
G1 X168.368 Y61.545 E68.81274
G1 X166.811 Y60.158 E68.88209
G1 X166.202 Y59.81 E68.90542
G1 X165.685 Y59.705 E68.92297
G1 X165.179 Y59.844 E68.94042
G1 X164.52 Y60.356 E68.96818
G1 X164.05 Y60.938 E68.99306
G1 X163.837 Y61.451 E69.01154
G1 X163.84 Y61.942 E69.02787
G1 X164.082 Y62.568 E69.05019
G1 X164.646 Y63.376 E69.08296
G1 X165.566 Y64.381 E69.12828
G1 X171.418 Y70.233 E69.40354
G1 X173.032 Y71.64 E69.47476
G1 X173.695 Y71.981 E69.49955
G1 X174.242 Y72.063 E69.51795
G1 X174.818 Y71.895 E69.53791
G1 X175.522 Y71.35 E69.56752
G1 X176.054 Y70.676 E69.59608
G1 X176.207 Y70.172 E69.6136
G1 X176.124 Y69.709 E69.62924
G1 X175.788 Y69.138 E69.65128
G1 X174.494 Y67.667 E69.71644
G1 X173.382 Y66.556 E69.76872
G1 X173.303 Y66.359 E69.77578
G1 X173.297 Y66.081 E69.78503
G1 X173.424 Y65.822 E69.79462
G1 X175.416 Y63.831 E69.8883
G1 X175.611 Y63.701 E69.89609
G1 X175.925 Y63.662 E69.90661
G1 X176.206 Y63.772 E69.91665
G1 X177.425 Y64.991 E69.97399
G1 X178.643 Y66.401 E70.03596
G1 X179.484 Y67.836 E70.09128
G1 X179.902 Y69.297 E70.14182
G1 X179.808 Y70.855 E70.19374
G1 X179.167 Y72.346 E70.24772
G1 X177.961 Y73.829 E70.31129
G1 X176.289 Y75.174 E70.38266
G1 X174.569 Y75.83 E70.44389
G1 X173.008 Y75.832 E70.49581
G1 X172.809 Y75.799 E70.50252
G1 F2700 E65.50252
G0 F6000 X172.687 Y75.863
G0 X171.194 Y75.426
G0 X169.482 Y76.236
G0 X164.18 Y87.063
G1 F2700 E70.50252
G1 F1200 X164.001 Y87.023 E70.50862
G1 X163.833 Y86.924 E70.5151
G1 X149.004 Y72.093 E71.21266
G1 X148.858 Y71.857 E71.22189
G1 X148.839 Y71.549 E71.23216
G1 X148.956 Y71.29 E71.24161
G1 X151.121 Y69.125 E71.34344
G1 X151.457 Y69.005 E71.35531
G1 X151.655 Y69.026 E71.36193
G1 X151.917 Y69.179 E71.37202
G1 X158.433 Y75.695 E71.67852
G1 X159.293 Y74.837 E71.71892
G1 X154.513 Y66.359 E72.04263
G1 X154.438 Y66.115 E72.05112
G1 X154.5 Y65.792 E72.06206
G1 X154.611 Y65.639 E72.06835
G1 X156.666 Y63.592 E72.16482
G1 X156.809 Y63.513 E72.17025
G1 X157.005 Y63.472 E72.17691
G1 X157.228 Y63.506 E72.18442
G1 X157.387 Y63.591 E72.19041
G1 X157.532 Y63.745 E72.19745
G1 X162.617 Y72.853 E72.5444
G1 X163.097 Y72.682 E72.56134
G1 X164.144 Y72.62 E72.59623
G1 X165.179 Y72.848 E72.63148
G1 X166.176 Y73.306 E72.66797
G1 X168.048 Y74.786 E72.74734
G1 X169.279 Y76.275 E72.8116
G1 X169.991 Y77.778 E72.86691
G1 X170.191 Y79.327 E72.91886
G1 X169.802 Y80.858 E72.9714
G1 X168.944 Y82.381 E73.02954
G1 X167.621 Y83.913 E73.09687
G1 X164.645 Y86.889 E73.23685
G1 X164.466 Y87.012 E73.24407
G1 X164.18 Y87.063 E73.25373
G1 F2700 E68.25373
G0 F6000 X164.147 Y87.096
G0 X163.717 Y87.062
G0 X162.426 Y88.353
G0 X159.71 Y91.478
G1 F2700 E73.25373
G1 F1200 X159.429 Y91.363 E73.26383
G1 X144.564 Y76.492 E73.96318
G1 X144.424 Y76.227 E73.97315
G1 X144.409 Y76.04 E73.97939
G1 X144.526 Y75.729 E73.99044
G1 X146.612 Y73.639 E74.08865
G1 X146.766 Y73.527 E74.09498
G1 X147.034 Y73.464 E74.10414
G1 X147.224 Y73.494 E74.11054
G1 X147.461 Y73.639 E74.11978
G1 X162.288 Y88.469 E74.81727
G1 X162.387 Y88.637 E74.82375
G1 X162.427 Y88.816 E74.82985
G1 X162.376 Y89.102 E74.83952
G1 X162.303 Y89.231 E74.84445
G1 X160.171 Y91.363 E74.94473
G1 X159.891 Y91.478 E74.9548
G1 X159.71 Y91.478 E74.96082
G1 F2700 E69.96082
G0 F6000 X159.699 Y91.488
G0 X158.271 Y90.454
G0 X156.237 Y91.185
G0 X149.478 Y99.245
G1 F2700 E74.96082
G1 F1200 X147.862 Y98.678 E75.01778
G1 X146.344 Y97.673 E75.07833
G1 X144.759 Y96.269 E75.14875
G1 X139.543 Y91.053 E75.3941
G1 X138.241 Y89.573 E75.45966
G1 X137.27 Y88.084 E75.51878
G1 X136.722 Y86.541 E75.57325
G1 X136.688 Y86.358 E75.57944
G1 X136.645 Y84.727 E75.6337
G1 X137.267 Y83.002 E75.69469
G1 X138.607 Y81.311 E75.76645
G1 X140.169 Y80.053 E75.83316
G1 X141.747 Y79.44 E75.88946
G1 X143.345 Y79.444 E75.94261
G1 X144.873 Y79.965 E75.99631
G1 X146.364 Y80.932 E76.05542
G1 X147.761 Y82.155 E76.11717
G1 X148.849 Y83.243 E76.16835
G1 X148.995 Y83.482 E76.17766
G1 X149.021 Y83.734 E76.18609
G1 X148.961 Y83.937 E76.19313
G1 X148.865 Y84.076 E76.19875
G1 X146.854 Y86.084 E76.29327
G1 X146.595 Y86.211 E76.30286
G1 X146.318 Y86.205 E76.31208
G1 X146.122 Y86.127 E76.31909
G1 X144.952 Y84.961 E76.37403
G1 X143.396 Y83.574 E76.44336
G1 X142.788 Y83.228 E76.46663
G1 X142.268 Y83.118 E76.48431
G1 X141.767 Y83.259 E76.50162
G1 X141.103 Y83.772 E76.52953
G1 X140.634 Y84.354 E76.55439
G1 X140.421 Y84.867 E76.57286
G1 X140.424 Y85.358 E76.58919
G1 X140.666 Y85.984 E76.61151
G1 X141.23 Y86.792 E76.64429
G1 X142.15 Y87.797 E76.6896
G1 X148.002 Y93.649 E76.96487
G1 X149.617 Y95.056 E77.03611
G1 X150.279 Y95.397 E77.06087
G1 X150.827 Y95.479 E77.0793
G1 X151.406 Y95.311 E77.09935
G1 X152.101 Y94.771 E77.12863
G1 X152.639 Y94.088 E77.15755
G1 X152.795 Y93.587 E77.175
G1 X152.709 Y93.126 E77.1906
G1 X152.372 Y92.554 E77.21268
G1 X151.078 Y91.083 E77.27784
G1 X149.966 Y89.972 E77.33012
G1 X149.887 Y89.775 E77.33718
G1 X149.881 Y89.497 E77.34643
G1 X150.008 Y89.238 E77.35602
G1 X152.016 Y87.227 E77.45054
G1 X152.155 Y87.131 E77.45616
G1 X152.358 Y87.071 E77.4632
G1 X152.61 Y87.097 E77.47163
G1 X152.795 Y87.189 E77.4785
G1 X154.039 Y88.44 E77.53718
G1 X155.227 Y89.817 E77.59767
G1 X156.068 Y91.252 E77.65299
G1 X156.49 Y92.73 E77.70411
G1 X156.394 Y94.264 E77.75523
G1 X155.751 Y95.761 E77.80942
G1 X154.549 Y97.245 E77.87294
G1 X152.871 Y98.591 E77.94449
G1 X151.157 Y99.248 E78.00554
G1 X149.478 Y99.245 E78.06138
G1 F2700 E73.06138
G0 F6000 X147.779 Y98.84
G0 X146.014 Y100.596
G0 X140.686 Y110.085
G1 F2700 E78.06138
G1 F1200 X140.39 Y110.043 E78.07133
G1 X140.195 Y109.913 E78.07912
G1 X125.523 Y95.245 E78.76915
G1 X125.349 Y94.87 E78.7829
G1 X125.366 Y94.67 E78.78958
G1 X125.467 Y94.451 E78.7976
G1 X132.203 Y87.715 E79.11444
G1 X132.513 Y87.595 E79.1255
G1 X132.714 Y87.607 E79.13219
G1 X132.931 Y87.698 E79.14002
G1 X135.207 Y89.969 E79.24696
G1 X135.328 Y90.16 E79.25448
G1 X135.368 Y90.394 E79.26238
G1 X135.306 Y90.647 E79.27104
