;FLAVOR:Marlin
;TIME:13181
;Filament used: 8.28863m
;Layer height: 0.2
;MINX:28.367
;MINY:25.785
;MINZ:0.2
;MAXX:217.777
;MAXY:209.215
;MAXZ:1.4
;TARGET_MACHINE.NAME:Creality Ender-3
;Generated with Cura_SteamEngine 5.8.1
M140 S50
M105
M190 S50
M104 S200
M105
M109 S200
M82 ;absolute extrusion mode
; Ender 3 Custom Start G-code
G92 E0 ; Reset Extruder
G28 ; Home all axes
G1 Z2.0 F3000 ; Move Z Axis up little to prevent scratching of Heat Bed
G1 X0.1 Y20 Z0.3 F5000.0 ; Move to start position
G1 X0.1 Y200.0 Z0.3 F1500.0 E15 ; Draw the first line
G1 X0.4 Y200.0 Z0.3 F5000.0 ; Move to side a little
G1 X0.4 Y20 Z0.3 F1500.0 E30 ; Draw the second line
G92 E0 ; Reset Extruder
G1 Z2.0 F3000 ; Move Z Axis up little to prevent scratching of Heat Bed
G1 X5 Y20 Z0.3 F5000.0 ; Move over to prevent blob squish
G92 E0
G92 E0
G1 F2700 E-5
;LAYER_COUNT:7
;LAYER:0
M107
G0 F6000 X33.346 Y52.042 Z0.2
;TYPE:SKIRT
G1 F2700 E0
G1 F1200 X34.183 Y51.544 E0.03239
G1 X35.061 Y51.123 E0.06478
G1 X35.974 Y50.781 E0.09721
G1 X36.912 Y50.521 E0.12958
G1 X37.878 Y50.343 E0.16225
G1 X39.022 Y50.246 E0.20044
G1 X39.679 Y50.231 E0.22229
G1 X46.466 Y50.231 E0.44803
G1 X49.05 Y50.194 E0.53398
G1 X51.615 Y50.085 E0.61937
G1 X54.094 Y49.909 E0.70203
G1 X56.595 Y49.662 E0.78562
G1 X59.103 Y49.341 E0.86972
G1 X61.586 Y48.951 E0.95332
G1 X64.026 Y48.497 E1.03586
G1 X66.521 Y47.96 E1.12075
G1 X68.967 Y47.361 E1.20451
G1 X71.389 Y46.696 E1.28804
G1 X73.78 Y45.963 E1.37122
G1 X76.182 Y45.152 E1.45554
G1 X78.553 Y44.278 E1.53959
G1 X80.838 Y43.36 E1.62149
G1 X83.209 Y42.328 E1.7075
G1 X85.495 Y41.257 E1.79146
G1 X87.697 Y40.148 E1.87347
G1 X89.935 Y38.938 E1.95808
G1 X92.103 Y37.688 E2.04132
G1 X94.267 Y36.357 E2.12582
G1 X96.359 Y34.987 E2.20899
G1 X98.428 Y33.546 E2.29285
G1 X100.454 Y32.049 E2.37664
G1 X102.427 Y30.503 E2.46001
G1 X104.491 Y28.787 E2.54928
G1 X104.922 Y28.419 E2.56813
G1 X105.662 Y27.843 E2.59932
G1 X106.509 Y27.295 E2.63287
G1 X107.339 Y26.856 E2.6641
G1 X108.271 Y26.467 E2.69769
G1 X109.198 Y26.174 E2.73003
G1 X110.149 Y25.961 E2.76244
G1 X111.044 Y25.842 E2.79247
G1 X111.688 Y25.802 E2.81393
G1 X112.358 Y25.785 E2.83623
G1 X206.107 Y25.785 E5.95433
G1 X206.979 Y25.798 E5.98334
G1 X207.953 Y25.857 E6.01579
G1 X208.914 Y26.004 E6.04813
G1 X209.861 Y26.235 E6.08055
G1 X210.749 Y26.535 E6.11172
G1 X211.674 Y26.941 E6.14532
G1 X212.466 Y27.376 E6.17537
G1 X213.332 Y27.958 E6.21008
G1 X214.089 Y28.572 E6.2425
G1 X214.787 Y29.25 E6.27486
G1 X215.423 Y29.987 E6.30724
G1 X215.993 Y30.778 E6.33967
G1 X216.455 Y31.554 E6.3697
G1 X216.907 Y32.495 E6.40443
G1 X217.248 Y33.407 E6.43681
G1 X217.507 Y34.347 E6.46924
G1 X217.681 Y35.304 E6.50159
G1 X217.771 Y36.273 E6.53396
G1 X217.777 Y37.176 E6.56399
G1 X217.668 Y38.397 E6.60477
G1 X217.502 Y39.513 E6.64229
G1 X209.041 Y90.719 E8.3685
G1 X208.872 Y91.64 E8.39965
G1 X208.596 Y92.784 E8.43879
G1 X208.341 Y93.635 E8.46834
G1 X207.607 Y96.217 E8.55762
G1 X206.988 Y98.648 E8.64105
G1 X206.448 Y101.067 E8.72349
G1 X205.96 Y103.57 E8.80831
G1 X205.548 Y106.066 E8.89245
G1 X205.211 Y108.532 E8.97523
G1 X204.941 Y111.039 E9.05909
G1 X204.739 Y113.556 E9.14308
G1 X204.614 Y116.042 E9.22587
G1 X204.552 Y119.419 E9.33821
G1 X204.552 Y130.313 E9.70054
G1 X204.589 Y132.885 E9.7861
G1 X204.698 Y135.451 E9.87152
G1 X204.872 Y137.914 E9.95364
G1 X205.119 Y140.409 E10.03703
G1 X205.464 Y143.097 E10.12717
G1 X205.575 Y143.874 E10.15328
G1 X205.675 Y145.04 E10.1922
G1 X205.69 Y145.715 E10.21465
G1 X205.689 Y197.615 E11.94086
G1 X205.678 Y198.378 E11.96624
G1 X205.621 Y199.351 E11.99865
G1 X205.476 Y200.314 E12.03104
G1 X205.247 Y201.26 E12.06342
G1 X204.936 Y202.184 E12.09584
G1 X204.544 Y203.075 E12.12822
G1 X204.076 Y203.927 E12.16055
G1 X203.554 Y204.708 E12.19179
G1 X202.921 Y205.493 E12.22534
G1 X202.296 Y206.144 E12.25535
G1 X201.507 Y206.832 E12.29017
G1 X200.747 Y207.382 E12.32137
G1 X199.88 Y207.899 E12.35495
G1 X199.002 Y208.321 E12.38735
G1 X198.091 Y208.663 E12.41971
G1 X197.152 Y208.924 E12.45213
G1 X196.186 Y209.102 E12.4848
G1 X195.035 Y209.2 E12.52322
G1 X194.36 Y209.215 E12.54567
G1 X88.894 Y209.214 E16.05349
G1 X88.157 Y209.202 E16.078
G1 X87.185 Y209.143 E16.11039
G1 X86.222 Y208.997 E16.14279
G1 X85.275 Y208.766 E16.17521
G1 X84.354 Y208.453 E16.20756
G1 X83.462 Y208.059 E16.23999
G1 X82.609 Y207.588 E16.2724
G1 X81.803 Y207.044 E16.30474
G1 X81.046 Y206.431 E16.33714
G1 X80.396 Y205.804 E16.36718
G1 X79.608 Y204.884 E16.40747
G1 X78.131 Y202.955 E16.48828
G1 X76.559 Y200.997 E16.57179
G1 X74.92 Y199.07 E16.65593
G1 X73.249 Y197.214 E16.73899
G1 X71.516 Y195.397 E16.82251
G1 X69.697 Y193.592 E16.90774
G1 X67.9 Y191.909 E16.98963
G1 X65.993 Y190.222 E17.07431
G1 X64.063 Y188.608 E17.15799
G1 X62.071 Y187.036 E17.24239
G1 X60.077 Y185.552 E17.32506
G1 X58.004 Y184.1 E17.40924
G1 X55.934 Y182.734 E17.49173
G1 X53.743 Y181.376 E17.57747
G1 X51.592 Y180.125 E17.66023
G1 X49.404 Y178.934 E17.74308
G1 X47.153 Y177.791 E17.82705
G1 X44.856 Y176.705 E17.91156
G1 X42.582 Y175.706 E17.99417
G1 X40.205 Y174.743 E18.07947
G1 X37.825 Y173.855 E18.16396
G1 X35.758 Y173.142 E18.23668
G1 X34.855 Y172.782 E18.26902
G1 X34.047 Y172.377 E18.29908
G1 X33.157 Y171.827 E18.33388
G1 X32.379 Y171.241 E18.36627
G1 X31.657 Y170.589 E18.39863
G1 X30.993 Y169.876 E18.43103
G1 X30.396 Y169.106 E18.46344
G1 X29.87 Y168.287 E18.49581
G1 X29.418 Y167.425 E18.52819
G1 X29.068 Y166.592 E18.55824
G1 X28.752 Y165.596 E18.59299
G1 X28.541 Y164.647 E18.62533
G1 X28.422 Y163.751 E18.65539
G1 X28.382 Y163.089 E18.67745
G1 X28.367 Y162.432 E18.69931
G1 X28.368 Y61.785 E22.04684
G1 X28.379 Y61.061 E22.07092
G1 X28.437 Y60.088 E22.10334
G1 X28.582 Y59.125 E22.13573
G1 X28.802 Y58.212 E22.16697
G1 X29.123 Y57.256 E22.20051
G1 X29.516 Y56.365 E22.2329
G1 X29.967 Y55.543 E22.26408
G1 X30.528 Y54.704 E22.29765
G1 X31.094 Y54 E22.3277
G1 X31.82 Y53.247 E22.36249
G1 X32.557 Y52.61 E22.39489
G1 X33.346 Y52.042 E22.42722
G0 F6000 X33.551 Y52.385
G1 F1200 X34.357 Y51.904 E22.45844
G1 X35.202 Y51.497 E22.48963
G1 X36.081 Y51.166 E22.52087
G1 X36.985 Y50.914 E22.55209
G1 X37.912 Y50.742 E22.58345
G1 X39.056 Y50.645 E22.62163
G1 X39.688 Y50.631 E22.64266
G1 X46.472 Y50.631 E22.86829
G1 X49.067 Y50.594 E22.95461
G1 X51.632 Y50.485 E23.04
G1 X54.125 Y50.308 E23.12313
G1 X56.646 Y50.059 E23.20738
G1 X59.154 Y49.738 E23.29148
G1 X61.648 Y49.346 E23.37545
G1 X64.112 Y48.888 E23.45881
G1 X66.616 Y48.349 E23.544
G1 X69.062 Y47.75 E23.62776
G1 X71.495 Y47.081 E23.71168
G1 X73.908 Y46.342 E23.79562
G1 X76.31 Y45.531 E23.87994
G1 X78.702 Y44.649 E23.96473
G1 X80.998 Y43.727 E24.04703
G1 X83.369 Y42.695 E24.13303
G1 X85.665 Y41.619 E24.21737
G1 X87.887 Y40.5 E24.30011
G1 X90.135 Y39.285 E24.38511
G1 X92.303 Y38.035 E24.46834
G1 X94.477 Y36.698 E24.55323
G1 X96.578 Y35.322 E24.63676
G1 X98.666 Y33.868 E24.72139
G1 X100.692 Y32.371 E24.80517
G1 X102.683 Y30.811 E24.8893
G1 X104.747 Y29.095 E24.97857
G1 X105.168 Y28.735 E24.997
G1 X105.908 Y28.159 E25.02819
G1 X106.696 Y27.649 E25.05941
G1 X107.526 Y27.21 E25.09064
G1 X108.392 Y26.848 E25.12185
G1 X109.286 Y26.564 E25.15305
G1 X110.202 Y26.358 E25.18428
G1 X111.097 Y26.239 E25.21431
G1 X111.698 Y26.202 E25.23434
G1 X112.368 Y26.185 E25.25663
G1 X206.101 Y26.185 E28.3742
G1 X206.955 Y26.197 E28.40261
G1 X207.893 Y26.253 E28.43386
G1 X208.82 Y26.393 E28.46504
G1 X209.733 Y26.614 E28.49629
G1 X210.589 Y26.902 E28.52633
G1 X211.481 Y27.292 E28.55871
G1 X212.273 Y27.727 E28.58876
G1 X213.081 Y28.269 E28.62112
G1 X213.811 Y28.859 E28.65234
G1 X214.485 Y29.512 E28.68355
G1 X215.099 Y30.221 E28.71475
G1 X215.649 Y30.983 E28.746
G1 X216.111 Y31.759 E28.77604
G1 X216.533 Y32.636 E28.80841
G1 X216.863 Y33.514 E28.83961
G1 X217.114 Y34.419 E28.87084
G1 X217.283 Y35.342 E28.90205
G1 X217.371 Y36.276 E28.93326
G1 X217.377 Y37.179 E28.96329
G1 X217.272 Y38.338 E29.002
G1 X217.107 Y39.448 E29.03932
G1 X208.647 Y90.647 E30.7653
G1 X208.483 Y91.546 E30.79569
G1 X208.213 Y92.669 E30.83411
G1 X207.958 Y93.52 E30.86366
G1 X207.222 Y96.108 E30.95315
G1 X206.601 Y98.549 E31.03692
G1 X206.055 Y100.99 E31.12011
G1 X205.567 Y103.493 E31.20493
G1 X205.153 Y106.001 E31.28948
G1 X204.813 Y108.489 E31.373
G1 X204.543 Y110.996 E31.45686
G1 X204.341 Y113.524 E31.54121
G1 X204.214 Y116.035 E31.62484
G1 X204.152 Y119.412 E31.73717
G1 X204.152 Y130.313 E32.09974
G1 X204.189 Y132.902 E32.18586
G1 X204.298 Y135.468 E32.27128
G1 X204.474 Y137.953 E32.35414
G1 X204.722 Y140.46 E32.43793
G1 X205.068 Y143.154 E32.52827
G1 X205.176 Y143.908 E32.55361
G1 X205.276 Y145.074 E32.59253
G1 X205.29 Y145.715 E32.61385
G1 X205.289 Y197.61 E34.33989
G1 X205.279 Y198.355 E34.36467
G1 X205.225 Y199.292 E34.39589
G1 X205.087 Y200.221 E34.42712
G1 X204.868 Y201.133 E34.45832
G1 X204.57 Y202.023 E34.48954
G1 X204.193 Y202.883 E34.52077
G1 X203.743 Y203.705 E34.55194
G1 X203.221 Y204.486 E34.58318
G1 X202.632 Y205.216 E34.61438
G1 X202.007 Y205.867 E34.64439
G1 X201.272 Y206.508 E34.67683
G1 X200.512 Y207.058 E34.70803
G1 X199.706 Y207.539 E34.73925
G1 X198.861 Y207.947 E34.77046
G1 X197.983 Y208.278 E34.80167
G1 X197.079 Y208.531 E34.83289
G1 X196.152 Y208.703 E34.86425
G1 X195.001 Y208.801 E34.90267
G1 X194.36 Y208.815 E34.924
G1 X88.9 Y208.814 E38.43161
G1 X88.181 Y208.803 E38.45553
G1 X87.244 Y208.747 E38.48675
G1 X86.316 Y208.608 E38.51796
G1 X85.403 Y208.387 E38.5492
G1 X84.515 Y208.087 E38.58038
G1 X83.655 Y207.709 E38.61162
G1 X82.832 Y207.256 E38.64287
G1 X82.054 Y206.733 E38.67405
G1 X81.324 Y206.143 E38.70526
G1 X80.674 Y205.516 E38.7353
G1 X79.926 Y204.641 E38.77359
G1 X78.449 Y202.712 E38.8544
G1 X76.864 Y200.738 E38.9386
G1 X75.225 Y198.811 E39.02274
G1 X73.546 Y196.946 E39.1062
G1 X71.798 Y195.113 E39.19044
G1 X69.979 Y193.308 E39.27568
G1 X68.165 Y191.609 E39.35834
G1 X66.258 Y189.922 E39.44302
G1 X64.32 Y188.301 E39.52706
G1 X62.319 Y186.722 E39.61184
G1 X60.316 Y185.231 E39.69489
G1 X58.233 Y183.772 E39.77947
G1 X56.145 Y182.394 E39.86268
G1 X53.954 Y181.036 E39.94842
G1 X51.793 Y179.779 E40.03157
G1 X49.585 Y178.577 E40.11518
G1 X47.324 Y177.429 E40.19952
G1 X45.027 Y176.343 E40.28403
G1 X42.732 Y175.335 E40.3674
G1 X40.345 Y174.368 E40.45306
G1 X37.965 Y173.48 E40.53755
G1 X35.906 Y172.77 E40.60999
G1 X35.034 Y172.424 E40.64119
G1 X34.226 Y172.019 E40.67125
G1 X33.397 Y171.507 E40.70366
G1 X32.647 Y170.944 E40.73485
G1 X31.949 Y170.316 E40.76608
G1 X31.309 Y169.63 E40.79728
G1 X30.732 Y168.889 E40.82852
G1 X30.224 Y168.101 E40.8597
G1 X29.787 Y167.27 E40.89093
G1 X29.437 Y166.437 E40.92098
G1 X29.142 Y165.509 E40.95337
G1 X28.938 Y164.594 E40.98455
G1 X28.819 Y163.698 E41.01461
G1 X28.782 Y163.08 E41.0352
G1 X28.767 Y162.432 E41.05676
G1 X28.768 Y61.791 E44.40409
G1 X28.778 Y61.084 E44.42761
G1 X28.833 Y60.147 E44.45883
G1 X28.971 Y59.219 E44.49004
G1 X29.191 Y58.306 E44.52127
G1 X29.489 Y57.417 E44.55246
G1 X29.867 Y56.557 E44.5837
G1 X30.318 Y55.735 E44.61489
G1 X30.84 Y54.955 E44.6461
G1 X31.406 Y54.251 E44.67615
G1 X32.082 Y53.549 E44.70856
G1 X32.791 Y52.934 E44.73978
G1 X33.551 Y52.385 E44.77096
G0 F6000 X33.757 Y52.728
G1 F1200 X34.531 Y52.264 E44.80098
G1 X35.344 Y51.871 E44.83101
G1 X36.189 Y51.551 E44.86106
G1 X37.059 Y51.307 E44.89111
G1 X37.946 Y51.141 E44.92113
G1 X39.09 Y51.044 E44.95931
G1 X39.697 Y51.031 E44.97951
G1 X46.478 Y51.031 E45.20505
G1 X49.084 Y50.994 E45.29173
G1 X51.649 Y50.885 E45.37712
G1 X54.156 Y50.707 E45.46071
G1 X56.697 Y50.456 E45.54564
G1 X59.205 Y50.135 E45.62973
G1 X61.71 Y49.741 E45.71408
G1 X64.197 Y49.279 E45.79821
G1 X66.711 Y48.738 E45.88374
G1 X69.157 Y48.139 E45.9675
G1 X71.601 Y47.466 E46.05181
G1 X74.036 Y46.721 E46.1365
G1 X76.438 Y45.91 E46.22083
G1 X78.851 Y45.02 E46.30637
G1 X81.158 Y44.094 E46.38905
G1 X83.529 Y43.062 E46.47506
G1 X85.835 Y41.981 E46.55976
G1 X88.077 Y40.852 E46.64325
G1 X90.335 Y39.632 E46.72862
G1 X92.503 Y38.382 E46.81185
G1 X94.687 Y37.039 E46.89713
G1 X96.797 Y35.657 E46.98102
G1 X98.904 Y34.19 E47.06641
G1 X100.93 Y32.693 E47.15019
G1 X102.939 Y31.119 E47.23508
G1 X105.003 Y29.403 E47.32435
G1 X105.414 Y29.05 E47.34237
G1 X106.126 Y28.494 E47.37242
G1 X106.883 Y28.002 E47.40245
G1 X107.681 Y27.579 E47.43249
G1 X108.514 Y27.229 E47.46254
G1 X109.374 Y26.954 E47.49257
G1 X110.255 Y26.755 E47.52261
G1 X111.15 Y26.636 E47.55264
G1 X111.708 Y26.602 E47.57124
G1 X112.378 Y26.585 E47.59353
G1 X206.096 Y26.585 E50.7106
G1 X206.932 Y26.596 E50.73841
G1 X207.834 Y26.649 E50.76846
G1 X208.727 Y26.782 E50.79849
G1 X209.605 Y26.993 E50.82852
G1 X210.461 Y27.281 E50.85856
G1 X211.288 Y27.643 E50.88859
G1 X212.08 Y28.078 E50.91864
G1 X212.83 Y28.58 E50.94866
G1 X213.533 Y29.147 E50.9787
G1 X214.183 Y29.774 E51.00874
G1 X214.775 Y30.456 E51.03877
G1 X215.305 Y31.188 E51.06883
G1 X215.767 Y31.964 E51.09887
G1 X216.159 Y32.777 E51.12889
G1 X216.478 Y33.622 E51.15893
G1 X216.721 Y34.492 E51.18897
G1 X216.885 Y35.38 E51.21901
G1 X216.971 Y36.279 E51.24905
G1 X216.977 Y37.182 E51.27908
G1 X216.876 Y38.279 E51.31572
G1 X216.712 Y39.383 E51.35284
G1 X208.253 Y90.576 E53.07862
G1 X208.094 Y91.453 E53.10826
G1 X207.83 Y92.554 E53.14592
G1 X207.575 Y93.405 E53.17547
G1 X206.837 Y95.999 E53.26517
G1 X206.214 Y98.45 E53.34928
G1 X205.662 Y100.913 E53.43323
G1 X205.174 Y103.416 E53.51805
G1 X204.758 Y105.936 E53.603
G1 X204.415 Y108.446 E53.68726
G1 X204.145 Y110.953 E53.77112
G1 X203.943 Y113.492 E53.85584
G1 X203.814 Y116.028 E53.94029
G1 X203.752 Y119.405 E54.05263
G1 X203.752 Y130.313 E54.41543
G1 X203.789 Y132.919 E54.50212
G1 X203.898 Y135.485 E54.58754
G1 X204.076 Y137.992 E54.67114
G1 X204.325 Y140.511 E54.75533
G1 X204.672 Y143.211 E54.84587
G1 X204.777 Y143.942 E54.87043
G1 X204.877 Y145.108 E54.90935
G1 X204.89 Y145.715 E54.92955
G1 X204.889 Y197.605 E56.65541
G1 X204.88 Y198.332 E56.6796
G1 X204.829 Y199.234 E56.70965
G1 X204.698 Y200.128 E56.7397
G1 X204.489 Y201.006 E56.76972
G1 X204.203 Y201.863 E56.79977
G1 X203.842 Y202.691 E56.82981
G1 X203.41 Y203.483 E56.85981
G1 X202.909 Y204.235 E56.88987
G1 X202.343 Y204.939 E56.91991
G1 X201.718 Y205.59 E56.94993
G1 X201.037 Y206.184 E56.97998
G1 X200.306 Y206.715 E57.01003
G1 X199.532 Y207.179 E57.04005
G1 X198.719 Y207.573 E57.0701
G1 X197.875 Y207.893 E57.10012
G1 X197.005 Y208.138 E57.13018
G1 X196.118 Y208.304 E57.1602
G1 X194.967 Y208.402 E57.19862
G1 X194.36 Y208.415 E57.21881
G1 X88.906 Y208.414 E60.72622
G1 X88.204 Y208.404 E60.74958
G1 X87.302 Y208.351 E60.77963
G1 X86.409 Y208.219 E60.80965
G1 X85.531 Y208.008 E60.83969
G1 X84.675 Y207.72 E60.86972
G1 X83.847 Y207.358 E60.89978
G1 X83.055 Y206.924 E60.92982
G1 X82.305 Y206.421 E60.95985
G1 X81.602 Y205.855 E60.98987
G1 X80.952 Y205.228 E61.01991
G1 X80.244 Y204.398 E61.0562
G1 X79.466 Y203.38 E61.09881
G1 X79.357 Y203.249 E61.10448
G1 X78.768 Y202.471 E61.13693
G1 X77.169 Y200.479 E61.22189
G1 X75.53 Y198.552 E61.30603
G1 X73.843 Y196.678 E61.3899
G1 X72.08 Y194.829 E61.47487
G1 X70.261 Y193.024 E61.5601
G1 X68.43 Y191.309 E61.64354
G1 X66.523 Y189.622 E61.72823
G1 X64.577 Y187.994 E61.81261
G1 X62.567 Y186.408 E61.89777
G1 X60.555 Y184.91 E61.9812
G1 X58.462 Y183.444 E62.06619
G1 X56.356 Y182.054 E62.15012
G1 X54.165 Y180.696 E62.23586
G1 X51.994 Y179.433 E62.31939
G1 X49.766 Y178.22 E62.40377
G1 X47.495 Y177.067 E62.48848
G1 X45.198 Y175.981 E62.57299
G1 X42.882 Y174.964 E62.65712
G1 X40.485 Y173.993 E62.74313
G1 X38.105 Y173.105 E62.82762
G1 X36.053 Y172.398 E62.89981
G1 X35.213 Y172.066 E62.92985
G1 X34.405 Y171.661 E62.95991
G1 X33.637 Y171.187 E62.98993
G1 X32.914 Y170.646 E63.01996
G1 X32.241 Y170.043 E63.05002
G1 X31.624 Y169.384 E63.08004
G1 X31.068 Y168.672 E63.11009
G1 X30.578 Y167.914 E63.14011
G1 X30.156 Y167.115 E63.17016
G1 X29.806 Y166.282 E63.20022
G1 X29.532 Y165.422 E63.23024
G1 X29.335 Y164.541 E63.26026
G1 X29.216 Y163.645 E63.29033
G1 X29.182 Y163.071 E63.30945
G1 X29.167 Y162.432 E63.33071
G1 X29.168 Y61.796 E66.67788
G1 X29.177 Y61.107 E66.70079
G1 X29.229 Y60.205 E66.73085
G1 X29.36 Y59.312 E66.76086
G1 X29.57 Y58.433 E66.79092
G1 X29.856 Y57.577 E66.82094
G1 X30.218 Y56.749 E66.851
G1 X30.651 Y55.957 E66.88102
G1 X31.152 Y55.206 E66.91105
