;FLAVOR:Marlin
;TIME:712
;Filament used: 0.280882m
;Layer height: 0.2
;MINX:100.845
;MINY:95.694
;MINZ:0.2
;MAXX:134.155
;MAXY:139.362
;MAXZ:8.4
;Generated with Cura_SteamEngine 4.13.0
M140 S60
M105
M190 S60
M104 S200
M105
M109 S200
M82 ;absolute extrusion mode
; Ender 3 Custom Start G-code
G92 E0 ; Reset Extruder
G28 ; Home all axes
G1 Z2.0 F3000 ; Move Z Axis up little to prevent scratching of Heat Bed
G1 X0.1 Y20 Z0.3 F5000.0 ; Move to start position
G1 X0.1 Y200.0 Z0.3 F1500.0 E15 ; Draw the first line
G1 X0.4 Y200.0 Z0.3 F5000.0 ; Move to side a little
G1 X0.4 Y20 Z0.3 F1500.0 E30 ; Draw the second line
G92 E0 ; Reset Extruder
G1 Z2.0 F3000 ; Move Z Axis up little to prevent scratching of Heat Bed
G1 X5 Y20 Z0.3 F5000.0 ; Move over to prevent blob squish
G92 E0
G92 E0
G1 F1500 E-6.5
;LAYER_COUNT:42
;LAYER:0
M107
G0 F6000 X104.716 Y99.976 Z0.2
;TYPE:SKIRT
G1 F1500 E0
G1 F1200 X105.346 Y99.356 E0.0294
G1 X105.542 Y99.178 E0.03821
G1 X106.376 Y98.492 E0.07412
G1 X106.594 Y98.33 E0.08316
G1 X107.325 Y97.831 E0.11259
G1 X107.453 Y97.751 E0.11761
G1 X108.21 Y97.318 E0.14662
G1 X108.489 Y97.173 E0.15708
G1 X109.418 Y96.744 E0.19111
G1 X109.568 Y96.683 E0.1965
G1 X110.38 Y96.39 E0.22521
G1 X110.616 Y96.315 E0.23345
G1 X111.594 Y96.053 E0.26712
G1 X111.845 Y95.998 E0.27567
G1 X113.059 Y95.802 E0.31657
G1 X113.299 Y95.777 E0.32459
G1 X114.22 Y95.72 E0.35528
G1 X115.425 Y95.696 E0.39537
G1 X115.644 Y95.694 E0.40266
G1 X119.356 Y95.694 E0.52612
G1 X119.574 Y95.696 E0.53337
G1 X120.785 Y95.72 E0.57365
G1 X121.824 Y95.79 E0.60829
G1 X122.111 Y95.823 E0.6179
G1 X123.037 Y95.97 E0.64908
G1 X123.581 Y96.094 E0.66764
G1 X123.878 Y96.17 E0.67784
G1 X124.569 Y96.372 E0.70178
G1 X125.163 Y96.582 E0.72274
G1 X125.404 Y96.675 E0.73133
G1 X126.339 Y97.086 E0.7653
G1 X126.5 Y97.166 E0.77128
G1 X127.22 Y97.558 E0.79854
G1 X127.471 Y97.707 E0.80825
G1 X128.256 Y98.22 E0.83944
G1 X128.676 Y98.535 E0.8569
G1 X128.981 Y98.776 E0.86983
G1 X129.227 Y98.977 E0.8804
G1 X130.092 Y99.78 E0.91966
G1 X130.269 Y99.963 E0.92812
G1 X130.847 Y100.61 E0.95698
G1 X130.979 Y100.77 E0.96388
G1 X131.564 Y101.547 E0.99623
G1 X131.717 Y101.77 E1.00522
G1 X132.268 Y102.66 E1.04004
G1 X132.37 Y102.844 E1.04703
G1 X132.734 Y103.561 E1.07378
G1 X132.832 Y103.773 E1.08155
G1 X133.223 Y104.736 E1.11612
G1 X133.298 Y104.949 E1.12363
G1 X133.54 Y105.728 E1.15076
G1 X133.589 Y105.909 E1.15699
G1 X133.786 Y106.774 E1.1865
G1 X133.833 Y107.027 E1.19506
G1 X133.963 Y107.936 E1.2256
G1 X133.984 Y108.145 E1.23259
G1 X134.038 Y109.066 E1.26327
G1 X134.041 Y109.25 E1.26939
G1 X134.041 Y109.583 E1.28047
G1 X134.024 Y110.741 E1.31899
G1 X134.003 Y111.484 E1.34371
G1 X134.001 Y113.995 E1.42723
G1 X134.094 Y117.202 E1.53394
G1 X134.098 Y117.681 E1.54987
G1 X134.079 Y118.96 E1.59241
G1 X134.059 Y119.696 E1.6169
G1 X134.061 Y122.229 E1.70115
G1 X134.133 Y124.701 E1.7834
G1 X134.144 Y124.964 E1.79216
G1 X134.154 Y125.397 E1.80656
G1 X134.155 Y125.678 E1.81591
G1 X134.117 Y126.634 E1.84773
G1 X134.098 Y126.861 E1.85531
G1 X133.917 Y128.128 E1.89788
G1 X133.838 Y128.518 E1.91111
G1 X133.54 Y129.667 E1.95059
G1 X133.471 Y129.884 E1.95817
G1 X133.349 Y130.246 E1.97087
G1 X133.052 Y130.997 E1.99773
G1 X132.971 Y131.182 E2.00445
G1 X132.624 Y131.903 E2.03106
G1 X132.5 Y132.138 E2.0399
G1 X131.978 Y133.025 E2.07413
G1 X131.859 Y133.207 E2.08136
G1 X131.313 Y133.969 E2.11254
G1 X131.147 Y134.181 E2.1215
G1 X130.59 Y134.837 E2.15012
G1 X130.467 Y134.971 E2.15617
G1 X129.824 Y135.616 E2.18646
G1 X129.629 Y135.796 E2.19529
G1 X128.834 Y136.463 E2.2298
G1 X128.666 Y136.591 E2.23683
G1 X127.979 Y137.074 E2.26476
G1 X127.752 Y137.221 E2.27376
G1 X126.762 Y137.791 E2.31175
G1 X126.538 Y137.905 E2.32011
G1 X125.742 Y138.272 E2.34926
G1 X125.514 Y138.366 E2.35747
G1 X124.547 Y138.712 E2.39163
G1 X124.384 Y138.762 E2.3973
G1 X123.616 Y138.968 E2.42374
G1 X123.315 Y139.037 E2.43401
G1 X122.19 Y139.234 E2.472
G1 X121.977 Y139.26 E2.47914
G1 X121.274 Y139.323 E2.50261
G1 X121.117 Y139.332 E2.50784
G1 X120.759 Y139.347 E2.51976
G1 X120.273 Y139.359 E2.53593
G1 X120.001 Y139.362 E2.54498
G1 X115.146 Y139.361 E2.70646
G1 X114.366 Y139.35 E2.7324
G1 X113.563 Y139.309 E2.75914
G1 X113.254 Y139.282 E2.76946
G1 X112.106 Y139.121 E2.80802
G1 X111.824 Y139.066 E2.81757
G1 X110.895 Y138.842 E2.84936
G1 X110.679 Y138.78 E2.85683
G1 X109.723 Y138.457 E2.89039
G1 X109.479 Y138.362 E2.8991
G1 X108.57 Y137.961 E2.93215
G1 X108.371 Y137.862 E2.93954
G1 X107.54 Y137.402 E2.97113
G1 X107.327 Y137.272 E2.97943
G1 X106.578 Y136.772 E3.00938
G1 X106.423 Y136.659 E3.01576
G1 X105.767 Y136.141 E3.04356
G1 X105.55 Y135.956 E3.05305
G1 X104.687 Y135.136 E3.09264
G1 X104.552 Y134.993 E3.09918
G1 X104.096 Y134.479 E3.12204
G1 X103.957 Y134.312 E3.12926
G1 X103.451 Y133.655 E3.15685
G1 X103.32 Y133.471 E3.16436
G1 X102.737 Y132.56 E3.20033
G1 X102.588 Y132.3 E3.2103
G1 X102.064 Y131.261 E3.249
G1 X101.976 Y131.061 E3.25627
G1 X101.7 Y130.372 E3.28096
G1 X101.619 Y130.148 E3.28888
G1 X101.327 Y129.214 E3.32143
G1 X101.27 Y128.998 E3.32886
G1 X101.058 Y128.013 E3.36237
G1 X101.015 Y127.757 E3.371
G1 X100.901 Y126.844 E3.4016
G1 X100.883 Y126.627 E3.40885
G1 X100.845 Y125.718 E3.43911
G1 X100.845 Y125.505 E3.44619
G1 X100.855 Y125.046 E3.46146
G1 X100.866 Y124.778 E3.47038
G1 X100.94 Y122.202 E3.5561
G1 X100.94 Y119.662 E3.64058
G1 X100.922 Y119.02 E3.66194
G1 X100.902 Y117.633 E3.70807
G1 X100.903 Y117.264 E3.72035
G1 X100.912 Y116.904 E3.73232
G1 X100.923 Y116.654 E3.74065
G1 X100.996 Y114.028 E3.82802
G1 X100.996 Y111.535 E3.91094
G1 X100.981 Y110.968 E3.92981
G1 X100.959 Y109.515 E3.97814
G1 X100.981 Y108.631 E4.00755
G1 X100.997 Y108.386 E4.01571
G1 X101.095 Y107.479 E4.04606
G1 X101.125 Y107.278 E4.05282
G1 X101.316 Y106.302 E4.08589
G1 X101.388 Y106.006 E4.09603
G1 X101.691 Y104.979 E4.13164
G1 X101.757 Y104.79 E4.1383
G1 X102.11 Y103.905 E4.16999
G1 X102.213 Y103.676 E4.17834
G1 X102.669 Y102.775 E4.21193
G1 X102.786 Y102.568 E4.21984
G1 X103.201 Y101.893 E4.24619
G1 X103.306 Y101.735 E4.2525
G1 X103.866 Y100.966 E4.28414
G1 X104.035 Y100.754 E4.29316
G1 X104.611 Y100.088 E4.32244
G1 X104.716 Y99.976 E4.32755
G0 F6000 X105.008 Y100.249
G1 F1200 X105.615 Y99.652 E4.35587
G1 X105.811 Y99.474 E4.36467
G1 X106.615 Y98.813 E4.39929
G1 X106.833 Y98.651 E4.40833
G1 X107.537 Y98.17 E4.43668
G1 X107.665 Y98.09 E4.4417
G1 X108.395 Y97.673 E4.46967
G1 X108.674 Y97.528 E4.48012
G1 X109.569 Y97.115 E4.51291
G1 X109.719 Y97.054 E4.51829
G1 X110.502 Y96.771 E4.54599
G1 X110.738 Y96.696 E4.55422
G1 X111.679 Y96.444 E4.58662
G1 X111.93 Y96.389 E4.59517
G1 X113.101 Y96.2 E4.63462
G1 X113.341 Y96.175 E4.64265
G1 X114.228 Y96.12 E4.6722
G1 X115.433 Y96.096 E4.71229
G1 X115.644 Y96.094 E4.71931
G1 X119.356 Y96.094 E4.84277
G1 X119.566 Y96.096 E4.84976
G1 X120.777 Y96.12 E4.89004
G1 X121.778 Y96.187 E4.92341
G1 X122.065 Y96.22 E4.93302
G1 X122.974 Y96.365 E4.96363
G1 X123.482 Y96.482 E4.98097
G1 X123.779 Y96.558 E4.99117
G1 X124.445 Y96.752 E5.01424
G1 X125.019 Y96.955 E5.03449
G1 X125.26 Y97.048 E5.04308
G1 X126.161 Y97.444 E5.07582
G1 X126.322 Y97.524 E5.0818
G1 X127.016 Y97.902 E5.10808
G1 X127.267 Y98.051 E5.11779
G1 X128.037 Y98.555 E5.1484
G1 X128.428 Y98.849 E5.16467
G1 X128.733 Y99.09 E5.1776
G1 X128.971 Y99.284 E5.18781
G1 X129.804 Y100.058 E5.22563
G1 X129.981 Y100.241 E5.2341
G1 X130.539 Y100.864 E5.26192
G1 X130.671 Y101.024 E5.26881
G1 X131.235 Y101.773 E5.3
G1 X131.388 Y101.996 E5.30899
G1 X131.918 Y102.854 E5.34254
G1 X132.02 Y103.038 E5.34953
G1 X132.371 Y103.729 E5.37531
G1 X132.469 Y103.941 E5.38308
G1 X132.845 Y104.868 E5.41635
G1 X132.92 Y105.081 E5.42386
G1 X133.154 Y105.832 E5.45003
G1 X133.203 Y106.013 E5.45626
G1 X133.393 Y106.847 E5.48471
G1 X133.44 Y107.1 E5.49327
G1 X133.565 Y107.976 E5.5227
G1 X133.586 Y108.185 E5.52969
G1 X133.638 Y109.072 E5.55924
G1 X133.641 Y109.256 E5.56536
G1 X133.641 Y109.578 E5.57607
G1 X133.624 Y110.729 E5.61436
G1 X133.603 Y111.471 E5.63905
G1 X133.601 Y113.972 E5.72223
G1 X133.694 Y117.213 E5.83007
G1 X133.698 Y117.675 E5.84544
G1 X133.679 Y118.949 E5.88782
G1 X133.659 Y119.685 E5.9123
G1 X133.661 Y122.205 E5.99612
G1 X133.736 Y124.806 E6.08266
G1 X133.744 Y124.982 E6.08852
G1 X133.754 Y125.398 E6.10236
G1 X133.755 Y125.679 E6.11171
G1 X133.718 Y126.601 E6.1424
G1 X133.699 Y126.828 E6.14998
G1 X133.525 Y128.048 E6.19097
G1 X133.446 Y128.438 E6.2042
G1 X133.159 Y129.546 E6.24227
G1 X133.09 Y129.763 E6.24984
G1 X132.972 Y130.113 E6.26213
G1 X132.686 Y130.836 E6.28799
G1 X132.605 Y131.021 E6.2947
G1 X132.27 Y131.717 E6.3204
G1 X132.146 Y131.952 E6.32923
G1 X131.643 Y132.806 E6.3622
G1 X131.524 Y132.988 E6.36943
G1 X130.998 Y133.722 E6.39946
G1 X130.832 Y133.934 E6.40842
G1 X130.295 Y134.567 E6.43603
G1 X130.172 Y134.701 E6.44208
G1 X129.553 Y135.322 E6.47124
G1 X129.358 Y135.502 E6.48007
G1 X128.592 Y136.145 E6.51333
G1 X128.424 Y136.273 E6.52036
G1 X127.762 Y136.738 E6.54726
G1 X127.535 Y136.885 E6.55626
G1 X126.581 Y137.435 E6.59288
G1 X126.357 Y137.549 E6.60124
G1 X125.589 Y137.902 E6.62936
G1 X125.361 Y137.996 E6.63756
G1 X124.43 Y138.33 E6.67046
G1 X124.267 Y138.38 E6.67613
G1 X123.526 Y138.578 E6.70164
G1 X123.225 Y138.647 E6.71191
G1 X122.141 Y138.837 E6.74851
G1 X121.928 Y138.863 E6.75565
G1 X121.251 Y138.924 E6.77826
G1 X121.094 Y138.933 E6.78349
G1 X120.749 Y138.947 E6.79497
G1 X120.263 Y138.959 E6.81114
G1 X120.001 Y138.962 E6.81986
G1 X115.152 Y138.961 E6.98114
G1 X114.372 Y138.95 E7.00708
G1 X113.598 Y138.911 E7.03286
G1 X113.289 Y138.884 E7.04317
G1 X112.183 Y138.728 E7.08032
G1 X111.901 Y138.673 E7.08988
G1 X111.005 Y138.458 E7.12053
G1 X110.789 Y138.396 E7.128
G1 X109.868 Y138.085 E7.16033
G1 X109.624 Y137.99 E7.16904
G1 X108.749 Y137.602 E7.20088
G1 X108.55 Y137.503 E7.20827
G1 X107.749 Y137.061 E7.2387
G1 X107.536 Y136.931 E7.247
G1 X106.814 Y136.448 E7.27589
G1 X106.659 Y136.335 E7.28227
G1 X106.026 Y135.836 E7.30908
G1 X105.809 Y135.651 E7.31856
G1 X104.978 Y134.862 E7.35668
G1 X104.843 Y134.719 E7.36322
G1 X104.404 Y134.223 E7.38525
G1 X104.265 Y134.056 E7.39247
G1 X103.777 Y133.423 E7.41906
G1 X103.646 Y133.239 E7.42657
G1 X103.084 Y132.361 E7.46124
G1 X102.935 Y132.101 E7.47121
G1 X102.43 Y131.1 E7.5085
G1 X102.342 Y130.9 E7.51577
G1 X102.076 Y130.236 E7.53956
G1 X101.995 Y130.012 E7.54748
G1 X101.714 Y129.112 E7.57884
G1 X101.657 Y128.896 E7.58627
G1 X101.452 Y127.947 E7.61856
G1 X101.409 Y127.691 E7.6272
G1 X101.299 Y126.811 E7.65669
G1 X101.281 Y126.594 E7.66393
G1 X101.245 Y125.718 E7.69309
G1 X101.245 Y125.505 E7.70018
G1 X101.254 Y125.062 E7.71492
G1 X101.265 Y124.802 E7.72357
G1 X101.34 Y122.179 E7.81085
G1 X101.34 Y119.685 E7.8938
G1 X101.322 Y119.014 E7.91613
G1 X101.302 Y117.627 E7.96226
G1 X101.303 Y117.268 E7.9742
G1 X101.312 Y116.921 E7.98575
G1 X101.322 Y116.683 E7.99367
G1 X101.396 Y114.039 E8.08164
G1 X101.396 Y111.524 E8.16529
G1 X101.381 Y110.961 E8.18403
G1 X101.359 Y109.508 E8.23236
G1 X101.381 Y108.657 E8.26067
G1 X101.397 Y108.412 E8.26884
G1 X101.49 Y107.538 E8.29807
G1 X101.52 Y107.337 E8.30483
G1 X101.704 Y106.397 E8.33669
G1 X101.776 Y106.101 E8.34682
G1 X102.069 Y105.111 E8.38116
G1 X102.135 Y104.922 E8.38782
G1 X102.475 Y104.069 E8.41836
G1 X102.578 Y103.84 E8.42671
G1 X103.017 Y102.972 E8.45906
G1 X103.134 Y102.765 E8.46697
G1 X103.534 Y102.114 E8.49239
G1 X103.639 Y101.956 E8.4987
G1 X104.178 Y101.216 E8.52914
G1 X104.347 Y101.004 E8.53816
G1 X104.903 Y100.361 E8.56643
G1 X105.008 Y100.249 E8.57154
G0 F6000 X105.3 Y100.523
G1 F1200 X105.884 Y99.948 E8.5988
G1 X106.08 Y99.77 E8.60761
G1 X106.853 Y99.134 E8.6409
G1 X107.071 Y98.972 E8.64993
G1 X107.749 Y98.509 E8.67724
G1 X107.877 Y98.429 E8.68226
G1 X108.579 Y98.028 E8.70915
G1 X108.858 Y97.883 E8.71961
G1 X109.72 Y97.485 E8.75119
G1 X109.87 Y97.424 E8.75657
G1 X110.623 Y97.152 E8.7832
G1 X110.859 Y97.077 E8.79144
G1 X111.765 Y96.834 E8.82264
G1 X112.016 Y96.779 E8.83118
G1 X113.142 Y96.598 E8.86911
G1 X113.382 Y96.573 E8.87714
G1 X114.236 Y96.52 E8.9056
G1 X115.441 Y96.496 E8.94568
G1 X115.644 Y96.494 E8.95244
G1 X119.356 Y96.494 E9.0759
G1 X119.558 Y96.496 E9.08262
G1 X120.769 Y96.52 E9.1229
G1 X121.732 Y96.585 E9.15501
G1 X122.019 Y96.618 E9.16461
G1 X122.911 Y96.761 E9.19466
G1 X123.383 Y96.869 E9.21077
G1 X123.68 Y96.945 E9.22096
G1 X124.321 Y97.132 E9.24317
G1 X124.875 Y97.328 E9.26272
G1 X125.116 Y97.421 E9.27131
G1 X125.983 Y97.803 E9.30282
G1 X126.144 Y97.883 E9.3088
G1 X126.812 Y98.246 E9.33408
G1 X127.063 Y98.395 E9.34379
G1 X127.818 Y98.89 E9.37382
G1 X128.18 Y99.163 E9.3889
G1 X128.485 Y99.404 E9.40183
G1 X128.715 Y99.591 E9.41169
G1 X129.517 Y100.336 E9.4481
G1 X129.694 Y100.519 E9.45656
G1 X130.23 Y101.119 E9.48332
G1 X130.362 Y101.279 E9.49022
G1 X130.905 Y101.999 E9.52022
G1 X131.058 Y102.222 E9.52921
G1 X131.568 Y103.048 E9.5615
G1 X131.67 Y103.232 E9.5685
G1 X132.008 Y103.897 E9.59331
G1 X132.106 Y104.109 E9.60108
G1 X132.468 Y105.001 E9.63309
G1 X132.543 Y105.214 E9.6406
G1 X132.768 Y105.937 E9.66579
G1 X132.817 Y106.118 E9.67203
G1 X132.999 Y106.92 E9.69938
G1 X133.046 Y107.173 E9.70794
G1 X133.167 Y108.016 E9.73626
G1 X133.188 Y108.225 E9.74325
G1 X133.238 Y109.079 E9.7717
G1 X133.241 Y109.263 E9.77782
G1 X133.241 Y109.572 E9.7881
G1 X133.224 Y110.718 E9.82622
G1 X133.203 Y111.46 E9.85091
G1 X133.201 Y113.984 E9.93486
G1 X133.295 Y117.225 E10.0427
G1 X133.298 Y117.67 E10.0575
G1 X133.279 Y118.939 E10.09971
G1 X133.259 Y119.676 E10.12423
G1 X133.261 Y122.217 E10.20875
G1 X133.334 Y124.744 E10.29283
G1 X133.345 Y124.999 E10.30132
G1 X133.354 Y125.4 E10.31466
G1 X133.355 Y125.681 E10.32401
G1 X133.319 Y126.568 E10.35353
G1 X133.3 Y126.795 E10.36111
G1 X133.133 Y127.969 E10.40055
G1 X133.054 Y128.359 E10.41379
G1 X132.777 Y129.425 E10.45042
G1 X132.708 Y129.642 E10.45799
G1 X132.595 Y129.98 E10.46985
G1 X132.32 Y130.676 E10.49474
G1 X132.239 Y130.861 E10.50145
G1 X131.916 Y131.53 E10.52616
G1 X131.792 Y131.765 E10.535
G1 X131.308 Y132.587 E10.56673
G1 X131.189 Y132.769 E10.57396
G1 X130.683 Y133.475 E10.60285
G1 X130.517 Y133.687 E10.6118
G1 X130 Y134.296 E10.63837
G1 X129.877 Y134.43 E10.64442
G1 X129.281 Y135.028 E10.67251
G1 X129.086 Y135.208 E10.68133
G1 X128.35 Y135.826 E10.7133
G1 X128.182 Y135.954 E10.72032
G1 X127.544 Y136.403 E10.74627
G1 X127.317 Y136.55 E10.75526
G1 X126.399 Y137.078 E10.79049
G1 X126.175 Y137.192 E10.79885
G1 X125.437 Y137.532 E10.82587
G1 X125.209 Y137.626 E10.83408
G1 X124.312 Y137.948 E10.86577
G1 X124.149 Y137.998 E10.87144
G1 X123.437 Y138.188 E10.89595
G1 X123.136 Y138.257 E10.90623
G1 X122.093 Y138.44 E10.94145
G1 X121.88 Y138.466 E10.94858
G1 X121.228 Y138.524 E10.97035
G1 X121.071 Y138.533 E10.97558
G1 X120.739 Y138.547 E10.98664
G1 X120.253 Y138.559 E11.00281
G1 X120.001 Y138.562 E11.01119
G1 X115.157 Y138.561 E11.1723
G1 X114.377 Y138.55 E11.19825
G1 X113.633 Y138.512 E11.22302
G1 X113.324 Y138.485 E11.23334
G1 X112.259 Y138.335 E11.26911
G1 X111.977 Y138.28 E11.27867
G1 X111.116 Y138.073 E11.30812
G1 X110.9 Y138.011 E11.31559
G1 X110.013 Y137.712 E11.34673
G1 X109.769 Y137.617 E11.35544
G1 X108.927 Y137.244 E11.38607
G1 X108.728 Y137.145 E11.39346
G1 X107.957 Y136.72 E11.42274
G1 X107.744 Y136.59 E11.43104
G1 X107.049 Y136.125 E11.45885
G1 X106.894 Y136.012 E11.46523
G1 X106.286 Y135.532 E11.491
G1 X106.069 Y135.347 E11.50048
G1 X105.269 Y134.587 E11.53718
G1 X105.134 Y134.444 E11.54372
G1 X104.711 Y133.967 E11.56493
G1 X104.572 Y133.8 E11.57215
G1 X104.103 Y133.191 E11.59772
G1 X103.972 Y133.007 E11.60523
G1 X103.431 Y132.163 E11.63858
G1 X103.282 Y131.903 E11.64854
G1 X102.796 Y130.939 E11.68445
G1 X102.708 Y130.739 E11.69172
G1 X102.452 Y130.1 E11.71461
G1 X102.371 Y129.876 E11.72254
G1 X102.101 Y129.01 E11.75271
G1 X102.044 Y128.794 E11.76014
G1 X101.847 Y127.881 E11.7912
G1 X101.804 Y127.625 E11.79984
G1 X101.698 Y126.778 E11.82823
G1 X101.68 Y126.561 E11.83547
G1 X101.645 Y125.718 E11.86353
G1 X101.645 Y125.505 E11.87062
G1 X101.654 Y125.079 E11.88479
G1 X101.664 Y124.832 E11.89301
G1 X101.74 Y122.19 E11.98092
G1 X101.74 Y119.674 E12.0646
G1 X101.722 Y119.008 E12.08676
G1 X101.702 Y117.621 E12.1329
