;FLAVOR:Marlin
;TIME:726
;Filament used: 0.291873m
;Layer height: 0.2
;MINX:100.787
;MINY:95.61
;MINZ:0.2
;MAXX:134.213
;MAXY:139.39
;MAXZ:8.4
;Generated with Cura_SteamEngine 4.13.0
M140 S60
M105
M190 S60
M104 S200
M105
M109 S200
M82 ;absolute extrusion mode
; Ender 3 Custom Start G-code
G92 E0 ; Reset Extruder
G28 ; Home all axes
G1 Z2.0 F3000 ; Move Z Axis up little to prevent scratching of Heat Bed
G1 X0.1 Y20 Z0.3 F5000.0 ; Move to start position
G1 X0.1 Y200.0 Z0.3 F1500.0 E15 ; Draw the first line
G1 X0.4 Y200.0 Z0.3 F5000.0 ; Move to side a little
G1 X0.4 Y20 Z0.3 F1500.0 E30 ; Draw the second line
G92 E0 ; Reset Extruder
G1 Z2.0 F3000 ; Move Z Axis up little to prevent scratching of Heat Bed
G1 X5 Y20 Z0.3 F5000.0 ; Move over to prevent blob squish
G92 E0
G92 E0
G1 F1500 E-6.5
;LAYER_COUNT:43
;LAYER:0
M107
G0 F6000 X104.521 Y99.969 Z0.2
;TYPE:SKIRT
G1 F1500 E0
G1 F1200 X104.673 Y99.81 E0.00732
G1 X105.28 Y99.221 E0.03545
G1 X105.464 Y99.056 E0.04367
G1 X106.193 Y98.457 E0.07505
G1 X106.383 Y98.314 E0.08296
G1 X107.2 Y97.755 E0.11588
G1 X107.358 Y97.657 E0.12207
G1 X108.033 Y97.271 E0.14793
G1 X108.299 Y97.131 E0.15793
G1 X109.327 Y96.656 E0.19559
G1 X109.514 Y96.581 E0.20229
G1 X110.326 Y96.291 E0.23097
G1 X110.585 Y96.21 E0.24
G1 X111.476 Y95.972 E0.27067
G1 X111.687 Y95.925 E0.27786
G1 X112.638 Y95.757 E0.30998
G1 X112.812 Y95.734 E0.31582
G1 X114.022 Y95.641 E0.35618
G1 X115.403 Y95.612 E0.40212
G1 X115.634 Y95.61 E0.40981
G1 X119.366 Y95.61 E0.53394
G1 X119.597 Y95.612 E0.54162
G1 X120.978 Y95.641 E0.58756
G1 X121.914 Y95.701 E0.61876
G1 X122.585 Y95.794 E0.64129
G1 X122.886 Y95.845 E0.65144
G1 X123.905 Y96.067 E0.68613
G1 X124.169 Y96.138 E0.69522
G1 X125.384 Y96.543 E0.73782
G1 X125.655 Y96.651 E0.74752
G1 X126.395 Y96.977 E0.77442
G1 X126.543 Y97.049 E0.77989
G1 X127.375 Y97.5 E0.81137
G1 X127.651 Y97.665 E0.82206
G1 X128.557 Y98.269 E0.85828
G1 X128.7 Y98.375 E0.8642
G1 X129.302 Y98.854 E0.88979
G1 X129.496 Y99.02 E0.89828
G1 X130.254 Y99.734 E0.93291
G1 X130.426 Y99.912 E0.94115
G1 X131.083 Y100.656 E0.97416
G1 X131.232 Y100.841 E0.98206
G1 X131.721 Y101.497 E1.00927
G1 X131.832 Y101.658 E1.01578
G1 X132.305 Y102.406 E1.04521
G1 X132.444 Y102.647 E1.05447
G1 X132.94 Y103.616 E1.09067
G1 X133.038 Y103.833 E1.09859
G1 X133.354 Y104.611 E1.12652
G1 X133.416 Y104.782 E1.13257
G1 X133.677 Y105.598 E1.16106
G1 X133.747 Y105.851 E1.1698
G1 X133.974 Y106.852 E1.20393
G1 X134.022 Y107.121 E1.21302
G1 X134.153 Y108.112 E1.24627
G1 X134.173 Y108.345 E1.25405
G1 X134.212 Y109.117 E1.27976
G1 X134.213 Y109.509 E1.2928
G1 X134.203 Y110.152 E1.31418
G1 X134.145 Y112.191 E1.38203
G1 X134.145 Y114.684 E1.46495
G1 X134.208 Y116.98 E1.54134
G1 X134.213 Y117.318 E1.55258
G1 X134.213 Y117.649 E1.56359
G1 X134.203 Y118.252 E1.58365
G1 X134.145 Y120.291 E1.6515
G1 X134.145 Y122.784 E1.73441
G1 X134.208 Y125.075 E1.81064
G1 X134.213 Y125.403 E1.82155
G1 X134.205 Y126.011 E1.84178
G1 X134.194 Y126.286 E1.85093
G1 X134.082 Y127.473 E1.89059
G1 X134.031 Y127.814 E1.90205
G1 X133.81 Y128.908 E1.93917
G1 X133.762 Y129.096 E1.94563
G1 X133.527 Y129.892 E1.97323
G1 X133.444 Y130.138 E1.98187
G1 X133.071 Y131.093 E2.01597
G1 X132.97 Y131.32 E2.02423
G1 X132.53 Y132.2 E2.05696
G1 X132.437 Y132.367 E2.06331
G1 X132.008 Y133.073 E2.09079
G1 X131.847 Y133.317 E2.10051
G1 X131.226 Y134.167 E2.13553
G1 X131.088 Y134.338 E2.14283
G1 X130.479 Y135.031 E2.17352
G1 X130.327 Y135.19 E2.18083
G1 X129.735 Y135.765 E2.20828
G1 X129.555 Y135.927 E2.21634
G1 X128.81 Y136.54 E2.24843
G1 X128.616 Y136.686 E2.2565
G1 X127.8 Y137.245 E2.2894
G1 X127.642 Y137.343 E2.29558
G1 X126.967 Y137.729 E2.32145
G1 X126.701 Y137.869 E2.33144
G1 X125.853 Y138.27 E2.36264
G1 X125.324 Y138.478 E2.38155
G1 X124.954 Y138.612 E2.39464
G1 X123.779 Y138.964 E2.43543
G1 X123.492 Y139.033 E2.44525
G1 X122.362 Y139.243 E2.48348
G1 X122.188 Y139.266 E2.48932
G1 X120.978 Y139.359 E2.52968
G1 X119.597 Y139.388 E2.57562
G1 X119.366 Y139.39 E2.58331
G1 X115.634 Y139.39 E2.70743
G1 X115.403 Y139.388 E2.71512
G1 X114.022 Y139.359 E2.76106
G1 X113.086 Y139.299 E2.79225
G1 X112.415 Y139.206 E2.81479
G1 X112.114 Y139.155 E2.82494
G1 X111.095 Y138.933 E2.85963
G1 X110.831 Y138.862 E2.86872
G1 X109.683 Y138.484 E2.90892
G1 X109.463 Y138.398 E2.91677
G1 X108.811 Y138.118 E2.94038
G1 X108.612 Y138.025 E2.94768
G1 X107.585 Y137.478 E2.98638
G1 X107.305 Y137.309 E2.99726
G1 X106.429 Y136.721 E3.03235
G1 X106.289 Y136.617 E3.03815
G1 X105.697 Y136.145 E3.06333
G1 X105.503 Y135.979 E3.07183
G1 X104.73 Y135.249 E3.10719
G1 X104.55 Y135.062 E3.11582
G1 X103.868 Y134.284 E3.15023
G1 X103.716 Y134.093 E3.15835
G1 X103.248 Y133.459 E3.18456
G1 X103.148 Y133.313 E3.19045
G1 X102.661 Y132.534 E3.221
G1 X102.516 Y132.279 E3.23076
G1 X102.042 Y131.346 E3.26557
G1 X101.95 Y131.141 E3.27304
G1 X101.654 Y130.411 E3.29924
G1 X101.593 Y130.244 E3.30515
G1 X101.313 Y129.364 E3.33587
G1 X101.244 Y129.111 E3.34459
G1 X101.03 Y128.167 E3.37678
G1 X100.981 Y127.895 E3.38598
G1 X100.845 Y126.862 E3.42063
G1 X100.825 Y126.623 E3.42861
G1 X100.788 Y125.821 E3.45531
G1 X100.787 Y125.439 E3.46802
G1 X100.797 Y124.848 E3.48768
G1 X100.855 Y122.809 E3.55552
G1 X100.855 Y120.317 E3.63841
G1 X100.792 Y118.02 E3.71483
G1 X100.787 Y117.682 E3.72608
G1 X100.787 Y117.351 E3.73708
G1 X100.797 Y116.748 E3.75714
G1 X100.855 Y114.709 E3.82499
G1 X100.855 Y112.215 E3.90794
G1 X100.794 Y110.025 E3.98081
G1 X100.787 Y109.524 E3.99747
G1 X100.799 Y108.858 E4.01963
G1 X100.811 Y108.61 E4.02788
G1 X100.93 Y107.446 E4.0668
G1 X100.984 Y107.1 E4.07845
G1 X101.209 Y106.017 E4.11524
G1 X101.256 Y105.837 E4.12143
G1 X101.472 Y105.111 E4.14662
G1 X101.552 Y104.873 E4.15497
G1 X101.949 Y103.861 E4.19113
G1 X102.058 Y103.619 E4.19995
G1 X102.502 Y102.74 E4.23271
G1 X102.587 Y102.589 E4.23847
G1 X102.992 Y101.927 E4.26428
G1 X103.153 Y101.683 E4.27401
G1 X103.774 Y100.833 E4.30902
G1 X103.912 Y100.662 E4.31633
G1 X104.521 Y99.969 E4.34701
G0 F6000 X104.81 Y100.245
G1 F1200 X104.962 Y100.086 E4.35433
G1 X105.547 Y99.519 E4.38142
G1 X105.731 Y99.354 E4.38964
G1 X106.434 Y98.777 E4.41989
G1 X106.624 Y98.634 E4.4278
G1 X107.411 Y98.095 E4.45953
G1 X107.569 Y97.997 E4.46571
G1 X108.219 Y97.625 E4.49062
G1 X108.485 Y97.485 E4.50062
G1 X109.476 Y97.027 E4.53693
G1 X109.663 Y96.952 E4.54363
G1 X110.445 Y96.673 E4.57125
G1 X110.704 Y96.592 E4.58027
G1 X111.563 Y96.363 E4.60984
G1 X111.774 Y96.316 E4.61703
G1 X112.69 Y96.153 E4.64798
G1 X112.864 Y96.13 E4.65381
G1 X114.03 Y96.041 E4.69271
G1 X115.411 Y96.012 E4.73865
G1 X115.634 Y96.01 E4.74607
G1 X119.366 Y96.01 E4.87019
G1 X119.589 Y96.012 E4.87761
G1 X120.97 Y96.041 E4.92355
G1 X121.888 Y96.101 E4.95415
G1 X122.518 Y96.188 E4.9753
G1 X122.819 Y96.239 E4.98546
G1 X123.801 Y96.454 E5.01889
G1 X124.065 Y96.525 E5.02799
G1 X125.236 Y96.914 E5.06903
G1 X125.507 Y97.022 E5.07873
G1 X126.22 Y97.337 E5.10466
G1 X126.368 Y97.409 E5.11013
G1 X127.17 Y97.843 E5.14046
G1 X127.446 Y98.008 E5.15115
G1 X128.319 Y98.59 E5.18605
G1 X128.462 Y98.696 E5.19197
G1 X129.042 Y99.158 E5.21663
G1 X129.236 Y99.324 E5.22513
G1 X129.967 Y100.012 E5.25852
G1 X130.139 Y100.19 E5.26675
G1 X130.771 Y100.907 E5.29854
G1 X130.92 Y101.092 E5.30644
G1 X131.392 Y101.724 E5.33267
G1 X131.503 Y101.885 E5.33918
G1 X131.958 Y102.606 E5.36753
G1 X132.097 Y102.847 E5.37679
G1 X132.576 Y103.78 E5.41167
G1 X132.674 Y103.997 E5.41959
G1 X132.978 Y104.747 E5.44651
G1 X133.04 Y104.918 E5.45256
G1 X133.291 Y105.704 E5.48
G1 X133.361 Y105.957 E5.48873
G1 X133.58 Y106.922 E5.52164
G1 X133.628 Y107.191 E5.53073
G1 X133.754 Y108.146 E5.56277
G1 X133.774 Y108.379 E5.57055
G1 X133.812 Y109.123 E5.59532
G1 X133.813 Y109.503 E5.60796
G1 X133.803 Y110.14 E5.62915
G1 X133.745 Y112.179 E5.697
G1 X133.745 Y114.696 E5.78071
G1 X133.808 Y116.986 E5.85691
G1 X133.813 Y117.324 E5.86815
G1 X133.813 Y117.643 E5.87876
G1 X133.803 Y118.24 E5.89862
G1 X133.745 Y120.279 E5.96646
G1 X133.745 Y122.796 E6.05018
G1 X133.808 Y125.081 E6.12621
G1 X133.813 Y125.409 E6.13712
G1 X133.806 Y125.995 E6.15661
G1 X133.795 Y126.27 E6.16577
G1 X133.686 Y127.414 E6.20399
G1 X133.635 Y127.755 E6.21546
G1 X133.423 Y128.809 E6.25121
G1 X133.375 Y128.997 E6.25767
G1 X133.148 Y129.764 E6.28427
G1 X133.065 Y130.01 E6.29291
G1 X132.706 Y130.93 E6.32575
G1 X132.605 Y131.157 E6.33402
G1 X132.181 Y132.005 E6.36555
G1 X132.088 Y132.172 E6.37191
G1 X131.675 Y132.853 E6.3984
G1 X131.514 Y133.097 E6.40812
G1 X130.915 Y133.916 E6.44187
G1 X130.777 Y134.087 E6.44918
G1 X130.19 Y134.755 E6.47875
G1 X130.038 Y134.914 E6.48607
G1 X129.467 Y135.468 E6.51253
G1 X129.287 Y135.63 E6.52059
G1 X128.57 Y136.221 E6.55149
G1 X128.376 Y136.367 E6.55957
G1 X127.589 Y136.905 E6.59127
G1 X127.431 Y137.003 E6.59746
G1 X126.781 Y137.375 E6.62237
G1 X126.515 Y137.515 E6.63236
G1 X125.682 Y137.908 E6.663
G1 X125.187 Y138.102 E6.68068
G1 X124.817 Y138.236 E6.69377
G1 X123.686 Y138.575 E6.73304
G1 X123.399 Y138.644 E6.74286
G1 X122.31 Y138.847 E6.7797
G1 X122.136 Y138.87 E6.78554
G1 X120.97 Y138.959 E6.82443
G1 X119.589 Y138.988 E6.87038
G1 X119.366 Y138.99 E6.87779
G1 X115.634 Y138.99 E7.00192
G1 X115.411 Y138.988 E7.00934
G1 X114.03 Y138.959 E7.05528
G1 X113.112 Y138.899 E7.08588
G1 X112.482 Y138.812 E7.10703
G1 X112.181 Y138.761 E7.11719
G1 X111.199 Y138.546 E7.15062
G1 X110.935 Y138.475 E7.15971
G1 X109.829 Y138.111 E7.19844
G1 X109.609 Y138.025 E7.2063
G1 X108.98 Y137.756 E7.22905
G1 X108.781 Y137.663 E7.23636
G1 X107.792 Y137.135 E7.27364
G1 X107.512 Y136.966 E7.28452
G1 X106.668 Y136.4 E7.31832
G1 X106.528 Y136.296 E7.32412
G1 X105.957 Y135.841 E7.34841
G1 X105.763 Y135.675 E7.3569
G1 X105.018 Y134.972 E7.39097
G1 X104.838 Y134.785 E7.3996
G1 X104.181 Y134.035 E7.43276
G1 X104.029 Y133.844 E7.44088
G1 X103.578 Y133.233 E7.46614
G1 X103.478 Y133.087 E7.47203
G1 X103.009 Y132.337 E7.50145
G1 X102.864 Y132.082 E7.5112
G1 X102.407 Y131.182 E7.54478
G1 X102.315 Y130.977 E7.55225
G1 X102.029 Y130.274 E7.57749
G1 X101.968 Y130.107 E7.58341
G1 X101.699 Y129.259 E7.61299
G1 X101.63 Y129.006 E7.62172
G1 X101.424 Y128.096 E7.65275
G1 X101.375 Y127.824 E7.66194
G1 X101.244 Y126.829 E7.69532
G1 X101.224 Y126.59 E7.7033
G1 X101.188 Y125.816 E7.72907
G1 X101.187 Y125.445 E7.74141
G1 X101.197 Y124.86 E7.76087
G1 X101.255 Y122.821 E7.82871
G1 X101.255 Y120.305 E7.9124
G1 X101.192 Y118.014 E7.98862
G1 X101.187 Y117.676 E7.99987
G1 X101.187 Y117.357 E8.01048
G1 X101.197 Y116.76 E8.03034
G1 X101.255 Y114.721 E8.09818
G1 X101.255 Y112.204 E8.1819
G1 X101.194 Y110.014 E8.25476
G1 X101.187 Y109.519 E8.27123
G1 X101.198 Y108.878 E8.29255
G1 X101.21 Y108.63 E8.30081
G1 X101.325 Y107.507 E8.33836
G1 X101.379 Y107.161 E8.35001
G1 X101.596 Y106.118 E8.38544
G1 X101.643 Y105.938 E8.39163
G1 X101.851 Y105.239 E8.41588
G1 X101.931 Y105.001 E8.42423
G1 X102.314 Y104.025 E8.45911
G1 X102.423 Y103.783 E8.46793
G1 X102.851 Y102.936 E8.4995
G1 X102.936 Y102.785 E8.50526
G1 X103.325 Y102.147 E8.53011
G1 X103.486 Y101.903 E8.53984
G1 X104.085 Y101.084 E8.57358
G1 X104.223 Y100.913 E8.58089
G1 X104.81 Y100.245 E8.61047
G0 F6000 X105.099 Y100.522
G1 F1200 X105.251 Y100.363 E8.61779
G1 X105.814 Y99.817 E8.64387
G1 X105.998 Y99.652 E8.65209
G1 X106.674 Y99.096 E8.6812
G1 X106.864 Y98.953 E8.68911
G1 X107.622 Y98.435 E8.71965
G1 X107.78 Y98.337 E8.72583
G1 X108.405 Y97.979 E8.74979
G1 X108.671 Y97.839 E8.75979
G1 X109.625 Y97.398 E8.79474
G1 X109.812 Y97.323 E8.80144
G1 X110.564 Y97.055 E8.828
G1 X110.823 Y96.974 E8.83702
G1 X111.65 Y96.753 E8.86549
G1 X111.861 Y96.706 E8.87268
G1 X112.742 Y96.55 E8.90244
G1 X112.916 Y96.527 E8.90828
G1 X114.039 Y96.441 E8.94574
G1 X115.42 Y96.412 E8.99168
G1 X115.634 Y96.41 E8.9988
G1 X119.366 Y96.41 E9.12293
G1 X119.58 Y96.412 E9.13004
G1 X120.961 Y96.441 E9.17599
G1 X121.862 Y96.5 E9.20602
G1 X122.451 Y96.582 E9.2258
G1 X122.752 Y96.633 E9.23595
G1 X123.697 Y96.84 E9.26813
G1 X123.961 Y96.911 E9.27722
G1 X125.088 Y97.286 E9.31673
G1 X125.359 Y97.394 E9.32643
G1 X126.045 Y97.697 E9.35137
G1 X126.193 Y97.769 E9.35685
G1 X126.965 Y98.186 E9.38603
G1 X127.241 Y98.351 E9.39672
G1 X128.081 Y98.912 E9.43032
G1 X128.224 Y99.018 E9.43624
G1 X128.781 Y99.462 E9.45993
G1 X128.975 Y99.628 E9.46842
G1 X129.679 Y100.29 E9.50057
G1 X129.851 Y100.468 E9.5088
G1 X130.46 Y101.158 E9.53941
G1 X130.609 Y101.343 E9.54731
G1 X131.063 Y101.951 E9.57255
G1 X131.174 Y102.112 E9.57905
G1 X131.612 Y102.806 E9.60635
G1 X131.751 Y103.047 E9.6156
G1 X132.211 Y103.945 E9.64916
G1 X132.309 Y104.162 E9.65708
G1 X132.602 Y104.883 E9.68296
G1 X132.664 Y105.054 E9.68901
G1 X132.906 Y105.811 E9.71544
G1 X132.976 Y106.064 E9.72418
G1 X133.186 Y106.992 E9.75582
G1 X133.234 Y107.261 E9.76491
G1 X133.356 Y108.181 E9.79578
G1 X133.376 Y108.414 E9.80356
G1 X133.412 Y109.129 E9.82737
G1 X133.413 Y109.497 E9.83961
G1 X133.403 Y110.129 E9.86063
G1 X133.345 Y112.168 E9.92847
G1 X133.345 Y114.707 E10.01292
G1 X133.408 Y116.992 E10.08895
G1 X133.413 Y117.33 E10.10019
G1 X133.413 Y117.637 E10.1104
G1 X133.403 Y118.229 E10.1301
G1 X133.345 Y120.268 E10.19794
G1 X133.345 Y122.807 E10.28239
G1 X133.408 Y125.088 E10.35828
G1 X133.413 Y125.416 E10.36919
G1 X133.406 Y125.979 E10.38792
G1 X133.395 Y126.254 E10.39708
G1 X133.291 Y127.355 E10.43386
G1 X133.24 Y127.696 E10.44533
G1 X133.035 Y128.71 E10.47973
G1 X132.987 Y128.898 E10.48619
G1 X132.769 Y129.636 E10.51178
G1 X132.686 Y129.882 E10.52042
G1 X132.34 Y130.767 E10.55202
G1 X132.239 Y130.994 E10.56029
G1 X131.831 Y131.811 E10.59066
G1 X131.738 Y131.978 E10.59702
G1 X131.341 Y132.633 E10.62249
G1 X131.18 Y132.877 E10.63221
G1 X130.604 Y133.665 E10.66468
G1 X130.466 Y133.836 E10.67199
G1 X129.901 Y134.478 E10.70043
G1 X129.749 Y134.637 E10.70775
G1 X129.199 Y135.171 E10.73324
G1 X129.019 Y135.333 E10.7413
G1 X128.329 Y135.901 E10.77102
G1 X128.135 Y136.047 E10.7791
G1 X127.378 Y136.565 E10.80961
G1 X127.22 Y136.663 E10.81579
G1 X126.595 Y137.021 E10.83975
G1 X126.329 Y137.161 E10.84975
G1 X125.512 Y137.546 E10.87979
G1 X125.051 Y137.725 E10.89623
G1 X124.681 Y137.859 E10.90932
G1 X123.592 Y138.186 E10.94714
G1 X123.305 Y138.255 E10.95696
G1 X122.258 Y138.45 E10.99238
G1 X122.084 Y138.473 E10.99822
G1 X120.961 Y138.559 E11.03568
G1 X119.58 Y138.588 E11.08162
G1 X119.366 Y138.59 E11.08874
G1 X115.634 Y138.59 E11.21286
G1 X115.42 Y138.588 E11.21998
G1 X114.039 Y138.559 E11.26593
G1 X113.138 Y138.5 E11.29596
G1 X112.549 Y138.418 E11.31574
G1 X112.248 Y138.367 E11.32589
G1 X111.303 Y138.16 E11.35807
G1 X111.039 Y138.089 E11.36716
G1 X109.974 Y137.739 E11.40444
G1 X109.754 Y137.653 E11.4123
G1 X109.149 Y137.394 E11.43419
G1 X108.95 Y137.301 E11.4415
G1 X107.998 Y136.793 E11.47739
G1 X107.718 Y136.624 E11.48826
G1 X106.906 Y136.079 E11.52079
G1 X106.766 Y135.975 E11.52659
G1 X106.218 Y135.537 E11.54992
G1 X106.024 Y135.371 E11.55842
G1 X105.306 Y134.695 E11.59122
G1 X105.126 Y134.508 E11.59985
G1 X104.494 Y133.785 E11.63179
G1 X104.342 Y133.594 E11.63991
G1 X103.908 Y133.007 E11.66419
G1 X103.808 Y132.861 E11.67007
G1 X103.356 Y132.139 E11.6984
G1 X103.211 Y131.884 E11.70816
G1 X102.772 Y131.018 E11.74045
G1 X102.68 Y130.813 E11.74793
G1 X102.405 Y130.137 E11.7722
G1 X102.344 Y129.97 E11.77811
G1 X102.084 Y129.154 E11.8066
G1 X102.015 Y128.901 E11.81532
G1 X101.818 Y128.025 E11.84518
G1 X101.769 Y127.753 E11.85438
G1 X101.643 Y126.796 E11.88648
G1 X101.623 Y126.557 E11.89446
G1 X101.588 Y125.812 E11.91926
G1 X101.587 Y125.451 E11.93127
G1 X101.597 Y124.871 E11.95056
G1 X101.655 Y122.832 E12.01841
G1 X101.655 Y120.294 E12.10282
G1 X101.592 Y118.008 E12.17888
G1 X101.587 Y117.67 E12.19013
G1 X101.587 Y117.363 E12.20034
G1 X101.597 Y116.771 E12.22003
G1 X101.655 Y114.732 E12.28788
G1 X101.655 Y112.193 E12.37232
G1 X101.591 Y109.843 E12.45051
G1 X101.587 Y109.514 E12.46146
G1 X101.598 Y108.897 E12.48198
G1 X101.61 Y108.649 E12.49024
G1 X101.72 Y107.569 E12.52635
G1 X101.774 Y107.223 E12.53799
G1 X101.983 Y106.219 E12.5721
G1 X102.03 Y106.039 E12.57829
G1 X102.231 Y105.366 E12.60165
G1 X102.311 Y105.128 E12.61
G1 X102.679 Y104.189 E12.64355
G1 X102.788 Y103.947 E12.65238
G1 X103.2 Y103.133 E12.68272
